<?xml version="1.0" encoding="UTF-8"?>
<map version="1.10" tiledversion="1.12.0" orientation="orthogonal" renderorder="right-down" width="75" height="64" tilewidth="128" tileheight="128" infinite="0" nextlayerid="22" nextobjectid="410">
 <tileset firstgid="1" name="LV1_test_tileset" tilewidth="128" tileheight="128" tilecount="3" columns="3">
  <image source="LV1_test_tileset.png" width="384" height="128"/>
 </tileset>
 <tileset firstgid="4" name="tileset_lv3_General_01" tilewidth="128" tileheight="128" tilecount="1290" columns="43">
  <image source="tileset_lv3_General_01.png" width="5588" height="3840"/>
 </tileset>
 <layer id="16" name="Background" width="75" height="64">
  <properties>
   <property name="Draw" type="bool" value="true"/>
  </properties>
  <data>
   <tile gid="1277"/>
   <tile gid="1277"/>
   <tile gid="1277"/>
   <tile gid="1277"/>
   <tile gid="1277"/>
   <tile gid="1277"/>
   <tile gid="1277"/>
   <tile gid="1277"/>
   <tile gid="1277"/>
   <tile gid="1277"/>
   <tile gid="1277"/>
   <tile gid="1277"/>
   <tile gid="1277"/>
   <tile gid="1277"/>
   <tile gid="1277"/>
   <tile gid="1277"/>
   <tile gid="1277"/>
   <tile gid="1277"/>
   <tile gid="1277"/>
   <tile gid="1277"/>
   <tile gid="1277"/>
   <tile gid="1277"/>
   <tile gid="1277"/>
   <tile gid="1277"/>
   <tile gid="1277"/>
   <tile gid="1277"/>
   <tile gid="1277"/>
   <tile gid="1277"/>
   <tile gid="1277"/>
   <tile gid="1277"/>
   <tile gid="1277"/>
   <tile gid="1277"/>
   <tile gid="1277"/>
   <tile gid="1277"/>
   <tile gid="1277"/>
   <tile gid="1277"/>
   <tile gid="1277"/>
   <tile gid="1277"/>
   <tile gid="1277"/>
   <tile gid="1277"/>
   <tile gid="1277"/>
   <tile gid="1277"/>
   <tile gid="1277"/>
   <tile gid="1277"/>
   <tile gid="1277"/>
   <tile gid="1277"/>
   <tile gid="1277"/>
   <tile gid="1277"/>
   <tile gid="1277"/>
   <tile gid="1277"/>
   <tile gid="1277"/>
   <tile gid="1277"/>
   <tile gid="1277"/>
   <tile gid="1277"/>
   <tile gid="1277"/>
   <tile gid="1277"/>
   <tile gid="1277"/>
   <tile gid="1277"/>
   <tile gid="1277"/>
   <tile gid="1277"/>
   <tile gid="1277"/>
   <tile gid="1277"/>
   <tile gid="1277"/>
   <tile gid="1277"/>
   <tile gid="1277"/>
   <tile gid="1277"/>
   <tile gid="1277"/>
   <tile gid="1277"/>
   <tile gid="1277"/>
   <tile gid="1277"/>
   <tile gid="1277"/>
   <tile gid="1277"/>
   <tile gid="1277"/>
   <tile gid="1277"/>
   <tile gid="1277"/>
   <tile gid="1277"/>
   <tile gid="1277"/>
   <tile gid="1277"/>
   <tile gid="1277"/>
   <tile gid="1277"/>
   <tile gid="1277"/>
   <tile gid="1277"/>
   <tile gid="1277"/>
   <tile gid="1277"/>
   <tile gid="1277"/>
   <tile gid="1277"/>
   <tile gid="1277"/>
   <tile gid="1277"/>
   <tile gid="1277"/>
   <tile gid="1277"/>
   <tile gid="1277"/>
   <tile gid="1277"/>
   <tile gid="1277"/>
   <tile gid="1277"/>
   <tile gid="1277"/>
   <tile gid="1277"/>
   <tile gid="1277"/>
   <tile gid="1277"/>
   <tile gid="1277"/>
   <tile gid="1277"/>
   <tile gid="1277"/>
   <tile gid="1277"/>
   <tile gid="1277"/>
   <tile gid="1277"/>
   <tile gid="1277"/>
   <tile gid="1277"/>
   <tile gid="1277"/>
   <tile gid="1277"/>
   <tile gid="1277"/>
   <tile gid="1277"/>
   <tile gid="1277"/>
   <tile gid="1277"/>
   <tile gid="1277"/>
   <tile gid="1277"/>
   <tile gid="1277"/>
   <tile gid="1277"/>
   <tile gid="1277"/>
   <tile gid="1277"/>
   <tile gid="1277"/>
   <tile gid="1277"/>
   <tile gid="1277"/>
   <tile gid="1277"/>
   <tile gid="1277"/>
   <tile gid="1277"/>
   <tile gid="1277"/>
   <tile gid="1277"/>
   <tile gid="1277"/>
   <tile gid="1277"/>
   <tile gid="1277"/>
   <tile gid="1277"/>
   <tile gid="1277"/>
   <tile gid="1277"/>
   <tile gid="1277"/>
   <tile gid="1277"/>
   <tile gid="1277"/>
   <tile gid="1277"/>
   <tile gid="1277"/>
   <tile gid="1277"/>
   <tile gid="1277"/>
   <tile gid="1277"/>
   <tile gid="1277"/>
   <tile gid="1277"/>
   <tile gid="1277"/>
   <tile gid="1277"/>
   <tile gid="1277"/>
   <tile gid="1277"/>
   <tile gid="1277"/>
   <tile gid="1277"/>
   <tile gid="1277"/>
   <tile gid="1277"/>
   <tile gid="1277"/>
   <tile gid="1277"/>
   <tile gid="1277"/>
   <tile gid="1277"/>
   <tile gid="1277"/>
   <tile gid="1277"/>
   <tile gid="1277"/>
   <tile gid="1277"/>
   <tile gid="1277"/>
   <tile gid="1277"/>
   <tile gid="1277"/>
   <tile gid="1277"/>
   <tile gid="1277"/>
   <tile gid="1277"/>
   <tile gid="1277"/>
   <tile gid="1277"/>
   <tile gid="1277"/>
   <tile gid="1277"/>
   <tile gid="1277"/>
   <tile gid="1277"/>
   <tile gid="1277"/>
   <tile gid="1277"/>
   <tile gid="1277"/>
   <tile gid="1277"/>
   <tile gid="1277"/>
   <tile gid="1277"/>
   <tile gid="1277"/>
   <tile gid="1277"/>
   <tile gid="1277"/>
   <tile gid="1277"/>
   <tile gid="1277"/>
   <tile gid="1277"/>
   <tile gid="1277"/>
   <tile gid="1277"/>
   <tile gid="1277"/>
   <tile gid="1277"/>
   <tile gid="1277"/>
   <tile gid="1277"/>
   <tile gid="1277"/>
   <tile gid="1277"/>
   <tile gid="1277"/>
   <tile gid="1277"/>
   <tile gid="1277"/>
   <tile gid="1277"/>
   <tile gid="1277"/>
   <tile gid="1277"/>
   <tile gid="1277"/>
   <tile gid="1277"/>
   <tile gid="1277"/>
   <tile gid="1277"/>
   <tile gid="1277"/>
   <tile gid="1277"/>
   <tile gid="1277"/>
   <tile gid="1277"/>
   <tile gid="1277"/>
   <tile gid="1277"/>
   <tile gid="1277"/>
   <tile gid="1277"/>
   <tile gid="1277"/>
   <tile gid="1277"/>
   <tile gid="1277"/>
   <tile gid="1277"/>
   <tile gid="1277"/>
   <tile gid="1277"/>
   <tile gid="1277"/>
   <tile gid="1277"/>
   <tile gid="1277"/>
   <tile gid="1277"/>
   <tile gid="1277"/>
   <tile gid="1277"/>
   <tile gid="1277"/>
   <tile gid="1277"/>
   <tile gid="1277"/>
   <tile gid="1277"/>
   <tile gid="1277"/>
   <tile gid="1277"/>
   <tile gid="1277"/>
   <tile gid="1277"/>
   <tile gid="1277"/>
   <tile gid="1277"/>
   <tile gid="1277"/>
   <tile gid="1277"/>
   <tile gid="1277"/>
   <tile gid="1277"/>
   <tile gid="1277"/>
   <tile gid="1277"/>
   <tile gid="1277"/>
   <tile gid="1277"/>
   <tile gid="1277"/>
   <tile gid="1277"/>
   <tile gid="1277"/>
   <tile gid="1277"/>
   <tile gid="1277"/>
   <tile gid="1277"/>
   <tile gid="1277"/>
   <tile gid="1277"/>
   <tile gid="1277"/>
   <tile gid="1277"/>
   <tile gid="1277"/>
   <tile gid="1277"/>
   <tile gid="1277"/>
   <tile gid="1277"/>
   <tile gid="1277"/>
   <tile gid="1277"/>
   <tile gid="1277"/>
   <tile gid="1277"/>
   <tile gid="1277"/>
   <tile gid="1277"/>
   <tile gid="1277"/>
   <tile gid="1277"/>
   <tile gid="1277"/>
   <tile gid="1277"/>
   <tile gid="1277"/>
   <tile gid="1277"/>
   <tile gid="1277"/>
   <tile gid="1277"/>
   <tile gid="1277"/>
   <tile gid="1277"/>
   <tile gid="1277"/>
   <tile gid="1277"/>
   <tile gid="1277"/>
   <tile gid="1277"/>
   <tile gid="1277"/>
   <tile gid="1277"/>
   <tile gid="1277"/>
   <tile gid="1277"/>
   <tile gid="1277"/>
   <tile gid="1277"/>
   <tile gid="1277"/>
   <tile gid="1277"/>
   <tile gid="1277"/>
   <tile gid="1277"/>
   <tile gid="1277"/>
   <tile gid="1277"/>
   <tile gid="1277"/>
   <tile gid="1277"/>
   <tile gid="1277"/>
   <tile gid="1277"/>
   <tile gid="1277"/>
   <tile gid="1277"/>
   <tile gid="1277"/>
   <tile gid="1277"/>
   <tile gid="1277"/>
   <tile gid="1277"/>
   <tile gid="1277"/>
   <tile gid="1277"/>
   <tile gid="1277"/>
   <tile gid="1277"/>
   <tile gid="1277"/>
   <tile gid="1277"/>
   <tile gid="1277"/>
   <tile gid="1277"/>
   <tile gid="1277"/>
   <tile gid="1277"/>
   <tile gid="1277"/>
   <tile gid="1277"/>
   <tile gid="1277"/>
   <tile gid="1277"/>
   <tile gid="1277"/>
   <tile gid="1277"/>
   <tile gid="1277"/>
   <tile gid="1277"/>
   <tile gid="1277"/>
   <tile gid="1277"/>
   <tile gid="1277"/>
   <tile gid="1277"/>
   <tile gid="1277"/>
   <tile gid="1277"/>
   <tile gid="1277"/>
   <tile gid="1277"/>
   <tile gid="1277"/>
   <tile gid="1277"/>
   <tile gid="1277"/>
   <tile gid="1277"/>
   <tile gid="1277"/>
   <tile gid="1277"/>
   <tile gid="1277"/>
   <tile gid="1277"/>
   <tile gid="1277"/>
   <tile gid="1277"/>
   <tile gid="1277"/>
   <tile gid="1277"/>
   <tile gid="1277"/>
   <tile gid="1277"/>
   <tile gid="1277"/>
   <tile gid="1277"/>
   <tile gid="1277"/>
   <tile gid="1277"/>
   <tile gid="1277"/>
   <tile gid="1277"/>
   <tile gid="1277"/>
   <tile gid="1277"/>
   <tile gid="1277"/>
   <tile gid="1277"/>
   <tile gid="1277"/>
   <tile gid="1277"/>
   <tile gid="1277"/>
   <tile gid="1277"/>
   <tile gid="1277"/>
   <tile gid="1277"/>
   <tile gid="1277"/>
   <tile gid="1277"/>
   <tile gid="1277"/>
   <tile gid="1277"/>
   <tile gid="1277"/>
   <tile gid="1277"/>
   <tile gid="1277"/>
   <tile gid="1277"/>
   <tile gid="1277"/>
   <tile gid="1277"/>
   <tile gid="1277"/>
   <tile gid="1277"/>
   <tile gid="1277"/>
   <tile gid="1277"/>
   <tile gid="1277"/>
   <tile gid="1277"/>
   <tile gid="1277"/>
   <tile gid="1277"/>
   <tile gid="1277"/>
   <tile gid="1277"/>
   <tile gid="1277"/>
   <tile gid="1277"/>
   <tile gid="1277"/>
   <tile gid="1277"/>
   <tile gid="1277"/>
   <tile gid="1277"/>
   <tile gid="1277"/>
   <tile gid="1277"/>
   <tile gid="1277"/>
   <tile gid="1277"/>
   <tile gid="1277"/>
   <tile gid="1277"/>
   <tile gid="1277"/>
   <tile gid="1277"/>
   <tile gid="1277"/>
   <tile gid="1277"/>
   <tile gid="1277"/>
   <tile gid="1277"/>
   <tile gid="1277"/>
   <tile gid="1277"/>
   <tile gid="1277"/>
   <tile gid="1277"/>
   <tile gid="1277"/>
   <tile gid="1277"/>
   <tile gid="1277"/>
   <tile gid="1277"/>
   <tile gid="1277"/>
   <tile gid="1277"/>
   <tile gid="1277"/>
   <tile gid="1277"/>
   <tile gid="1277"/>
   <tile gid="1277"/>
   <tile gid="1277"/>
   <tile gid="1277"/>
   <tile gid="1277"/>
   <tile gid="1277"/>
   <tile gid="1277"/>
   <tile gid="1277"/>
   <tile gid="1277"/>
   <tile gid="1277"/>
   <tile gid="1277"/>
   <tile gid="1277"/>
   <tile gid="1277"/>
   <tile gid="1277"/>
   <tile gid="1277"/>
   <tile gid="1277"/>
   <tile gid="1277"/>
   <tile gid="1277"/>
   <tile gid="1277"/>
   <tile gid="1277"/>
   <tile gid="1277"/>
   <tile gid="1277"/>
   <tile gid="1277"/>
   <tile gid="1277"/>
   <tile gid="1277"/>
   <tile gid="1277"/>
   <tile gid="1277"/>
   <tile gid="1277"/>
   <tile gid="1277"/>
   <tile gid="1277"/>
   <tile gid="1277"/>
   <tile gid="1277"/>
   <tile gid="1277"/>
   <tile gid="1277"/>
   <tile gid="1277"/>
   <tile gid="1277"/>
   <tile gid="1277"/>
   <tile gid="1277"/>
   <tile gid="1277"/>
   <tile gid="1277"/>
   <tile gid="1277"/>
   <tile gid="1277"/>
   <tile gid="1277"/>
   <tile gid="1277"/>
   <tile gid="1277"/>
   <tile gid="1277"/>
   <tile gid="1277"/>
   <tile gid="1277"/>
   <tile gid="1277"/>
   <tile gid="1277"/>
   <tile gid="1277"/>
   <tile gid="1277"/>
   <tile gid="1277"/>
   <tile gid="1277"/>
   <tile gid="1277"/>
   <tile gid="1277"/>
   <tile gid="1277"/>
   <tile gid="1277"/>
   <tile gid="1277"/>
   <tile gid="1277"/>
   <tile gid="1277"/>
   <tile gid="1277"/>
   <tile gid="1277"/>
   <tile gid="1277"/>
   <tile gid="1277"/>
   <tile gid="1277"/>
   <tile gid="1277"/>
   <tile gid="1277"/>
   <tile gid="1277"/>
   <tile gid="1277"/>
   <tile gid="1277"/>
   <tile gid="1277"/>
   <tile gid="1277"/>
   <tile gid="1277"/>
   <tile gid="1277"/>
   <tile gid="1277"/>
   <tile gid="1277"/>
   <tile gid="1277"/>
   <tile gid="1277"/>
   <tile gid="1277"/>
   <tile gid="1277"/>
   <tile gid="1277"/>
   <tile gid="1277"/>
   <tile gid="1277"/>
   <tile gid="1277"/>
   <tile gid="1277"/>
   <tile gid="1277"/>
   <tile gid="1277"/>
   <tile gid="1277"/>
   <tile gid="1277"/>
   <tile gid="1277"/>
   <tile gid="1277"/>
   <tile gid="1277"/>
   <tile gid="1277"/>
   <tile gid="1277"/>
   <tile gid="1277"/>
   <tile gid="1277"/>
   <tile gid="1277"/>
   <tile gid="1277"/>
   <tile gid="1277"/>
   <tile gid="1277"/>
   <tile gid="1277"/>
   <tile gid="1277"/>
   <tile gid="1277"/>
   <tile gid="1277"/>
   <tile gid="1277"/>
   <tile gid="1277"/>
   <tile gid="1277"/>
   <tile gid="1277"/>
   <tile gid="1277"/>
   <tile gid="1277"/>
   <tile gid="1277"/>
   <tile gid="1277"/>
   <tile gid="1277"/>
   <tile gid="1277"/>
   <tile gid="1277"/>
   <tile gid="1277"/>
   <tile gid="1277"/>
   <tile gid="1277"/>
   <tile gid="1277"/>
   <tile gid="1277"/>
   <tile gid="1277"/>
   <tile gid="1277"/>
   <tile gid="1277"/>
   <tile gid="1277"/>
   <tile gid="1277"/>
   <tile gid="1277"/>
   <tile gid="1277"/>
   <tile gid="1277"/>
   <tile gid="1277"/>
   <tile gid="1277"/>
   <tile gid="1277"/>
   <tile gid="1277"/>
   <tile gid="1277"/>
   <tile gid="1277"/>
   <tile gid="1277"/>
   <tile gid="1277"/>
   <tile gid="1277"/>
   <tile gid="1277"/>
   <tile gid="1277"/>
   <tile gid="1277"/>
   <tile gid="1277"/>
   <tile gid="1277"/>
   <tile gid="1277"/>
   <tile gid="1277"/>
   <tile gid="1277"/>
   <tile gid="1277"/>
   <tile gid="1277"/>
   <tile gid="1277"/>
   <tile gid="1277"/>
   <tile gid="1277"/>
   <tile gid="1277"/>
   <tile gid="1277"/>
   <tile gid="1277"/>
   <tile gid="1277"/>
   <tile gid="1277"/>
   <tile gid="1277"/>
   <tile gid="1277"/>
   <tile gid="1277"/>
   <tile gid="1277"/>
   <tile gid="1277"/>
   <tile gid="1277"/>
   <tile gid="1277"/>
   <tile gid="1277"/>
   <tile gid="1277"/>
   <tile gid="1276"/>
   <tile gid="1190"/>
   <tile gid="1277"/>
   <tile gid="1277"/>
   <tile gid="1277"/>
   <tile gid="1276"/>
   <tile gid="1233"/>
   <tile gid="1190"/>
   <tile gid="1277"/>
   <tile gid="1277"/>
   <tile gid="1277"/>
   <tile gid="1277"/>
   <tile gid="1277"/>
   <tile gid="1277"/>
   <tile gid="1277"/>
   <tile gid="1277"/>
   <tile gid="1277"/>
   <tile gid="1277"/>
   <tile gid="1277"/>
   <tile gid="1277"/>
   <tile gid="1277"/>
   <tile gid="1277"/>
   <tile gid="1277"/>
   <tile gid="1277"/>
   <tile gid="1277"/>
   <tile gid="1277"/>
   <tile gid="1277"/>
   <tile gid="1277"/>
   <tile gid="1277"/>
   <tile gid="1277"/>
   <tile gid="1277"/>
   <tile gid="1277"/>
   <tile gid="1277"/>
   <tile gid="1277"/>
   <tile gid="1277"/>
   <tile gid="1277"/>
   <tile gid="1277"/>
   <tile gid="1277"/>
   <tile gid="1277"/>
   <tile gid="1277"/>
   <tile gid="1277"/>
   <tile gid="1277"/>
   <tile gid="1277"/>
   <tile gid="1277"/>
   <tile gid="1277"/>
   <tile gid="1277"/>
   <tile gid="1277"/>
   <tile gid="1277"/>
   <tile gid="1277"/>
   <tile gid="1277"/>
   <tile gid="1277"/>
   <tile gid="1277"/>
   <tile gid="1277"/>
   <tile gid="1277"/>
   <tile gid="1277"/>
   <tile gid="1277"/>
   <tile gid="1277"/>
   <tile gid="1277"/>
   <tile gid="1277"/>
   <tile gid="1277"/>
   <tile gid="1277"/>
   <tile gid="1277"/>
   <tile gid="1277"/>
   <tile gid="1277"/>
   <tile gid="1277"/>
   <tile gid="1277"/>
   <tile gid="1277"/>
   <tile gid="1277"/>
   <tile gid="1277"/>
   <tile gid="1277"/>
   <tile gid="1277"/>
   <tile gid="1277"/>
   <tile gid="1277"/>
   <tile gid="1277"/>
   <tile gid="1277"/>
   <tile gid="1190"/>
   <tile gid="1276"/>
   <tile gid="1277"/>
   <tile gid="1277"/>
   <tile gid="1277"/>
   <tile gid="1277"/>
   <tile gid="1277"/>
   <tile gid="1277"/>
   <tile gid="1277"/>
   <tile gid="1277"/>
   <tile gid="1277"/>
   <tile gid="1277"/>
   <tile gid="1277"/>
   <tile gid="1277"/>
   <tile gid="1277"/>
   <tile gid="1277"/>
   <tile gid="1277"/>
   <tile gid="1277"/>
   <tile gid="1277"/>
   <tile gid="1277"/>
   <tile gid="1277"/>
   <tile gid="1277"/>
   <tile gid="1277"/>
   <tile gid="1277"/>
   <tile gid="1277"/>
   <tile gid="1277"/>
   <tile gid="1277"/>
   <tile gid="1277"/>
   <tile gid="1277"/>
   <tile gid="1277"/>
   <tile gid="1277"/>
   <tile gid="1277"/>
   <tile gid="1277"/>
   <tile gid="1277"/>
   <tile gid="1277"/>
   <tile gid="1277"/>
   <tile gid="1277"/>
   <tile gid="1277"/>
   <tile gid="1277"/>
   <tile gid="1277"/>
   <tile gid="1277"/>
   <tile gid="1277"/>
   <tile gid="1277"/>
   <tile gid="1277"/>
   <tile gid="1277"/>
   <tile gid="1277"/>
   <tile gid="1277"/>
   <tile gid="1277"/>
   <tile gid="1277"/>
   <tile gid="1277"/>
   <tile gid="1277"/>
   <tile gid="1277"/>
   <tile gid="1277"/>
   <tile gid="1277"/>
   <tile gid="1277"/>
   <tile gid="1277"/>
   <tile gid="1277"/>
   <tile gid="1277"/>
   <tile gid="1277"/>
   <tile gid="1277"/>
   <tile gid="1277"/>
   <tile gid="1277"/>
   <tile gid="1277"/>
   <tile gid="1277"/>
   <tile gid="1277"/>
   <tile gid="1277"/>
   <tile gid="1277"/>
   <tile gid="1277"/>
   <tile gid="1277"/>
   <tile gid="1277"/>
   <tile gid="1277"/>
   <tile gid="1277"/>
   <tile gid="1277"/>
   <tile gid="1277"/>
   <tile gid="1277"/>
   <tile gid="1275"/>
   <tile gid="1190"/>
   <tile gid="1277"/>
   <tile gid="1277"/>
   <tile gid="1277"/>
   <tile gid="1277"/>
   <tile gid="1277"/>
   <tile gid="1277"/>
   <tile gid="1277"/>
   <tile gid="1277"/>
   <tile gid="1277"/>
   <tile gid="1277"/>
   <tile gid="1277"/>
   <tile gid="1277"/>
   <tile gid="1277"/>
   <tile gid="1277"/>
   <tile gid="1277"/>
   <tile gid="1277"/>
   <tile gid="1277"/>
   <tile gid="1277"/>
   <tile gid="1277"/>
   <tile gid="1277"/>
   <tile gid="1277"/>
   <tile gid="1277"/>
   <tile gid="1277"/>
   <tile gid="1277"/>
   <tile gid="1277"/>
   <tile gid="1277"/>
   <tile gid="1277"/>
   <tile gid="1277"/>
   <tile gid="1277"/>
   <tile gid="1277"/>
   <tile gid="1277"/>
   <tile gid="1277"/>
   <tile gid="1277"/>
   <tile gid="1277"/>
   <tile gid="1277"/>
   <tile gid="1277"/>
   <tile gid="1277"/>
   <tile gid="1277"/>
   <tile gid="1277"/>
   <tile gid="1277"/>
   <tile gid="1277"/>
   <tile gid="1277"/>
   <tile gid="1277"/>
   <tile gid="1277"/>
   <tile gid="1277"/>
   <tile gid="1277"/>
   <tile gid="1277"/>
   <tile gid="1277"/>
   <tile gid="1277"/>
   <tile gid="1277"/>
   <tile gid="1277"/>
   <tile gid="1277"/>
   <tile gid="1277"/>
   <tile gid="1277"/>
   <tile gid="1277"/>
   <tile gid="1277"/>
   <tile gid="1277"/>
   <tile gid="1277"/>
   <tile gid="1277"/>
   <tile gid="1277"/>
   <tile gid="1277"/>
   <tile gid="1277"/>
   <tile gid="1277"/>
   <tile gid="1277"/>
   <tile gid="1277"/>
   <tile gid="1277"/>
   <tile gid="1277"/>
   <tile gid="1277"/>
   <tile gid="1277"/>
   <tile gid="1277"/>
   <tile gid="1277"/>
   <tile gid="1277"/>
   <tile gid="1277"/>
   <tile gid="1277"/>
   <tile gid="1277"/>
   <tile gid="1277"/>
   <tile gid="1277"/>
   <tile gid="1277"/>
   <tile gid="1277"/>
   <tile gid="1277"/>
   <tile gid="1277"/>
   <tile gid="1277"/>
   <tile gid="1277"/>
   <tile gid="1277"/>
   <tile gid="1277"/>
   <tile gid="1277"/>
   <tile gid="1277"/>
   <tile gid="1277"/>
   <tile gid="1277"/>
   <tile gid="1277"/>
   <tile gid="1277"/>
   <tile gid="1277"/>
   <tile gid="1277"/>
   <tile gid="1277"/>
   <tile gid="1277"/>
   <tile gid="1277"/>
   <tile gid="1277"/>
   <tile gid="1277"/>
   <tile gid="1277"/>
   <tile gid="1277"/>
   <tile gid="1277"/>
   <tile gid="1277"/>
   <tile gid="1277"/>
   <tile gid="1277"/>
   <tile gid="1277"/>
   <tile gid="1277"/>
   <tile gid="1277"/>
   <tile gid="1277"/>
   <tile gid="1277"/>
   <tile gid="1277"/>
   <tile gid="1277"/>
   <tile gid="1277"/>
   <tile gid="1277"/>
   <tile gid="1277"/>
   <tile gid="1277"/>
   <tile gid="1277"/>
   <tile gid="1277"/>
   <tile gid="1277"/>
   <tile gid="1277"/>
   <tile gid="1277"/>
   <tile gid="1277"/>
   <tile gid="1277"/>
   <tile gid="1277"/>
   <tile gid="1277"/>
   <tile gid="1277"/>
   <tile gid="1277"/>
   <tile gid="1277"/>
   <tile gid="1277"/>
   <tile gid="1277"/>
   <tile gid="1277"/>
   <tile gid="1277"/>
   <tile gid="1277"/>
   <tile gid="1277"/>
   <tile gid="1277"/>
   <tile gid="1277"/>
   <tile gid="1277"/>
   <tile gid="1277"/>
   <tile gid="1277"/>
   <tile gid="1277"/>
   <tile gid="1277"/>
   <tile gid="1277"/>
   <tile gid="1277"/>
   <tile gid="1277"/>
   <tile gid="1277"/>
   <tile gid="1277"/>
   <tile gid="1277"/>
   <tile gid="1277"/>
   <tile gid="1277"/>
   <tile gid="1277"/>
   <tile gid="1277"/>
   <tile gid="1277"/>
   <tile gid="1277"/>
   <tile gid="1277"/>
   <tile gid="1277"/>
   <tile gid="1277"/>
   <tile gid="1277"/>
   <tile gid="1277"/>
   <tile gid="1277"/>
   <tile gid="1277"/>
   <tile gid="1277"/>
   <tile gid="1277"/>
   <tile gid="1277"/>
   <tile gid="1277"/>
   <tile gid="1277"/>
   <tile gid="1277"/>
   <tile gid="1277"/>
   <tile gid="1277"/>
   <tile gid="1277"/>
   <tile gid="1277"/>
   <tile gid="1277"/>
   <tile gid="1277"/>
   <tile gid="1277"/>
   <tile gid="1277"/>
   <tile gid="1277"/>
   <tile gid="1277"/>
   <tile gid="1277"/>
   <tile gid="1277"/>
   <tile gid="1277"/>
   <tile gid="1277"/>
   <tile gid="1277"/>
   <tile gid="1277"/>
   <tile gid="1277"/>
   <tile gid="1277"/>
   <tile gid="1277"/>
   <tile gid="1277"/>
   <tile gid="1277"/>
   <tile gid="1277"/>
   <tile gid="1277"/>
   <tile gid="1277"/>
   <tile gid="1277"/>
   <tile gid="1277"/>
   <tile gid="1277"/>
   <tile gid="1277"/>
   <tile gid="1277"/>
   <tile gid="1277"/>
   <tile gid="1277"/>
   <tile gid="1277"/>
   <tile gid="1277"/>
   <tile gid="1277"/>
   <tile gid="1277"/>
   <tile gid="1277"/>
   <tile gid="1277"/>
   <tile gid="1277"/>
   <tile gid="1277"/>
   <tile gid="1277"/>
   <tile gid="1277"/>
   <tile gid="1277"/>
   <tile gid="1277"/>
   <tile gid="1277"/>
   <tile gid="1277"/>
   <tile gid="1277"/>
   <tile gid="1277"/>
   <tile gid="1277"/>
   <tile gid="1277"/>
   <tile gid="1277"/>
   <tile gid="1277"/>
   <tile gid="1277"/>
   <tile gid="1277"/>
   <tile gid="1277"/>
   <tile gid="1277"/>
   <tile gid="1277"/>
   <tile gid="1277"/>
   <tile gid="1277"/>
   <tile gid="1277"/>
   <tile gid="1277"/>
   <tile gid="1277"/>
   <tile gid="1277"/>
   <tile gid="1277"/>
   <tile gid="1277"/>
   <tile gid="1277"/>
   <tile gid="1277"/>
   <tile gid="1277"/>
   <tile gid="1277"/>
   <tile gid="1277"/>
   <tile gid="1277"/>
   <tile gid="1277"/>
   <tile gid="1277"/>
   <tile gid="1277"/>
   <tile gid="1277"/>
   <tile gid="1277"/>
   <tile gid="1277"/>
   <tile gid="1277"/>
   <tile gid="1277"/>
   <tile gid="1277"/>
   <tile gid="1277"/>
   <tile gid="1277"/>
   <tile gid="1277"/>
   <tile gid="1277"/>
   <tile gid="1277"/>
   <tile gid="1277"/>
   <tile gid="1277"/>
   <tile gid="1277"/>
   <tile gid="1277"/>
   <tile gid="1277"/>
   <tile gid="1277"/>
   <tile gid="1277"/>
   <tile gid="1277"/>
   <tile gid="1277"/>
   <tile gid="1277"/>
   <tile gid="1277"/>
   <tile gid="1277"/>
   <tile gid="1277"/>
   <tile gid="1277"/>
   <tile gid="1277"/>
   <tile gid="1277"/>
   <tile gid="1277"/>
   <tile gid="1277"/>
   <tile gid="1277"/>
   <tile gid="1277"/>
   <tile gid="1277"/>
   <tile gid="1277"/>
   <tile gid="1277"/>
   <tile gid="1277"/>
   <tile gid="1277"/>
   <tile gid="1277"/>
   <tile gid="1277"/>
   <tile gid="1277"/>
   <tile gid="1277"/>
   <tile gid="1277"/>
   <tile gid="1277"/>
   <tile gid="1277"/>
   <tile gid="1277"/>
   <tile gid="1277"/>
   <tile gid="1277"/>
   <tile gid="1277"/>
   <tile gid="1277"/>
   <tile gid="1277"/>
   <tile gid="1277"/>
   <tile gid="1277"/>
   <tile gid="1277"/>
   <tile gid="1277"/>
   <tile gid="1277"/>
   <tile gid="1277"/>
   <tile gid="1277"/>
   <tile gid="1277"/>
   <tile gid="1277"/>
   <tile gid="1277"/>
   <tile gid="1277"/>
   <tile gid="1277"/>
   <tile gid="1277"/>
   <tile gid="1277"/>
   <tile gid="1277"/>
   <tile gid="1277"/>
   <tile gid="1277"/>
   <tile gid="1277"/>
   <tile gid="1277"/>
   <tile gid="1277"/>
   <tile gid="1190"/>
   <tile gid="1232"/>
   <tile gid="1232"/>
   <tile gid="1277"/>
   <tile gid="1277"/>
   <tile gid="1277"/>
   <tile gid="1277"/>
   <tile gid="1277"/>
   <tile gid="1277"/>
   <tile gid="1232"/>
   <tile gid="1277"/>
   <tile gid="1277"/>
   <tile gid="1277"/>
   <tile gid="1277"/>
   <tile gid="1277"/>
   <tile gid="1277"/>
   <tile gid="1277"/>
   <tile gid="1277"/>
   <tile gid="1277"/>
   <tile gid="1277"/>
   <tile gid="1277"/>
   <tile gid="1277"/>
   <tile gid="1277"/>
   <tile gid="1277"/>
   <tile gid="1277"/>
   <tile gid="1277"/>
   <tile gid="1277"/>
   <tile gid="1277"/>
   <tile gid="1277"/>
   <tile gid="1277"/>
   <tile gid="1277"/>
   <tile gid="1277"/>
   <tile gid="1277"/>
   <tile gid="1277"/>
   <tile gid="1277"/>
   <tile gid="1277"/>
   <tile gid="1277"/>
   <tile gid="1277"/>
   <tile gid="1277"/>
   <tile gid="1277"/>
   <tile gid="1277"/>
   <tile gid="1277"/>
   <tile gid="1277"/>
   <tile gid="1277"/>
   <tile gid="1277"/>
   <tile gid="1277"/>
   <tile gid="1277"/>
   <tile gid="1277"/>
   <tile gid="1277"/>
   <tile gid="1277"/>
   <tile gid="1277"/>
   <tile gid="1277"/>
   <tile gid="1277"/>
   <tile gid="1277"/>
   <tile gid="1277"/>
   <tile gid="1277"/>
   <tile gid="1277"/>
   <tile gid="1277"/>
   <tile gid="1277"/>
   <tile gid="1277"/>
   <tile gid="1277"/>
   <tile gid="1277"/>
   <tile gid="1277"/>
   <tile gid="1277"/>
   <tile gid="1277"/>
   <tile gid="1277"/>
   <tile gid="1277"/>
   <tile gid="1277"/>
   <tile gid="1277"/>
   <tile gid="1277"/>
   <tile gid="1277"/>
   <tile gid="1277"/>
   <tile gid="1277"/>
   <tile gid="1277"/>
   <tile gid="1277"/>
   <tile gid="1277"/>
   <tile gid="1277"/>
   <tile gid="1277"/>
   <tile gid="1277"/>
   <tile gid="1277"/>
   <tile gid="1277"/>
   <tile gid="1277"/>
   <tile gid="1277"/>
   <tile gid="1277"/>
   <tile gid="1234"/>
   <tile gid="1277"/>
   <tile gid="1277"/>
   <tile gid="1277"/>
   <tile gid="1277"/>
   <tile gid="1277"/>
   <tile gid="1277"/>
   <tile gid="1277"/>
   <tile gid="1277"/>
   <tile gid="1277"/>
   <tile gid="1277"/>
   <tile gid="1277"/>
   <tile gid="1277"/>
   <tile gid="1277"/>
   <tile gid="1277"/>
   <tile gid="1277"/>
   <tile gid="1277"/>
   <tile gid="1277"/>
   <tile gid="1277"/>
   <tile gid="1277"/>
   <tile gid="1277"/>
   <tile gid="1277"/>
   <tile gid="1277"/>
   <tile gid="1277"/>
   <tile gid="1277"/>
   <tile gid="1277"/>
   <tile gid="1277"/>
   <tile gid="1277"/>
   <tile gid="1277"/>
   <tile gid="1277"/>
   <tile gid="1277"/>
   <tile gid="1277"/>
   <tile gid="1277"/>
   <tile gid="1277"/>
   <tile gid="1277"/>
   <tile gid="1277"/>
   <tile gid="1277"/>
   <tile gid="1277"/>
   <tile gid="1277"/>
   <tile gid="1277"/>
   <tile gid="1277"/>
   <tile gid="1277"/>
   <tile gid="1277"/>
   <tile gid="1277"/>
   <tile gid="1277"/>
   <tile gid="1277"/>
   <tile gid="1277"/>
   <tile gid="1277"/>
   <tile gid="1277"/>
   <tile gid="1277"/>
   <tile gid="1277"/>
   <tile gid="1277"/>
   <tile gid="1277"/>
   <tile gid="1277"/>
   <tile gid="1277"/>
   <tile gid="1277"/>
   <tile gid="1277"/>
   <tile gid="1277"/>
   <tile gid="1277"/>
   <tile gid="1277"/>
   <tile gid="1277"/>
   <tile gid="1277"/>
   <tile gid="1277"/>
   <tile gid="1277"/>
   <tile gid="1277"/>
   <tile gid="1277"/>
   <tile gid="1277"/>
   <tile gid="1277"/>
   <tile gid="1277"/>
   <tile gid="1277"/>
   <tile gid="1276"/>
   <tile gid="1232"/>
   <tile gid="1234"/>
   <tile gid="1233"/>
   <tile gid="1277"/>
   <tile gid="1277"/>
   <tile gid="1277"/>
   <tile gid="1277"/>
   <tile gid="1277"/>
   <tile gid="1277"/>
   <tile gid="1277"/>
   <tile gid="1277"/>
   <tile gid="1277"/>
   <tile gid="1277"/>
   <tile gid="1277"/>
   <tile gid="1277"/>
   <tile gid="1277"/>
   <tile gid="1277"/>
   <tile gid="1277"/>
   <tile gid="1277"/>
   <tile gid="1277"/>
   <tile gid="1277"/>
   <tile gid="1277"/>
   <tile gid="1277"/>
   <tile gid="1277"/>
   <tile gid="1277"/>
   <tile gid="1277"/>
   <tile gid="1277"/>
   <tile gid="1277"/>
   <tile gid="1277"/>
   <tile gid="1277"/>
   <tile gid="1277"/>
   <tile gid="1277"/>
   <tile gid="1277"/>
   <tile gid="1277"/>
   <tile gid="1277"/>
   <tile gid="1277"/>
   <tile gid="1277"/>
   <tile gid="1277"/>
   <tile gid="1277"/>
   <tile gid="1277"/>
   <tile gid="1277"/>
   <tile gid="1277"/>
   <tile gid="1277"/>
   <tile gid="1277"/>
   <tile gid="1277"/>
   <tile gid="1277"/>
   <tile gid="1277"/>
   <tile gid="1277"/>
   <tile gid="1277"/>
   <tile gid="1277"/>
   <tile gid="1277"/>
   <tile gid="1277"/>
   <tile gid="1277"/>
   <tile gid="1277"/>
   <tile gid="1277"/>
   <tile gid="1277"/>
   <tile gid="1277"/>
   <tile gid="1277"/>
   <tile gid="1277"/>
   <tile gid="1277"/>
   <tile gid="1277"/>
   <tile gid="1277"/>
   <tile gid="1277"/>
   <tile gid="1277"/>
   <tile gid="1277"/>
   <tile gid="1277"/>
   <tile gid="1277"/>
   <tile gid="1277"/>
   <tile gid="1277"/>
   <tile gid="1277"/>
   <tile gid="1277"/>
   <tile gid="1277"/>
   <tile gid="1277"/>
   <tile gid="1277"/>
   <tile gid="1275"/>
   <tile gid="1234"/>
   <tile gid="1276"/>
   <tile gid="1275"/>
   <tile gid="1277"/>
   <tile gid="1277"/>
   <tile gid="1277"/>
   <tile gid="1277"/>
   <tile gid="1277"/>
   <tile gid="1277"/>
   <tile gid="1277"/>
   <tile gid="1277"/>
   <tile gid="1277"/>
   <tile gid="1277"/>
   <tile gid="1277"/>
   <tile gid="1277"/>
   <tile gid="1277"/>
   <tile gid="1277"/>
   <tile gid="1277"/>
   <tile gid="1277"/>
   <tile gid="1277"/>
   <tile gid="1277"/>
   <tile gid="1277"/>
   <tile gid="1277"/>
   <tile gid="1277"/>
   <tile gid="1277"/>
   <tile gid="1277"/>
   <tile gid="1277"/>
   <tile gid="1277"/>
   <tile gid="1277"/>
   <tile gid="1277"/>
   <tile gid="1277"/>
   <tile gid="1277"/>
   <tile gid="1277"/>
   <tile gid="1277"/>
   <tile gid="1277"/>
   <tile gid="1277"/>
   <tile gid="1277"/>
   <tile gid="1277"/>
   <tile gid="1277"/>
   <tile gid="1277"/>
   <tile gid="1277"/>
   <tile gid="1277"/>
   <tile gid="1277"/>
   <tile gid="1277"/>
   <tile gid="1277"/>
   <tile gid="1277"/>
   <tile gid="1277"/>
   <tile gid="1277"/>
   <tile gid="1277"/>
   <tile gid="1277"/>
   <tile gid="1277"/>
   <tile gid="1277"/>
   <tile gid="1277"/>
   <tile gid="1277"/>
   <tile gid="1277"/>
   <tile gid="1277"/>
   <tile gid="1277"/>
   <tile gid="1277"/>
   <tile gid="1277"/>
   <tile gid="1277"/>
   <tile gid="1277"/>
   <tile gid="1277"/>
   <tile gid="1277"/>
   <tile gid="1277"/>
   <tile gid="1277"/>
   <tile gid="1277"/>
   <tile gid="1277"/>
   <tile gid="1277"/>
   <tile gid="1277"/>
   <tile gid="1277"/>
   <tile gid="1277"/>
   <tile gid="1277"/>
   <tile gid="1277"/>
   <tile gid="1277"/>
   <tile gid="1277"/>
   <tile gid="1277"/>
   <tile gid="1277"/>
   <tile gid="1277"/>
   <tile gid="1277"/>
   <tile gid="1277"/>
   <tile gid="1277"/>
   <tile gid="1277"/>
   <tile gid="1277"/>
   <tile gid="1277"/>
   <tile gid="1277"/>
   <tile gid="1277"/>
   <tile gid="1277"/>
   <tile gid="1277"/>
   <tile gid="1277"/>
   <tile gid="1277"/>
   <tile gid="1277"/>
   <tile gid="1277"/>
   <tile gid="1277"/>
   <tile gid="1277"/>
   <tile gid="1277"/>
   <tile gid="1277"/>
   <tile gid="1277"/>
   <tile gid="1277"/>
   <tile gid="1277"/>
   <tile gid="1277"/>
   <tile gid="1277"/>
   <tile gid="1277"/>
   <tile gid="1277"/>
   <tile gid="1277"/>
   <tile gid="1277"/>
   <tile gid="1277"/>
   <tile gid="1277"/>
   <tile gid="1277"/>
   <tile gid="1277"/>
   <tile gid="1277"/>
   <tile gid="1277"/>
   <tile gid="1277"/>
   <tile gid="1277"/>
   <tile gid="1277"/>
   <tile gid="1277"/>
   <tile gid="1277"/>
   <tile gid="1277"/>
   <tile gid="1277"/>
   <tile gid="1277"/>
   <tile gid="1277"/>
   <tile gid="1277"/>
   <tile gid="1277"/>
   <tile gid="1277"/>
   <tile gid="1277"/>
   <tile gid="1277"/>
   <tile gid="1277"/>
   <tile gid="1277"/>
   <tile gid="1277"/>
   <tile gid="1277"/>
   <tile gid="1277"/>
   <tile gid="1277"/>
   <tile gid="1277"/>
   <tile gid="1277"/>
   <tile gid="1277"/>
   <tile gid="1277"/>
   <tile gid="1277"/>
   <tile gid="1277"/>
   <tile gid="1277"/>
   <tile gid="1277"/>
   <tile gid="1277"/>
   <tile gid="1277"/>
   <tile gid="1277"/>
   <tile gid="1277"/>
   <tile gid="1277"/>
   <tile gid="1277"/>
   <tile gid="1277"/>
   <tile gid="1277"/>
   <tile gid="1277"/>
   <tile gid="1277"/>
   <tile gid="1277"/>
   <tile gid="1277"/>
   <tile gid="1277"/>
   <tile gid="1277"/>
   <tile gid="1277"/>
   <tile gid="1277"/>
   <tile gid="1277"/>
   <tile gid="1277"/>
   <tile gid="1277"/>
   <tile gid="1277"/>
   <tile gid="1277"/>
   <tile gid="1277"/>
   <tile gid="1277"/>
   <tile gid="1277"/>
   <tile gid="1277"/>
   <tile gid="1277"/>
   <tile gid="1277"/>
   <tile gid="1277"/>
   <tile gid="1277"/>
   <tile gid="1277"/>
   <tile gid="1277"/>
   <tile gid="1277"/>
   <tile gid="1277"/>
   <tile gid="1277"/>
   <tile gid="1277"/>
   <tile gid="1277"/>
   <tile gid="1277"/>
   <tile gid="1277"/>
   <tile gid="1277"/>
   <tile gid="1277"/>
   <tile gid="1277"/>
   <tile gid="1277"/>
   <tile gid="1277"/>
   <tile gid="1277"/>
   <tile gid="1277"/>
   <tile gid="1277"/>
   <tile gid="1277"/>
   <tile gid="1277"/>
   <tile gid="1277"/>
   <tile gid="1277"/>
   <tile gid="1277"/>
   <tile gid="1277"/>
   <tile gid="1277"/>
   <tile gid="1277"/>
   <tile gid="1277"/>
   <tile gid="1277"/>
   <tile gid="1277"/>
   <tile gid="1277"/>
   <tile gid="1277"/>
   <tile gid="1277"/>
   <tile gid="1277"/>
   <tile gid="1277"/>
   <tile gid="1277"/>
   <tile gid="1277"/>
   <tile gid="1277"/>
   <tile gid="1277"/>
   <tile gid="1277"/>
   <tile gid="1277"/>
   <tile gid="1277"/>
   <tile gid="1277"/>
   <tile gid="1277"/>
   <tile gid="1277"/>
   <tile gid="1277"/>
   <tile gid="1277"/>
   <tile gid="1277"/>
   <tile gid="1277"/>
   <tile gid="1277"/>
   <tile gid="1277"/>
   <tile gid="1277"/>
   <tile gid="1277"/>
   <tile gid="1277"/>
   <tile gid="1277"/>
   <tile gid="1277"/>
   <tile gid="1277"/>
   <tile gid="1277"/>
   <tile gid="1277"/>
   <tile gid="1277"/>
   <tile gid="1277"/>
   <tile gid="1277"/>
   <tile gid="1277"/>
   <tile gid="1277"/>
   <tile gid="1277"/>
   <tile gid="1277"/>
   <tile gid="1277"/>
   <tile gid="1277"/>
   <tile gid="1277"/>
   <tile gid="1277"/>
   <tile gid="1277"/>
   <tile gid="1277"/>
   <tile gid="1277"/>
   <tile gid="1277"/>
   <tile gid="1277"/>
   <tile gid="1277"/>
   <tile gid="1277"/>
   <tile gid="1277"/>
   <tile gid="1277"/>
   <tile gid="1277"/>
   <tile gid="1277"/>
   <tile gid="1277"/>
   <tile gid="1277"/>
   <tile gid="1277"/>
   <tile gid="1277"/>
   <tile gid="1277"/>
   <tile gid="1277"/>
   <tile gid="1277"/>
   <tile gid="1277"/>
   <tile gid="1277"/>
   <tile gid="1277"/>
   <tile gid="1277"/>
   <tile gid="1277"/>
   <tile gid="1277"/>
   <tile gid="1277"/>
   <tile gid="1277"/>
   <tile gid="1277"/>
   <tile gid="1277"/>
   <tile gid="1277"/>
   <tile gid="1277"/>
   <tile gid="1277"/>
   <tile gid="1277"/>
   <tile gid="1277"/>
   <tile gid="1277"/>
   <tile gid="1277"/>
   <tile gid="1277"/>
   <tile gid="1277"/>
   <tile gid="1277"/>
   <tile gid="1277"/>
   <tile gid="1277"/>
   <tile gid="1277"/>
   <tile gid="1277"/>
   <tile gid="1277"/>
   <tile gid="1277"/>
   <tile gid="1277"/>
   <tile gid="1277"/>
   <tile gid="1277"/>
   <tile gid="1277"/>
   <tile gid="1277"/>
   <tile gid="1277"/>
   <tile gid="1277"/>
   <tile gid="1277"/>
   <tile gid="1277"/>
   <tile gid="1277"/>
   <tile gid="1277"/>
   <tile gid="1277"/>
   <tile gid="1277"/>
   <tile gid="1277"/>
   <tile gid="1277"/>
   <tile gid="1277"/>
   <tile gid="1277"/>
   <tile gid="1277"/>
   <tile gid="1277"/>
   <tile gid="1277"/>
   <tile gid="1277"/>
   <tile gid="1277"/>
   <tile gid="1277"/>
   <tile gid="1277"/>
   <tile gid="1277"/>
   <tile gid="1277"/>
   <tile gid="1277"/>
   <tile gid="1277"/>
   <tile gid="1277"/>
   <tile gid="1277"/>
   <tile gid="1277"/>
   <tile gid="1277"/>
   <tile gid="1277"/>
   <tile gid="1277"/>
   <tile gid="1277"/>
   <tile gid="1234"/>
   <tile gid="1190"/>
   <tile gid="1277"/>
   <tile gid="1277"/>
   <tile gid="1277"/>
   <tile gid="1277"/>
   <tile gid="1277"/>
   <tile gid="1277"/>
   <tile gid="1277"/>
   <tile gid="1277"/>
   <tile gid="1277"/>
   <tile gid="1277"/>
   <tile gid="1277"/>
   <tile gid="1277"/>
   <tile gid="1277"/>
   <tile gid="1277"/>
   <tile gid="1277"/>
   <tile gid="1277"/>
   <tile gid="1277"/>
   <tile gid="1277"/>
   <tile gid="1277"/>
   <tile gid="1277"/>
   <tile gid="1277"/>
   <tile gid="1277"/>
   <tile gid="1277"/>
   <tile gid="1277"/>
   <tile gid="1277"/>
   <tile gid="1277"/>
   <tile gid="1277"/>
   <tile gid="1277"/>
   <tile gid="1277"/>
   <tile gid="1277"/>
   <tile gid="1277"/>
   <tile gid="1277"/>
   <tile gid="1277"/>
   <tile gid="1277"/>
   <tile gid="1277"/>
   <tile gid="1277"/>
   <tile gid="1277"/>
   <tile gid="1277"/>
   <tile gid="1277"/>
   <tile gid="1277"/>
   <tile gid="1277"/>
   <tile gid="1277"/>
   <tile gid="1277"/>
   <tile gid="1277"/>
   <tile gid="1277"/>
   <tile gid="1277"/>
   <tile gid="1277"/>
   <tile gid="1277"/>
   <tile gid="1277"/>
   <tile gid="1277"/>
   <tile gid="1277"/>
   <tile gid="1277"/>
   <tile gid="1277"/>
   <tile gid="1277"/>
   <tile gid="1277"/>
   <tile gid="1277"/>
   <tile gid="1277"/>
   <tile gid="1277"/>
   <tile gid="1276"/>
   <tile gid="1233"/>
   <tile gid="1275"/>
   <tile gid="1277"/>
   <tile gid="1277"/>
   <tile gid="1277"/>
   <tile gid="1277"/>
   <tile gid="1277"/>
   <tile gid="1277"/>
   <tile gid="1277"/>
   <tile gid="1277"/>
   <tile gid="1277"/>
   <tile gid="1277"/>
   <tile gid="1277"/>
   <tile gid="1277"/>
   <tile gid="1233"/>
   <tile gid="1276"/>
   <tile gid="1277"/>
   <tile gid="1277"/>
   <tile gid="1277"/>
   <tile gid="1277"/>
   <tile gid="1277"/>
   <tile gid="1277"/>
   <tile gid="1277"/>
   <tile gid="1277"/>
   <tile gid="1277"/>
   <tile gid="1277"/>
   <tile gid="1277"/>
   <tile gid="1277"/>
   <tile gid="1277"/>
   <tile gid="1277"/>
   <tile gid="1277"/>
   <tile gid="1277"/>
   <tile gid="1277"/>
   <tile gid="1277"/>
   <tile gid="1277"/>
   <tile gid="1277"/>
   <tile gid="1277"/>
   <tile gid="1277"/>
   <tile gid="1277"/>
   <tile gid="1277"/>
   <tile gid="1277"/>
   <tile gid="1277"/>
   <tile gid="1277"/>
   <tile gid="1277"/>
   <tile gid="1277"/>
   <tile gid="1277"/>
   <tile gid="1277"/>
   <tile gid="1277"/>
   <tile gid="1277"/>
   <tile gid="1277"/>
   <tile gid="1277"/>
   <tile gid="1277"/>
   <tile gid="1277"/>
   <tile gid="1277"/>
   <tile gid="1277"/>
   <tile gid="1277"/>
   <tile gid="1277"/>
   <tile gid="1277"/>
   <tile gid="1277"/>
   <tile gid="1277"/>
   <tile gid="1277"/>
   <tile gid="1277"/>
   <tile gid="1277"/>
   <tile gid="1277"/>
   <tile gid="1277"/>
   <tile gid="1277"/>
   <tile gid="1277"/>
   <tile gid="1277"/>
   <tile gid="1277"/>
   <tile gid="1277"/>
   <tile gid="1277"/>
   <tile gid="1277"/>
   <tile gid="1277"/>
   <tile gid="1277"/>
   <tile gid="1234"/>
   <tile gid="1275"/>
   <tile gid="1232"/>
   <tile gid="1277"/>
   <tile gid="1277"/>
   <tile gid="1277"/>
   <tile gid="1277"/>
   <tile gid="1277"/>
   <tile gid="1277"/>
   <tile gid="1277"/>
   <tile gid="1277"/>
   <tile gid="1277"/>
   <tile gid="1277"/>
   <tile gid="1277"/>
   <tile gid="1277"/>
   <tile gid="1277"/>
   <tile gid="1277"/>
   <tile gid="1277"/>
   <tile gid="1277"/>
   <tile gid="1277"/>
   <tile gid="1277"/>
   <tile gid="1277"/>
   <tile gid="1277"/>
   <tile gid="1277"/>
   <tile gid="1277"/>
   <tile gid="1277"/>
   <tile gid="1277"/>
   <tile gid="1277"/>
   <tile gid="1277"/>
   <tile gid="1276"/>
   <tile gid="1234"/>
   <tile gid="1277"/>
   <tile gid="1275"/>
   <tile gid="1233"/>
   <tile gid="1277"/>
   <tile gid="1277"/>
   <tile gid="1277"/>
   <tile gid="1277"/>
   <tile gid="1277"/>
   <tile gid="1277"/>
   <tile gid="1277"/>
   <tile gid="1277"/>
   <tile gid="1277"/>
   <tile gid="1277"/>
   <tile gid="1277"/>
   <tile gid="1277"/>
   <tile gid="1277"/>
   <tile gid="1277"/>
   <tile gid="1277"/>
   <tile gid="1277"/>
   <tile gid="1277"/>
   <tile gid="1277"/>
   <tile gid="1277"/>
   <tile gid="1277"/>
   <tile gid="1277"/>
   <tile gid="1277"/>
   <tile gid="1277"/>
   <tile gid="1275"/>
   <tile gid="1277"/>
   <tile gid="1277"/>
   <tile gid="1277"/>
   <tile gid="1277"/>
   <tile gid="1277"/>
   <tile gid="1277"/>
   <tile gid="1277"/>
   <tile gid="1277"/>
   <tile gid="1277"/>
   <tile gid="1277"/>
   <tile gid="1277"/>
   <tile gid="1277"/>
   <tile gid="1277"/>
   <tile gid="1277"/>
   <tile gid="1277"/>
   <tile gid="1277"/>
   <tile gid="1277"/>
   <tile gid="1277"/>
   <tile gid="1277"/>
   <tile gid="1277"/>
   <tile gid="1277"/>
   <tile gid="1277"/>
   <tile gid="1277"/>
   <tile gid="1277"/>
   <tile gid="1277"/>
   <tile gid="1277"/>
   <tile gid="1277"/>
   <tile gid="1277"/>
   <tile gid="1277"/>
   <tile gid="1277"/>
   <tile gid="1277"/>
   <tile gid="1277"/>
   <tile gid="1277"/>
   <tile gid="1277"/>
   <tile gid="1277"/>
   <tile gid="1277"/>
   <tile gid="1277"/>
   <tile gid="1277"/>
   <tile gid="1277"/>
   <tile gid="1277"/>
   <tile gid="1277"/>
   <tile gid="1277"/>
   <tile gid="1277"/>
   <tile gid="1277"/>
   <tile gid="1277"/>
   <tile gid="1277"/>
   <tile gid="1277"/>
   <tile gid="1277"/>
   <tile gid="1277"/>
   <tile gid="1277"/>
   <tile gid="1277"/>
   <tile gid="1277"/>
   <tile gid="1277"/>
   <tile gid="1277"/>
   <tile gid="1277"/>
   <tile gid="1277"/>
   <tile gid="1277"/>
   <tile gid="1277"/>
   <tile gid="1277"/>
   <tile gid="1277"/>
   <tile gid="1277"/>
   <tile gid="1277"/>
   <tile gid="1277"/>
   <tile gid="1277"/>
   <tile gid="1277"/>
   <tile gid="1277"/>
   <tile gid="1277"/>
   <tile gid="1277"/>
   <tile gid="1277"/>
   <tile gid="1275"/>
   <tile gid="1276"/>
   <tile gid="1277"/>
   <tile gid="1277"/>
   <tile gid="1277"/>
   <tile gid="1277"/>
   <tile gid="1277"/>
   <tile gid="1277"/>
   <tile gid="1277"/>
   <tile gid="1277"/>
   <tile gid="1277"/>
   <tile gid="1277"/>
   <tile gid="1277"/>
   <tile gid="1277"/>
   <tile gid="1277"/>
   <tile gid="1277"/>
   <tile gid="1277"/>
   <tile gid="1277"/>
   <tile gid="1277"/>
   <tile gid="1277"/>
   <tile gid="1277"/>
   <tile gid="1277"/>
   <tile gid="1277"/>
   <tile gid="1277"/>
   <tile gid="1277"/>
   <tile gid="1277"/>
   <tile gid="1277"/>
   <tile gid="1277"/>
   <tile gid="1277"/>
   <tile gid="1277"/>
   <tile gid="1277"/>
   <tile gid="1277"/>
   <tile gid="1277"/>
   <tile gid="1277"/>
   <tile gid="1277"/>
   <tile gid="1232"/>
   <tile gid="1233"/>
   <tile gid="1277"/>
   <tile gid="1277"/>
   <tile gid="1277"/>
   <tile gid="1277"/>
   <tile gid="1277"/>
   <tile gid="1277"/>
   <tile gid="1277"/>
   <tile gid="1277"/>
   <tile gid="1277"/>
   <tile gid="1277"/>
   <tile gid="1277"/>
   <tile gid="1277"/>
   <tile gid="1277"/>
   <tile gid="1277"/>
   <tile gid="1277"/>
   <tile gid="1277"/>
   <tile gid="1277"/>
   <tile gid="1277"/>
   <tile gid="1277"/>
   <tile gid="1277"/>
   <tile gid="1277"/>
   <tile gid="1277"/>
   <tile gid="1277"/>
   <tile gid="1277"/>
   <tile gid="1277"/>
   <tile gid="1277"/>
   <tile gid="1277"/>
   <tile gid="1277"/>
   <tile gid="1277"/>
   <tile gid="1277"/>
   <tile gid="1277"/>
   <tile gid="1277"/>
   <tile gid="1277"/>
   <tile gid="1277"/>
   <tile gid="1277"/>
   <tile gid="1277"/>
   <tile gid="1277"/>
   <tile gid="1277"/>
   <tile gid="1277"/>
   <tile gid="1277"/>
   <tile gid="1277"/>
   <tile gid="1277"/>
   <tile gid="1277"/>
   <tile gid="1277"/>
   <tile gid="1277"/>
   <tile gid="1277"/>
   <tile gid="1277"/>
   <tile gid="1277"/>
   <tile gid="1277"/>
   <tile gid="1277"/>
   <tile gid="1276"/>
   <tile gid="1234"/>
   <tile gid="1277"/>
   <tile gid="1277"/>
   <tile gid="1277"/>
   <tile gid="1277"/>
   <tile gid="1277"/>
   <tile gid="1277"/>
   <tile gid="1277"/>
   <tile gid="1277"/>
   <tile gid="1277"/>
   <tile gid="1277"/>
   <tile gid="1277"/>
   <tile gid="1277"/>
   <tile gid="1277"/>
   <tile gid="1277"/>
   <tile gid="1277"/>
   <tile gid="1277"/>
   <tile gid="1277"/>
   <tile gid="1277"/>
   <tile gid="1277"/>
   <tile gid="1277"/>
   <tile gid="1277"/>
   <tile gid="1277"/>
   <tile gid="1277"/>
   <tile gid="1277"/>
   <tile gid="1277"/>
   <tile gid="1277"/>
   <tile gid="1277"/>
   <tile gid="1277"/>
   <tile gid="1277"/>
   <tile gid="1277"/>
   <tile gid="1277"/>
   <tile gid="1277"/>
   <tile gid="1277"/>
   <tile gid="1277"/>
   <tile gid="1277"/>
   <tile gid="1277"/>
   <tile gid="1277"/>
   <tile gid="1233"/>
   <tile gid="1276"/>
   <tile gid="1276"/>
   <tile gid="1277"/>
   <tile gid="1277"/>
   <tile gid="1277"/>
   <tile gid="1277"/>
   <tile gid="1277"/>
   <tile gid="1277"/>
   <tile gid="1277"/>
   <tile gid="1277"/>
   <tile gid="1277"/>
   <tile gid="1277"/>
   <tile gid="1277"/>
   <tile gid="1277"/>
   <tile gid="1277"/>
   <tile gid="1277"/>
   <tile gid="1277"/>
   <tile gid="1277"/>
   <tile gid="1277"/>
   <tile gid="1277"/>
   <tile gid="1277"/>
   <tile gid="1277"/>
   <tile gid="1277"/>
   <tile gid="1277"/>
   <tile gid="1277"/>
   <tile gid="1277"/>
   <tile gid="1277"/>
   <tile gid="1277"/>
   <tile gid="1277"/>
   <tile gid="1277"/>
   <tile gid="1277"/>
   <tile gid="1277"/>
   <tile gid="1277"/>
   <tile gid="1277"/>
   <tile gid="1277"/>
   <tile gid="1275"/>
   <tile gid="1233"/>
   <tile gid="1277"/>
   <tile gid="1277"/>
   <tile gid="1277"/>
   <tile gid="1277"/>
   <tile gid="1277"/>
   <tile gid="1277"/>
   <tile gid="1277"/>
   <tile gid="1277"/>
   <tile gid="1277"/>
   <tile gid="1277"/>
   <tile gid="1277"/>
   <tile gid="1277"/>
   <tile gid="1277"/>
   <tile gid="1277"/>
   <tile gid="1277"/>
   <tile gid="1277"/>
   <tile gid="1277"/>
   <tile gid="1277"/>
   <tile gid="1277"/>
   <tile gid="1277"/>
   <tile gid="1277"/>
   <tile gid="1277"/>
   <tile gid="1277"/>
   <tile gid="1277"/>
   <tile gid="1277"/>
   <tile gid="1277"/>
   <tile gid="1277"/>
   <tile gid="1277"/>
   <tile gid="1277"/>
   <tile gid="1277"/>
   <tile gid="1277"/>
   <tile gid="1277"/>
   <tile gid="1277"/>
   <tile gid="1277"/>
   <tile gid="1277"/>
   <tile gid="1277"/>
   <tile gid="1277"/>
   <tile gid="1277"/>
   <tile gid="1277"/>
   <tile gid="1277"/>
   <tile gid="1277"/>
   <tile gid="1277"/>
   <tile gid="1277"/>
   <tile gid="1277"/>
   <tile gid="1277"/>
   <tile gid="1277"/>
   <tile gid="1277"/>
   <tile gid="1277"/>
   <tile gid="1277"/>
   <tile gid="1277"/>
   <tile gid="1277"/>
   <tile gid="1277"/>
   <tile gid="1277"/>
   <tile gid="1277"/>
   <tile gid="1277"/>
   <tile gid="1277"/>
   <tile gid="1277"/>
   <tile gid="1277"/>
   <tile gid="1277"/>
   <tile gid="1277"/>
   <tile gid="1277"/>
   <tile gid="1277"/>
   <tile gid="1277"/>
   <tile gid="1277"/>
   <tile gid="1277"/>
   <tile gid="1277"/>
   <tile gid="1277"/>
   <tile gid="1277"/>
   <tile gid="1277"/>
   <tile gid="1277"/>
   <tile gid="1277"/>
   <tile gid="1277"/>
   <tile gid="1277"/>
   <tile gid="1277"/>
   <tile gid="1277"/>
   <tile gid="1277"/>
   <tile gid="1277"/>
   <tile gid="1277"/>
   <tile gid="1277"/>
   <tile gid="1277"/>
   <tile gid="1277"/>
   <tile gid="1277"/>
   <tile gid="1277"/>
   <tile gid="1277"/>
   <tile gid="1277"/>
   <tile gid="1277"/>
   <tile gid="1277"/>
   <tile gid="1277"/>
   <tile gid="1277"/>
   <tile gid="1277"/>
   <tile gid="1277"/>
   <tile gid="1277"/>
   <tile gid="1277"/>
   <tile gid="1277"/>
   <tile gid="1277"/>
   <tile gid="1277"/>
   <tile gid="1277"/>
   <tile gid="1277"/>
   <tile gid="1277"/>
   <tile gid="1277"/>
   <tile gid="1277"/>
   <tile gid="1277"/>
   <tile gid="1277"/>
   <tile gid="1277"/>
   <tile gid="1277"/>
   <tile gid="1277"/>
   <tile gid="1277"/>
   <tile gid="1277"/>
   <tile gid="1277"/>
   <tile gid="1277"/>
   <tile gid="1277"/>
   <tile gid="1277"/>
   <tile gid="1277"/>
   <tile gid="1277"/>
   <tile gid="1277"/>
   <tile gid="1277"/>
   <tile gid="1277"/>
   <tile gid="1277"/>
   <tile gid="1277"/>
   <tile gid="1277"/>
   <tile gid="1277"/>
   <tile gid="1277"/>
   <tile gid="1277"/>
   <tile gid="1277"/>
   <tile gid="1277"/>
   <tile gid="1277"/>
   <tile gid="1277"/>
   <tile gid="1277"/>
   <tile gid="1277"/>
   <tile gid="1277"/>
   <tile gid="1277"/>
   <tile gid="1277"/>
   <tile gid="1277"/>
   <tile gid="1277"/>
   <tile gid="1277"/>
   <tile gid="1277"/>
   <tile gid="1277"/>
   <tile gid="1277"/>
   <tile gid="1277"/>
   <tile gid="1277"/>
   <tile gid="1277"/>
   <tile gid="1277"/>
   <tile gid="1277"/>
   <tile gid="1277"/>
   <tile gid="1277"/>
   <tile gid="1277"/>
   <tile gid="1277"/>
   <tile gid="1277"/>
   <tile gid="1277"/>
   <tile gid="1277"/>
   <tile gid="1277"/>
   <tile gid="1277"/>
   <tile gid="1277"/>
   <tile gid="1277"/>
   <tile gid="1277"/>
   <tile gid="1277"/>
   <tile gid="1277"/>
   <tile gid="1277"/>
   <tile gid="1277"/>
   <tile gid="1277"/>
   <tile gid="1277"/>
   <tile gid="1277"/>
   <tile gid="1277"/>
   <tile gid="1277"/>
   <tile gid="1277"/>
   <tile gid="1277"/>
   <tile gid="1277"/>
   <tile gid="1277"/>
   <tile gid="1277"/>
   <tile gid="1277"/>
   <tile gid="1277"/>
   <tile gid="1277"/>
   <tile gid="1277"/>
   <tile gid="1277"/>
   <tile gid="1277"/>
   <tile gid="1277"/>
   <tile gid="1277"/>
   <tile gid="1277"/>
   <tile gid="1277"/>
   <tile gid="1277"/>
   <tile gid="1277"/>
   <tile gid="1277"/>
   <tile gid="1277"/>
   <tile gid="1233"/>
   <tile gid="1275"/>
   <tile gid="1277"/>
   <tile gid="1277"/>
   <tile gid="1277"/>
   <tile gid="1277"/>
   <tile gid="1277"/>
   <tile gid="1277"/>
   <tile gid="1277"/>
   <tile gid="1277"/>
   <tile gid="1277"/>
   <tile gid="1277"/>
   <tile gid="1277"/>
   <tile gid="1277"/>
   <tile gid="1277"/>
   <tile gid="1277"/>
   <tile gid="1277"/>
   <tile gid="1277"/>
   <tile gid="1277"/>
   <tile gid="1277"/>
   <tile gid="1277"/>
   <tile gid="1277"/>
   <tile gid="1277"/>
   <tile gid="1277"/>
   <tile gid="1277"/>
   <tile gid="1277"/>
   <tile gid="1277"/>
   <tile gid="1277"/>
   <tile gid="1277"/>
   <tile gid="1277"/>
   <tile gid="1277"/>
   <tile gid="1277"/>
   <tile gid="1277"/>
   <tile gid="1277"/>
   <tile gid="1277"/>
   <tile gid="1277"/>
   <tile gid="1277"/>
   <tile gid="1277"/>
   <tile gid="1277"/>
   <tile gid="1277"/>
   <tile gid="1277"/>
   <tile gid="1277"/>
   <tile gid="1277"/>
   <tile gid="1277"/>
   <tile gid="1277"/>
   <tile gid="1277"/>
   <tile gid="1277"/>
   <tile gid="1277"/>
   <tile gid="1277"/>
   <tile gid="1277"/>
   <tile gid="1277"/>
   <tile gid="1277"/>
   <tile gid="1277"/>
   <tile gid="1277"/>
   <tile gid="1277"/>
   <tile gid="1277"/>
   <tile gid="1277"/>
   <tile gid="1277"/>
   <tile gid="1277"/>
   <tile gid="1277"/>
   <tile gid="1277"/>
   <tile gid="1277"/>
   <tile gid="1277"/>
   <tile gid="1277"/>
   <tile gid="1277"/>
   <tile gid="1277"/>
   <tile gid="1277"/>
   <tile gid="1277"/>
   <tile gid="1277"/>
   <tile gid="1277"/>
   <tile gid="1277"/>
   <tile gid="1277"/>
   <tile gid="1277"/>
   <tile gid="1277"/>
   <tile gid="1277"/>
   <tile gid="1277"/>
   <tile gid="1277"/>
   <tile gid="1277"/>
   <tile gid="1277"/>
   <tile gid="1277"/>
   <tile gid="1277"/>
   <tile gid="1277"/>
   <tile gid="1277"/>
   <tile gid="1277"/>
   <tile gid="1277"/>
   <tile gid="1277"/>
   <tile gid="1277"/>
   <tile gid="1277"/>
   <tile gid="1277"/>
   <tile gid="1277"/>
   <tile gid="1277"/>
   <tile gid="1277"/>
   <tile gid="1277"/>
   <tile gid="1277"/>
   <tile gid="1277"/>
   <tile gid="1277"/>
   <tile gid="1277"/>
   <tile gid="1277"/>
   <tile gid="1277"/>
   <tile gid="1277"/>
   <tile gid="1277"/>
   <tile gid="1277"/>
   <tile gid="1277"/>
   <tile gid="1277"/>
   <tile gid="1277"/>
   <tile gid="1277"/>
   <tile gid="1277"/>
   <tile gid="1277"/>
   <tile gid="1277"/>
   <tile gid="1277"/>
   <tile gid="1277"/>
   <tile gid="1277"/>
   <tile gid="1277"/>
   <tile gid="1277"/>
   <tile gid="1277"/>
   <tile gid="1277"/>
   <tile gid="1277"/>
   <tile gid="1277"/>
   <tile gid="1277"/>
   <tile gid="1277"/>
   <tile gid="1277"/>
   <tile gid="1277"/>
   <tile gid="1277"/>
   <tile gid="1277"/>
   <tile gid="1277"/>
   <tile gid="1277"/>
   <tile gid="1277"/>
   <tile gid="1277"/>
   <tile gid="1277"/>
   <tile gid="1277"/>
   <tile gid="1277"/>
   <tile gid="1277"/>
   <tile gid="1277"/>
   <tile gid="1277"/>
   <tile gid="1277"/>
   <tile gid="1277"/>
   <tile gid="1277"/>
   <tile gid="1277"/>
   <tile gid="1277"/>
   <tile gid="1277"/>
   <tile gid="1277"/>
   <tile gid="1277"/>
   <tile gid="1277"/>
   <tile gid="1277"/>
   <tile gid="1277"/>
   <tile gid="1277"/>
   <tile gid="1277"/>
   <tile gid="1277"/>
   <tile gid="1277"/>
   <tile gid="1277"/>
   <tile gid="1277"/>
   <tile gid="1277"/>
   <tile gid="1277"/>
   <tile gid="1277"/>
   <tile gid="1277"/>
   <tile gid="1277"/>
   <tile gid="1277"/>
   <tile gid="1277"/>
   <tile gid="1277"/>
   <tile gid="1277"/>
   <tile gid="1277"/>
   <tile gid="1277"/>
   <tile gid="1277"/>
   <tile gid="1277"/>
   <tile gid="1277"/>
   <tile gid="1277"/>
   <tile gid="1275"/>
   <tile gid="1190"/>
   <tile gid="1233"/>
   <tile gid="1277"/>
   <tile gid="1277"/>
   <tile gid="1277"/>
   <tile gid="1277"/>
   <tile gid="1277"/>
   <tile gid="1277"/>
   <tile gid="1277"/>
   <tile gid="1277"/>
   <tile gid="1277"/>
   <tile gid="1277"/>
   <tile gid="1277"/>
   <tile gid="1277"/>
   <tile gid="1277"/>
   <tile gid="1277"/>
   <tile gid="1277"/>
   <tile gid="1277"/>
   <tile gid="1277"/>
   <tile gid="1277"/>
   <tile gid="1277"/>
   <tile gid="1277"/>
   <tile gid="1277"/>
   <tile gid="1277"/>
   <tile gid="1277"/>
   <tile gid="1277"/>
   <tile gid="1277"/>
   <tile gid="1277"/>
   <tile gid="1277"/>
   <tile gid="1277"/>
   <tile gid="1277"/>
   <tile gid="1277"/>
   <tile gid="1277"/>
   <tile gid="1277"/>
   <tile gid="1277"/>
   <tile gid="1277"/>
   <tile gid="1277"/>
   <tile gid="1277"/>
   <tile gid="1277"/>
   <tile gid="1277"/>
   <tile gid="1277"/>
   <tile gid="1277"/>
   <tile gid="1277"/>
   <tile gid="1277"/>
   <tile gid="1277"/>
   <tile gid="1277"/>
   <tile gid="1277"/>
   <tile gid="1277"/>
   <tile gid="1277"/>
   <tile gid="1277"/>
   <tile gid="1277"/>
   <tile gid="1277"/>
   <tile gid="1277"/>
   <tile gid="1277"/>
   <tile gid="1277"/>
   <tile gid="1277"/>
   <tile gid="1277"/>
   <tile gid="1277"/>
   <tile gid="1277"/>
   <tile gid="1277"/>
   <tile gid="1277"/>
   <tile gid="1277"/>
   <tile gid="1277"/>
   <tile gid="1277"/>
   <tile gid="1275"/>
   <tile gid="1275"/>
   <tile gid="1277"/>
   <tile gid="1277"/>
   <tile gid="1277"/>
   <tile gid="1277"/>
   <tile gid="1277"/>
   <tile gid="1277"/>
   <tile gid="1277"/>
   <tile gid="1277"/>
   <tile gid="1277"/>
   <tile gid="1277"/>
   <tile gid="1277"/>
   <tile gid="1277"/>
   <tile gid="1277"/>
   <tile gid="1277"/>
   <tile gid="1277"/>
   <tile gid="1277"/>
   <tile gid="1277"/>
   <tile gid="1277"/>
   <tile gid="1277"/>
   <tile gid="1277"/>
   <tile gid="1277"/>
   <tile gid="1277"/>
   <tile gid="1277"/>
   <tile gid="1277"/>
   <tile gid="1277"/>
   <tile gid="1277"/>
   <tile gid="1277"/>
   <tile gid="1277"/>
   <tile gid="1234"/>
   <tile gid="1232"/>
   <tile gid="1277"/>
   <tile gid="1277"/>
   <tile gid="1277"/>
   <tile gid="1277"/>
   <tile gid="1277"/>
   <tile gid="1277"/>
   <tile gid="1277"/>
   <tile gid="1277"/>
   <tile gid="1277"/>
   <tile gid="1277"/>
   <tile gid="1277"/>
   <tile gid="1277"/>
   <tile gid="1277"/>
   <tile gid="1277"/>
   <tile gid="1190"/>
   <tile gid="1275"/>
   <tile gid="1190"/>
   <tile gid="1276"/>
   <tile gid="1277"/>
   <tile gid="1277"/>
   <tile gid="1277"/>
   <tile gid="1277"/>
   <tile gid="1277"/>
   <tile gid="1277"/>
   <tile gid="1277"/>
   <tile gid="1277"/>
   <tile gid="1277"/>
   <tile gid="1277"/>
   <tile gid="1277"/>
   <tile gid="1277"/>
   <tile gid="1277"/>
   <tile gid="1277"/>
   <tile gid="1277"/>
   <tile gid="1277"/>
   <tile gid="1277"/>
   <tile gid="1277"/>
   <tile gid="1277"/>
   <tile gid="1277"/>
   <tile gid="1277"/>
   <tile gid="1277"/>
   <tile gid="1277"/>
   <tile gid="1277"/>
   <tile gid="1277"/>
   <tile gid="1276"/>
   <tile gid="1232"/>
   <tile gid="1277"/>
   <tile gid="1277"/>
   <tile gid="1277"/>
   <tile gid="1277"/>
   <tile gid="1277"/>
   <tile gid="1277"/>
   <tile gid="1277"/>
   <tile gid="1277"/>
   <tile gid="1277"/>
   <tile gid="1277"/>
   <tile gid="1277"/>
   <tile gid="1277"/>
   <tile gid="1277"/>
   <tile gid="1277"/>
   <tile gid="1277"/>
   <tile gid="1277"/>
   <tile gid="1277"/>
   <tile gid="1277"/>
   <tile gid="1277"/>
   <tile gid="1277"/>
   <tile gid="1277"/>
   <tile gid="1277"/>
   <tile gid="1277"/>
   <tile gid="1277"/>
   <tile gid="1277"/>
   <tile gid="1277"/>
   <tile gid="1277"/>
   <tile gid="1277"/>
   <tile gid="1277"/>
   <tile gid="1277"/>
   <tile gid="1277"/>
   <tile gid="1277"/>
   <tile gid="1277"/>
   <tile gid="1277"/>
   <tile gid="1277"/>
   <tile gid="1277"/>
   <tile gid="1277"/>
   <tile gid="1277"/>
   <tile gid="1277"/>
   <tile gid="1277"/>
   <tile gid="1277"/>
   <tile gid="1277"/>
   <tile gid="1277"/>
   <tile gid="1277"/>
   <tile gid="1190"/>
   <tile gid="1275"/>
   <tile gid="1275"/>
   <tile gid="1233"/>
   <tile gid="1277"/>
   <tile gid="1277"/>
   <tile gid="1277"/>
   <tile gid="1234"/>
   <tile gid="1275"/>
   <tile gid="1277"/>
   <tile gid="1277"/>
   <tile gid="1277"/>
   <tile gid="1277"/>
   <tile gid="1277"/>
   <tile gid="1277"/>
   <tile gid="1277"/>
   <tile gid="1277"/>
   <tile gid="1277"/>
   <tile gid="1277"/>
   <tile gid="1277"/>
   <tile gid="1277"/>
   <tile gid="1277"/>
   <tile gid="1277"/>
   <tile gid="1277"/>
   <tile gid="1277"/>
   <tile gid="1277"/>
   <tile gid="1277"/>
   <tile gid="1277"/>
   <tile gid="1277"/>
   <tile gid="1277"/>
   <tile gid="1277"/>
   <tile gid="1277"/>
   <tile gid="1277"/>
   <tile gid="1277"/>
   <tile gid="1277"/>
   <tile gid="1277"/>
   <tile gid="1277"/>
   <tile gid="1234"/>
   <tile gid="1276"/>
   <tile gid="1232"/>
   <tile gid="1277"/>
   <tile gid="1277"/>
   <tile gid="1277"/>
   <tile gid="1232"/>
   <tile gid="1275"/>
   <tile gid="1232"/>
   <tile gid="1234"/>
   <tile gid="1277"/>
   <tile gid="1277"/>
   <tile gid="1277"/>
   <tile gid="1277"/>
   <tile gid="1277"/>
   <tile gid="1277"/>
   <tile gid="1277"/>
   <tile gid="1277"/>
   <tile gid="1277"/>
   <tile gid="1277"/>
   <tile gid="1277"/>
   <tile gid="1277"/>
   <tile gid="1277"/>
   <tile gid="1277"/>
   <tile gid="1277"/>
   <tile gid="1277"/>
   <tile gid="1277"/>
   <tile gid="1277"/>
   <tile gid="1277"/>
   <tile gid="1277"/>
   <tile gid="1277"/>
   <tile gid="1277"/>
   <tile gid="1277"/>
   <tile gid="1277"/>
   <tile gid="1277"/>
   <tile gid="1277"/>
   <tile gid="1277"/>
   <tile gid="1277"/>
   <tile gid="1277"/>
   <tile gid="1277"/>
   <tile gid="1277"/>
   <tile gid="1277"/>
   <tile gid="1277"/>
   <tile gid="1277"/>
   <tile gid="1277"/>
   <tile gid="1277"/>
   <tile gid="1277"/>
   <tile gid="1277"/>
   <tile gid="1277"/>
   <tile gid="1277"/>
   <tile gid="1277"/>
   <tile gid="1277"/>
   <tile gid="1277"/>
   <tile gid="1277"/>
   <tile gid="1277"/>
   <tile gid="1277"/>
   <tile gid="1277"/>
   <tile gid="1277"/>
   <tile gid="1277"/>
   <tile gid="1277"/>
   <tile gid="1277"/>
   <tile gid="1277"/>
   <tile gid="1277"/>
   <tile gid="1277"/>
   <tile gid="1277"/>
   <tile gid="1277"/>
   <tile gid="1277"/>
   <tile gid="1277"/>
   <tile gid="1277"/>
   <tile gid="1277"/>
   <tile gid="1277"/>
   <tile gid="1277"/>
   <tile gid="1277"/>
   <tile gid="1277"/>
   <tile gid="1277"/>
   <tile gid="1277"/>
   <tile gid="1277"/>
   <tile gid="1277"/>
   <tile gid="1277"/>
   <tile gid="1277"/>
   <tile gid="1277"/>
   <tile gid="1190"/>
   <tile gid="1233"/>
   <tile gid="1276"/>
   <tile gid="1190"/>
   <tile gid="1277"/>
   <tile gid="1277"/>
   <tile gid="1277"/>
   <tile gid="1277"/>
   <tile gid="1277"/>
   <tile gid="1277"/>
   <tile gid="1232"/>
   <tile gid="1277"/>
   <tile gid="1277"/>
   <tile gid="1277"/>
   <tile gid="1277"/>
   <tile gid="1277"/>
   <tile gid="1277"/>
   <tile gid="1277"/>
   <tile gid="1277"/>
   <tile gid="1277"/>
   <tile gid="1277"/>
   <tile gid="1277"/>
   <tile gid="1277"/>
   <tile gid="1277"/>
   <tile gid="1277"/>
   <tile gid="1277"/>
   <tile gid="1277"/>
   <tile gid="1277"/>
   <tile gid="1277"/>
   <tile gid="1277"/>
   <tile gid="1277"/>
   <tile gid="1277"/>
   <tile gid="1277"/>
   <tile gid="1277"/>
   <tile gid="1277"/>
   <tile gid="1277"/>
   <tile gid="1277"/>
   <tile gid="1277"/>
   <tile gid="1277"/>
   <tile gid="1277"/>
   <tile gid="1277"/>
   <tile gid="1277"/>
   <tile gid="1277"/>
   <tile gid="1277"/>
   <tile gid="1277"/>
   <tile gid="1277"/>
   <tile gid="1277"/>
   <tile gid="1277"/>
   <tile gid="1277"/>
   <tile gid="1277"/>
   <tile gid="1277"/>
   <tile gid="1277"/>
   <tile gid="1277"/>
   <tile gid="1277"/>
   <tile gid="1277"/>
   <tile gid="1277"/>
   <tile gid="1277"/>
   <tile gid="1277"/>
   <tile gid="1277"/>
   <tile gid="1277"/>
   <tile gid="1277"/>
   <tile gid="1277"/>
   <tile gid="1277"/>
   <tile gid="1277"/>
   <tile gid="1277"/>
   <tile gid="1277"/>
   <tile gid="1277"/>
   <tile gid="1277"/>
   <tile gid="1277"/>
   <tile gid="1277"/>
   <tile gid="1277"/>
   <tile gid="1277"/>
   <tile gid="1277"/>
   <tile gid="1277"/>
   <tile gid="1277"/>
   <tile gid="1277"/>
   <tile gid="1277"/>
   <tile gid="1277"/>
   <tile gid="1277"/>
   <tile gid="1277"/>
   <tile gid="1277"/>
   <tile gid="1277"/>
   <tile gid="1277"/>
   <tile gid="1277"/>
   <tile gid="1277"/>
   <tile gid="1232"/>
   <tile gid="1277"/>
   <tile gid="1277"/>
   <tile gid="1277"/>
   <tile gid="1277"/>
   <tile gid="1277"/>
   <tile gid="1277"/>
   <tile gid="1277"/>
   <tile gid="1277"/>
   <tile gid="1277"/>
   <tile gid="1277"/>
   <tile gid="1277"/>
   <tile gid="1277"/>
   <tile gid="1277"/>
   <tile gid="1277"/>
   <tile gid="1277"/>
   <tile gid="1277"/>
   <tile gid="1277"/>
   <tile gid="1277"/>
   <tile gid="1277"/>
   <tile gid="1277"/>
   <tile gid="1277"/>
   <tile gid="1277"/>
   <tile gid="1277"/>
   <tile gid="1277"/>
   <tile gid="1277"/>
   <tile gid="1277"/>
   <tile gid="1277"/>
   <tile gid="1277"/>
   <tile gid="1277"/>
   <tile gid="1277"/>
   <tile gid="1277"/>
   <tile gid="1277"/>
   <tile gid="1277"/>
   <tile gid="1277"/>
   <tile gid="1277"/>
   <tile gid="1277"/>
   <tile gid="1277"/>
   <tile gid="1277"/>
   <tile gid="1277"/>
   <tile gid="1277"/>
   <tile gid="1277"/>
   <tile gid="1277"/>
   <tile gid="1277"/>
   <tile gid="1277"/>
   <tile gid="1277"/>
   <tile gid="1277"/>
   <tile gid="1277"/>
   <tile gid="1277"/>
   <tile gid="1277"/>
   <tile gid="1277"/>
   <tile gid="1277"/>
   <tile gid="1277"/>
   <tile gid="1277"/>
   <tile gid="1277"/>
   <tile gid="1277"/>
   <tile gid="1277"/>
   <tile gid="1277"/>
   <tile gid="1277"/>
   <tile gid="1277"/>
   <tile gid="1277"/>
   <tile gid="1277"/>
   <tile gid="1277"/>
   <tile gid="1277"/>
   <tile gid="1277"/>
   <tile gid="1277"/>
   <tile gid="1277"/>
   <tile gid="1277"/>
   <tile gid="1277"/>
   <tile gid="1277"/>
   <tile gid="1277"/>
   <tile gid="1277"/>
   <tile gid="1277"/>
   <tile gid="1277"/>
   <tile gid="1277"/>
   <tile gid="1277"/>
   <tile gid="1277"/>
   <tile gid="1277"/>
   <tile gid="1277"/>
   <tile gid="1277"/>
   <tile gid="1277"/>
   <tile gid="1277"/>
   <tile gid="1277"/>
   <tile gid="1277"/>
   <tile gid="1277"/>
   <tile gid="1277"/>
   <tile gid="1277"/>
   <tile gid="1277"/>
   <tile gid="1277"/>
   <tile gid="1277"/>
   <tile gid="1277"/>
   <tile gid="1277"/>
   <tile gid="1277"/>
   <tile gid="1277"/>
   <tile gid="1277"/>
   <tile gid="1277"/>
   <tile gid="1277"/>
   <tile gid="1277"/>
   <tile gid="1277"/>
   <tile gid="1277"/>
   <tile gid="1277"/>
   <tile gid="1277"/>
   <tile gid="1277"/>
   <tile gid="1277"/>
   <tile gid="1277"/>
   <tile gid="1277"/>
   <tile gid="1277"/>
   <tile gid="1277"/>
   <tile gid="1277"/>
   <tile gid="1277"/>
   <tile gid="1277"/>
   <tile gid="1277"/>
   <tile gid="1277"/>
   <tile gid="1277"/>
   <tile gid="1277"/>
   <tile gid="1277"/>
   <tile gid="1277"/>
   <tile gid="1277"/>
   <tile gid="1277"/>
   <tile gid="1277"/>
   <tile gid="1277"/>
   <tile gid="1277"/>
   <tile gid="1277"/>
   <tile gid="1277"/>
   <tile gid="1277"/>
   <tile gid="1277"/>
   <tile gid="1277"/>
   <tile gid="1277"/>
   <tile gid="1277"/>
   <tile gid="1277"/>
   <tile gid="1277"/>
   <tile gid="1277"/>
   <tile gid="1277"/>
   <tile gid="1277"/>
   <tile gid="1277"/>
   <tile gid="1277"/>
   <tile gid="1277"/>
   <tile gid="1277"/>
   <tile gid="1277"/>
   <tile gid="1277"/>
   <tile gid="1277"/>
   <tile gid="1277"/>
   <tile gid="1277"/>
   <tile gid="1277"/>
   <tile gid="1277"/>
   <tile gid="1277"/>
   <tile gid="1277"/>
   <tile gid="1277"/>
   <tile gid="1277"/>
   <tile gid="1277"/>
   <tile gid="1277"/>
   <tile gid="1277"/>
   <tile gid="1277"/>
   <tile gid="1277"/>
   <tile gid="1277"/>
   <tile gid="1277"/>
   <tile gid="1277"/>
   <tile gid="1277"/>
   <tile gid="1277"/>
   <tile gid="1277"/>
   <tile gid="1277"/>
   <tile gid="1277"/>
   <tile gid="1277"/>
   <tile gid="1277"/>
   <tile gid="1277"/>
   <tile gid="1277"/>
   <tile gid="1277"/>
   <tile gid="1277"/>
   <tile gid="1277"/>
   <tile gid="1277"/>
   <tile gid="1234"/>
   <tile gid="1277"/>
   <tile gid="1277"/>
   <tile gid="1277"/>
   <tile gid="1277"/>
   <tile gid="1277"/>
   <tile gid="1277"/>
   <tile gid="1277"/>
   <tile gid="1277"/>
   <tile gid="1277"/>
   <tile gid="1277"/>
   <tile gid="1277"/>
   <tile gid="1277"/>
   <tile gid="1277"/>
   <tile gid="1277"/>
   <tile gid="1277"/>
   <tile gid="1277"/>
   <tile gid="1277"/>
   <tile gid="1277"/>
   <tile gid="1277"/>
   <tile gid="1277"/>
   <tile gid="1277"/>
   <tile gid="1277"/>
   <tile gid="1277"/>
   <tile gid="1277"/>
   <tile gid="1277"/>
   <tile gid="1277"/>
   <tile gid="1277"/>
   <tile gid="1277"/>
   <tile gid="1277"/>
   <tile gid="1277"/>
   <tile gid="1277"/>
   <tile gid="1277"/>
   <tile gid="1277"/>
   <tile gid="1277"/>
   <tile gid="1277"/>
   <tile gid="1277"/>
   <tile gid="1277"/>
   <tile gid="1277"/>
   <tile gid="1277"/>
   <tile gid="1277"/>
   <tile gid="1277"/>
   <tile gid="1277"/>
   <tile gid="1277"/>
   <tile gid="1277"/>
   <tile gid="1277"/>
   <tile gid="1277"/>
   <tile gid="1277"/>
   <tile gid="1277"/>
   <tile gid="1277"/>
   <tile gid="1277"/>
   <tile gid="1277"/>
   <tile gid="1277"/>
   <tile gid="1277"/>
   <tile gid="1277"/>
   <tile gid="1277"/>
   <tile gid="1277"/>
   <tile gid="1277"/>
   <tile gid="1277"/>
   <tile gid="1277"/>
   <tile gid="1277"/>
   <tile gid="1277"/>
   <tile gid="1277"/>
   <tile gid="1277"/>
   <tile gid="1277"/>
   <tile gid="1277"/>
   <tile gid="1277"/>
   <tile gid="1277"/>
   <tile gid="1277"/>
   <tile gid="1277"/>
   <tile gid="1277"/>
   <tile gid="1277"/>
   <tile gid="1277"/>
   <tile gid="1277"/>
   <tile gid="1277"/>
   <tile gid="1277"/>
   <tile gid="1277"/>
   <tile gid="1277"/>
   <tile gid="1277"/>
   <tile gid="1277"/>
   <tile gid="1277"/>
   <tile gid="1277"/>
   <tile gid="1277"/>
   <tile gid="1277"/>
   <tile gid="1277"/>
   <tile gid="1277"/>
   <tile gid="1277"/>
   <tile gid="1277"/>
   <tile gid="1277"/>
   <tile gid="1277"/>
   <tile gid="1277"/>
   <tile gid="1277"/>
   <tile gid="1277"/>
   <tile gid="1277"/>
   <tile gid="1277"/>
   <tile gid="1277"/>
   <tile gid="1277"/>
   <tile gid="1277"/>
   <tile gid="1277"/>
   <tile gid="1277"/>
   <tile gid="1277"/>
   <tile gid="1277"/>
   <tile gid="1277"/>
   <tile gid="1277"/>
   <tile gid="1277"/>
   <tile gid="1277"/>
   <tile gid="1277"/>
   <tile gid="1277"/>
   <tile gid="1277"/>
   <tile gid="1277"/>
   <tile gid="1277"/>
   <tile gid="1277"/>
   <tile gid="1277"/>
   <tile gid="1277"/>
   <tile gid="1233"/>
   <tile gid="1276"/>
   <tile gid="1275"/>
   <tile gid="1276"/>
   <tile gid="1232"/>
   <tile gid="1277"/>
   <tile gid="1277"/>
   <tile gid="1277"/>
   <tile gid="1277"/>
   <tile gid="1277"/>
   <tile gid="1277"/>
   <tile gid="1277"/>
   <tile gid="1277"/>
   <tile gid="1277"/>
   <tile gid="1277"/>
   <tile gid="1277"/>
   <tile gid="1277"/>
   <tile gid="1277"/>
   <tile gid="1277"/>
   <tile gid="1277"/>
   <tile gid="1277"/>
   <tile gid="1277"/>
   <tile gid="1277"/>
   <tile gid="1277"/>
   <tile gid="1277"/>
   <tile gid="1277"/>
   <tile gid="1277"/>
   <tile gid="1277"/>
   <tile gid="1277"/>
   <tile gid="1277"/>
   <tile gid="1277"/>
   <tile gid="1277"/>
   <tile gid="1277"/>
   <tile gid="1277"/>
   <tile gid="1277"/>
   <tile gid="1277"/>
   <tile gid="1277"/>
   <tile gid="1277"/>
   <tile gid="1277"/>
   <tile gid="1277"/>
   <tile gid="1277"/>
   <tile gid="1277"/>
   <tile gid="1277"/>
   <tile gid="1277"/>
   <tile gid="1277"/>
   <tile gid="1277"/>
   <tile gid="1277"/>
   <tile gid="1277"/>
   <tile gid="1277"/>
   <tile gid="1277"/>
   <tile gid="1277"/>
   <tile gid="1277"/>
   <tile gid="1277"/>
   <tile gid="1277"/>
   <tile gid="1277"/>
   <tile gid="1277"/>
   <tile gid="1277"/>
   <tile gid="1277"/>
   <tile gid="1277"/>
   <tile gid="1277"/>
   <tile gid="1277"/>
   <tile gid="1277"/>
   <tile gid="1277"/>
   <tile gid="1277"/>
   <tile gid="1276"/>
   <tile gid="1277"/>
   <tile gid="1277"/>
   <tile gid="1277"/>
   <tile gid="1277"/>
   <tile gid="1277"/>
   <tile gid="1277"/>
   <tile gid="1277"/>
   <tile gid="1277"/>
   <tile gid="1277"/>
   <tile gid="1277"/>
   <tile gid="1277"/>
   <tile gid="1277"/>
   <tile gid="1277"/>
   <tile gid="1277"/>
   <tile gid="1277"/>
   <tile gid="1277"/>
   <tile gid="1277"/>
   <tile gid="1277"/>
   <tile gid="1277"/>
   <tile gid="1277"/>
   <tile gid="1277"/>
   <tile gid="1277"/>
   <tile gid="1277"/>
   <tile gid="1277"/>
   <tile gid="1277"/>
   <tile gid="1277"/>
   <tile gid="1277"/>
   <tile gid="1277"/>
   <tile gid="1277"/>
   <tile gid="1277"/>
   <tile gid="1277"/>
   <tile gid="1277"/>
   <tile gid="1277"/>
   <tile gid="1277"/>
   <tile gid="1277"/>
   <tile gid="1277"/>
   <tile gid="1277"/>
   <tile gid="1277"/>
   <tile gid="1277"/>
   <tile gid="1277"/>
   <tile gid="1277"/>
   <tile gid="1277"/>
   <tile gid="1277"/>
   <tile gid="1277"/>
   <tile gid="1277"/>
   <tile gid="1277"/>
   <tile gid="1277"/>
   <tile gid="1277"/>
   <tile gid="1277"/>
   <tile gid="1277"/>
   <tile gid="1277"/>
   <tile gid="1277"/>
   <tile gid="1277"/>
   <tile gid="1277"/>
   <tile gid="1277"/>
   <tile gid="1277"/>
   <tile gid="1277"/>
   <tile gid="1277"/>
   <tile gid="1277"/>
   <tile gid="1277"/>
   <tile gid="1277"/>
   <tile gid="1277"/>
   <tile gid="1277"/>
   <tile gid="1277"/>
   <tile gid="1277"/>
   <tile gid="1277"/>
   <tile gid="1277"/>
   <tile gid="1277"/>
   <tile gid="1277"/>
   <tile gid="1277"/>
   <tile gid="1277"/>
   <tile gid="1277"/>
   <tile gid="1277"/>
   <tile gid="1277"/>
   <tile gid="1275"/>
   <tile gid="1277"/>
   <tile gid="1277"/>
   <tile gid="1277"/>
   <tile gid="1277"/>
   <tile gid="1277"/>
   <tile gid="1277"/>
   <tile gid="1277"/>
   <tile gid="1277"/>
   <tile gid="1277"/>
   <tile gid="1277"/>
   <tile gid="1277"/>
   <tile gid="1277"/>
   <tile gid="1277"/>
   <tile gid="1277"/>
   <tile gid="1277"/>
   <tile gid="1277"/>
   <tile gid="1277"/>
   <tile gid="1277"/>
   <tile gid="1277"/>
   <tile gid="1277"/>
   <tile gid="1277"/>
   <tile gid="1277"/>
   <tile gid="1277"/>
   <tile gid="1277"/>
   <tile gid="1277"/>
   <tile gid="1277"/>
   <tile gid="1277"/>
   <tile gid="1277"/>
   <tile gid="1277"/>
   <tile gid="1277"/>
   <tile gid="1277"/>
   <tile gid="1277"/>
   <tile gid="1277"/>
   <tile gid="1232"/>
   <tile gid="1190"/>
   <tile gid="1275"/>
   <tile gid="1190"/>
   <tile gid="1190"/>
   <tile gid="1277"/>
   <tile gid="1277"/>
   <tile gid="1277"/>
   <tile gid="1277"/>
   <tile gid="1277"/>
   <tile gid="1277"/>
   <tile gid="1277"/>
   <tile gid="1277"/>
   <tile gid="1277"/>
   <tile gid="1277"/>
   <tile gid="1277"/>
   <tile gid="1277"/>
   <tile gid="1277"/>
   <tile gid="1277"/>
   <tile gid="1277"/>
   <tile gid="1277"/>
   <tile gid="1277"/>
   <tile gid="1277"/>
   <tile gid="1277"/>
   <tile gid="1277"/>
   <tile gid="1277"/>
   <tile gid="1277"/>
   <tile gid="1277"/>
   <tile gid="1277"/>
   <tile gid="1277"/>
   <tile gid="1277"/>
   <tile gid="1277"/>
   <tile gid="1277"/>
   <tile gid="1277"/>
   <tile gid="1277"/>
   <tile gid="1277"/>
   <tile gid="1277"/>
   <tile gid="1277"/>
   <tile gid="1277"/>
   <tile gid="1277"/>
   <tile gid="1277"/>
   <tile gid="1276"/>
   <tile gid="1277"/>
   <tile gid="1277"/>
   <tile gid="1277"/>
   <tile gid="1277"/>
   <tile gid="1277"/>
   <tile gid="1277"/>
   <tile gid="1277"/>
   <tile gid="1277"/>
   <tile gid="1277"/>
   <tile gid="1277"/>
   <tile gid="1277"/>
   <tile gid="1277"/>
   <tile gid="1277"/>
   <tile gid="1277"/>
   <tile gid="1277"/>
   <tile gid="1277"/>
   <tile gid="1277"/>
   <tile gid="1277"/>
   <tile gid="1277"/>
   <tile gid="1277"/>
   <tile gid="1277"/>
   <tile gid="1277"/>
   <tile gid="1277"/>
   <tile gid="1232"/>
   <tile gid="1277"/>
   <tile gid="1277"/>
   <tile gid="1276"/>
   <tile gid="1190"/>
   <tile gid="1277"/>
   <tile gid="1277"/>
   <tile gid="1277"/>
   <tile gid="1277"/>
   <tile gid="1277"/>
   <tile gid="1234"/>
   <tile gid="1276"/>
   <tile gid="1276"/>
   <tile gid="1234"/>
   <tile gid="1190"/>
   <tile gid="1277"/>
   <tile gid="1277"/>
   <tile gid="1277"/>
   <tile gid="1277"/>
   <tile gid="1277"/>
   <tile gid="1277"/>
   <tile gid="1277"/>
   <tile gid="1277"/>
   <tile gid="1277"/>
   <tile gid="1277"/>
   <tile gid="1277"/>
   <tile gid="1277"/>
   <tile gid="1277"/>
   <tile gid="1277"/>
   <tile gid="1277"/>
   <tile gid="1277"/>
   <tile gid="1277"/>
   <tile gid="1277"/>
   <tile gid="1277"/>
   <tile gid="1277"/>
   <tile gid="1277"/>
   <tile gid="1277"/>
   <tile gid="1277"/>
   <tile gid="1277"/>
   <tile gid="1277"/>
   <tile gid="1277"/>
   <tile gid="1277"/>
   <tile gid="1277"/>
   <tile gid="1277"/>
   <tile gid="1277"/>
   <tile gid="1277"/>
   <tile gid="1277"/>
   <tile gid="1277"/>
   <tile gid="1277"/>
   <tile gid="1277"/>
   <tile gid="1277"/>
   <tile gid="1277"/>
   <tile gid="1277"/>
   <tile gid="1277"/>
   <tile gid="1277"/>
   <tile gid="1277"/>
   <tile gid="1277"/>
   <tile gid="1277"/>
   <tile gid="1277"/>
   <tile gid="1277"/>
   <tile gid="1277"/>
   <tile gid="1277"/>
   <tile gid="1277"/>
   <tile gid="1277"/>
   <tile gid="1277"/>
   <tile gid="1277"/>
   <tile gid="1277"/>
   <tile gid="1277"/>
   <tile gid="1277"/>
   <tile gid="1277"/>
   <tile gid="1277"/>
   <tile gid="1277"/>
   <tile gid="1277"/>
   <tile gid="1277"/>
   <tile gid="1277"/>
   <tile gid="1277"/>
   <tile gid="1277"/>
   <tile gid="1277"/>
   <tile gid="1234"/>
   <tile gid="1275"/>
   <tile gid="1277"/>
   <tile gid="1277"/>
   <tile gid="1277"/>
   <tile gid="1277"/>
   <tile gid="1277"/>
   <tile gid="1277"/>
   <tile gid="1277"/>
   <tile gid="1277"/>
   <tile gid="1277"/>
   <tile gid="1277"/>
   <tile gid="1277"/>
   <tile gid="1277"/>
   <tile gid="1277"/>
   <tile gid="1277"/>
   <tile gid="1277"/>
   <tile gid="1277"/>
   <tile gid="1277"/>
   <tile gid="1277"/>
   <tile gid="1277"/>
   <tile gid="1277"/>
   <tile gid="1277"/>
   <tile gid="1277"/>
   <tile gid="1277"/>
   <tile gid="1277"/>
   <tile gid="1277"/>
   <tile gid="1277"/>
   <tile gid="1277"/>
   <tile gid="1277"/>
   <tile gid="1277"/>
   <tile gid="1277"/>
   <tile gid="1277"/>
   <tile gid="1277"/>
   <tile gid="1277"/>
   <tile gid="1277"/>
   <tile gid="1277"/>
   <tile gid="1277"/>
   <tile gid="1277"/>
   <tile gid="1277"/>
   <tile gid="1277"/>
   <tile gid="1277"/>
   <tile gid="1277"/>
   <tile gid="1277"/>
   <tile gid="1277"/>
   <tile gid="1277"/>
   <tile gid="1277"/>
   <tile gid="1277"/>
   <tile gid="1277"/>
   <tile gid="1277"/>
   <tile gid="1277"/>
   <tile gid="1277"/>
   <tile gid="1277"/>
   <tile gid="1276"/>
   <tile gid="1190"/>
   <tile gid="1190"/>
   <tile gid="1232"/>
   <tile gid="1275"/>
   <tile gid="1276"/>
   <tile gid="1277"/>
   <tile gid="1277"/>
   <tile gid="1277"/>
   <tile gid="1277"/>
   <tile gid="1277"/>
   <tile gid="1277"/>
   <tile gid="1277"/>
   <tile gid="1277"/>
   <tile gid="1277"/>
   <tile gid="1277"/>
   <tile gid="1277"/>
   <tile gid="1277"/>
   <tile gid="1277"/>
   <tile gid="1277"/>
   <tile gid="1277"/>
   <tile gid="1277"/>
   <tile gid="1277"/>
   <tile gid="1277"/>
   <tile gid="1277"/>
   <tile gid="1277"/>
   <tile gid="1277"/>
   <tile gid="1277"/>
   <tile gid="1277"/>
   <tile gid="1277"/>
   <tile gid="1277"/>
   <tile gid="1277"/>
   <tile gid="1277"/>
   <tile gid="1277"/>
   <tile gid="1277"/>
   <tile gid="1277"/>
   <tile gid="1277"/>
   <tile gid="1277"/>
   <tile gid="1277"/>
   <tile gid="1277"/>
   <tile gid="1277"/>
   <tile gid="1277"/>
   <tile gid="1277"/>
   <tile gid="1277"/>
   <tile gid="1277"/>
   <tile gid="1277"/>
   <tile gid="1277"/>
   <tile gid="1277"/>
   <tile gid="1277"/>
   <tile gid="1277"/>
   <tile gid="1277"/>
   <tile gid="1277"/>
   <tile gid="1277"/>
   <tile gid="1277"/>
   <tile gid="1277"/>
   <tile gid="1277"/>
   <tile gid="1277"/>
   <tile gid="1277"/>
   <tile gid="1277"/>
   <tile gid="1277"/>
   <tile gid="1277"/>
   <tile gid="1277"/>
   <tile gid="1277"/>
   <tile gid="1277"/>
   <tile gid="1277"/>
   <tile gid="1277"/>
   <tile gid="1277"/>
   <tile gid="1277"/>
   <tile gid="1277"/>
   <tile gid="1277"/>
   <tile gid="1277"/>
   <tile gid="1277"/>
   <tile gid="1277"/>
   <tile gid="1277"/>
   <tile gid="1277"/>
   <tile gid="1190"/>
   <tile gid="1234"/>
   <tile gid="1276"/>
   <tile gid="1234"/>
   <tile gid="1277"/>
   <tile gid="1277"/>
   <tile gid="1277"/>
   <tile gid="1277"/>
   <tile gid="1277"/>
   <tile gid="1277"/>
   <tile gid="1277"/>
   <tile gid="1277"/>
   <tile gid="1277"/>
   <tile gid="1277"/>
   <tile gid="1233"/>
   <tile gid="1277"/>
   <tile gid="1277"/>
   <tile gid="1277"/>
   <tile gid="1277"/>
   <tile gid="1277"/>
   <tile gid="1277"/>
   <tile gid="1277"/>
   <tile gid="1277"/>
   <tile gid="1277"/>
   <tile gid="1277"/>
   <tile gid="1277"/>
   <tile gid="1277"/>
   <tile gid="1277"/>
   <tile gid="1277"/>
   <tile gid="1277"/>
   <tile gid="1277"/>
   <tile gid="1277"/>
   <tile gid="1277"/>
   <tile gid="1277"/>
   <tile gid="1277"/>
   <tile gid="1277"/>
   <tile gid="1277"/>
   <tile gid="1277"/>
   <tile gid="1277"/>
   <tile gid="1277"/>
   <tile gid="1277"/>
   <tile gid="1277"/>
   <tile gid="1277"/>
   <tile gid="1277"/>
   <tile gid="1277"/>
   <tile gid="1277"/>
   <tile gid="1277"/>
   <tile gid="1277"/>
   <tile gid="1277"/>
   <tile gid="1277"/>
   <tile gid="1277"/>
   <tile gid="1277"/>
   <tile gid="1277"/>
   <tile gid="1277"/>
   <tile gid="1277"/>
   <tile gid="1277"/>
   <tile gid="1277"/>
   <tile gid="1277"/>
   <tile gid="1277"/>
   <tile gid="1277"/>
   <tile gid="1277"/>
   <tile gid="1277"/>
   <tile gid="1277"/>
   <tile gid="1277"/>
   <tile gid="1277"/>
   <tile gid="1277"/>
   <tile gid="1277"/>
   <tile gid="1277"/>
   <tile gid="1277"/>
   <tile gid="1277"/>
   <tile gid="1277"/>
   <tile gid="1277"/>
   <tile gid="1277"/>
   <tile gid="1277"/>
   <tile gid="1277"/>
   <tile gid="1277"/>
   <tile gid="1277"/>
   <tile gid="1277"/>
   <tile gid="1277"/>
   <tile gid="1277"/>
   <tile gid="1277"/>
   <tile gid="1277"/>
   <tile gid="1277"/>
   <tile gid="1277"/>
   <tile gid="1277"/>
   <tile gid="1277"/>
   <tile gid="1277"/>
   <tile gid="1277"/>
   <tile gid="1277"/>
   <tile gid="1277"/>
   <tile gid="1277"/>
   <tile gid="1277"/>
   <tile gid="1277"/>
   <tile gid="1277"/>
   <tile gid="1277"/>
   <tile gid="1277"/>
   <tile gid="1277"/>
   <tile gid="1277"/>
   <tile gid="1277"/>
   <tile gid="1277"/>
   <tile gid="1277"/>
   <tile gid="1277"/>
   <tile gid="1277"/>
   <tile gid="1277"/>
   <tile gid="1277"/>
   <tile gid="1277"/>
   <tile gid="1277"/>
   <tile gid="1277"/>
   <tile gid="1277"/>
   <tile gid="1277"/>
   <tile gid="1277"/>
   <tile gid="1277"/>
   <tile gid="1277"/>
   <tile gid="1277"/>
   <tile gid="1277"/>
   <tile gid="1277"/>
   <tile gid="1277"/>
   <tile gid="1277"/>
   <tile gid="1277"/>
   <tile gid="1277"/>
   <tile gid="1277"/>
   <tile gid="1277"/>
   <tile gid="1277"/>
   <tile gid="1277"/>
   <tile gid="1277"/>
   <tile gid="1277"/>
   <tile gid="1277"/>
   <tile gid="1277"/>
   <tile gid="1277"/>
   <tile gid="1277"/>
   <tile gid="1277"/>
   <tile gid="1277"/>
   <tile gid="1277"/>
   <tile gid="1277"/>
   <tile gid="1277"/>
   <tile gid="1277"/>
   <tile gid="1277"/>
   <tile gid="1277"/>
   <tile gid="1277"/>
   <tile gid="1277"/>
   <tile gid="1277"/>
   <tile gid="1277"/>
   <tile gid="1277"/>
   <tile gid="1277"/>
   <tile gid="1277"/>
   <tile gid="1277"/>
   <tile gid="1277"/>
   <tile gid="1277"/>
   <tile gid="1277"/>
   <tile gid="1277"/>
   <tile gid="1277"/>
   <tile gid="1277"/>
   <tile gid="1277"/>
   <tile gid="1277"/>
   <tile gid="1277"/>
   <tile gid="1277"/>
   <tile gid="1277"/>
   <tile gid="1277"/>
   <tile gid="1277"/>
   <tile gid="1277"/>
   <tile gid="1277"/>
   <tile gid="1277"/>
   <tile gid="1277"/>
   <tile gid="1277"/>
   <tile gid="1277"/>
   <tile gid="1277"/>
   <tile gid="1277"/>
   <tile gid="1277"/>
   <tile gid="1277"/>
   <tile gid="1277"/>
   <tile gid="1277"/>
   <tile gid="1277"/>
   <tile gid="1277"/>
   <tile gid="1277"/>
   <tile gid="1277"/>
   <tile gid="1277"/>
   <tile gid="1277"/>
   <tile gid="1277"/>
   <tile gid="1277"/>
   <tile gid="1277"/>
   <tile gid="1277"/>
   <tile gid="1277"/>
   <tile gid="1277"/>
   <tile gid="1277"/>
   <tile gid="1277"/>
   <tile gid="1277"/>
   <tile gid="1277"/>
   <tile gid="1277"/>
   <tile gid="1277"/>
   <tile gid="1277"/>
   <tile gid="1277"/>
   <tile gid="1277"/>
   <tile gid="1277"/>
   <tile gid="1277"/>
   <tile gid="1277"/>
   <tile gid="1277"/>
   <tile gid="1277"/>
   <tile gid="1277"/>
   <tile gid="1277"/>
   <tile gid="1277"/>
   <tile gid="1277"/>
   <tile gid="1277"/>
   <tile gid="1277"/>
   <tile gid="1277"/>
   <tile gid="1277"/>
   <tile gid="1277"/>
   <tile gid="1277"/>
   <tile gid="1277"/>
   <tile gid="1277"/>
   <tile gid="1277"/>
   <tile gid="1277"/>
   <tile gid="1277"/>
   <tile gid="1277"/>
   <tile gid="1277"/>
   <tile gid="1277"/>
   <tile gid="1277"/>
   <tile gid="1277"/>
   <tile gid="1190"/>
   <tile gid="1277"/>
   <tile gid="1277"/>
   <tile gid="1277"/>
   <tile gid="1277"/>
   <tile gid="1277"/>
   <tile gid="1277"/>
   <tile gid="1277"/>
   <tile gid="1277"/>
   <tile gid="1277"/>
   <tile gid="1277"/>
   <tile gid="1277"/>
   <tile gid="1277"/>
   <tile gid="1277"/>
   <tile gid="1277"/>
   <tile gid="1277"/>
   <tile gid="1277"/>
   <tile gid="1277"/>
   <tile gid="1277"/>
   <tile gid="1277"/>
   <tile gid="1277"/>
   <tile gid="1277"/>
   <tile gid="1277"/>
   <tile gid="1277"/>
   <tile gid="1277"/>
   <tile gid="1277"/>
   <tile gid="1277"/>
   <tile gid="1277"/>
   <tile gid="1277"/>
   <tile gid="1277"/>
   <tile gid="1277"/>
   <tile gid="1277"/>
   <tile gid="1277"/>
   <tile gid="1277"/>
   <tile gid="1232"/>
   <tile gid="1234"/>
   <tile gid="1233"/>
   <tile gid="1234"/>
   <tile gid="1277"/>
   <tile gid="1277"/>
   <tile gid="1277"/>
   <tile gid="1277"/>
   <tile gid="1277"/>
   <tile gid="1277"/>
   <tile gid="1277"/>
   <tile gid="1277"/>
   <tile gid="1277"/>
   <tile gid="1277"/>
   <tile gid="1277"/>
   <tile gid="1277"/>
   <tile gid="1277"/>
   <tile gid="1277"/>
   <tile gid="1277"/>
   <tile gid="1277"/>
   <tile gid="1277"/>
   <tile gid="1277"/>
   <tile gid="1277"/>
   <tile gid="1277"/>
   <tile gid="1277"/>
   <tile gid="1277"/>
   <tile gid="1277"/>
   <tile gid="1277"/>
   <tile gid="1277"/>
   <tile gid="1277"/>
   <tile gid="1277"/>
   <tile gid="1277"/>
   <tile gid="1277"/>
   <tile gid="1277"/>
   <tile gid="1277"/>
   <tile gid="1277"/>
   <tile gid="1277"/>
   <tile gid="1277"/>
   <tile gid="1277"/>
   <tile gid="1277"/>
   <tile gid="1277"/>
   <tile gid="1190"/>
   <tile gid="1277"/>
   <tile gid="1277"/>
   <tile gid="1277"/>
   <tile gid="1277"/>
   <tile gid="1277"/>
   <tile gid="1277"/>
   <tile gid="1277"/>
   <tile gid="1277"/>
   <tile gid="1277"/>
   <tile gid="1277"/>
   <tile gid="1277"/>
   <tile gid="1277"/>
   <tile gid="1277"/>
   <tile gid="1277"/>
   <tile gid="1277"/>
   <tile gid="1277"/>
   <tile gid="1277"/>
   <tile gid="1277"/>
   <tile gid="1277"/>
   <tile gid="1277"/>
   <tile gid="1277"/>
   <tile gid="1277"/>
   <tile gid="1277"/>
   <tile gid="1277"/>
   <tile gid="1277"/>
   <tile gid="1277"/>
   <tile gid="1277"/>
   <tile gid="1277"/>
   <tile gid="1277"/>
   <tile gid="1277"/>
   <tile gid="1277"/>
   <tile gid="1277"/>
   <tile gid="1277"/>
   <tile gid="1277"/>
   <tile gid="1277"/>
   <tile gid="1277"/>
   <tile gid="1277"/>
   <tile gid="1277"/>
   <tile gid="1277"/>
   <tile gid="1277"/>
   <tile gid="1277"/>
   <tile gid="1277"/>
   <tile gid="1277"/>
   <tile gid="1277"/>
   <tile gid="1277"/>
   <tile gid="1277"/>
   <tile gid="1277"/>
   <tile gid="1277"/>
   <tile gid="1277"/>
   <tile gid="1277"/>
   <tile gid="1277"/>
   <tile gid="1277"/>
   <tile gid="1277"/>
   <tile gid="1277"/>
   <tile gid="1277"/>
   <tile gid="1277"/>
   <tile gid="1277"/>
   <tile gid="1277"/>
   <tile gid="1277"/>
   <tile gid="1277"/>
   <tile gid="1277"/>
   <tile gid="1277"/>
   <tile gid="1277"/>
   <tile gid="1277"/>
   <tile gid="1277"/>
   <tile gid="1277"/>
   <tile gid="1277"/>
   <tile gid="1277"/>
   <tile gid="1277"/>
   <tile gid="1277"/>
   <tile gid="1277"/>
   <tile gid="1277"/>
   <tile gid="1277"/>
   <tile gid="1277"/>
   <tile gid="1276"/>
   <tile gid="1277"/>
   <tile gid="1277"/>
   <tile gid="1277"/>
   <tile gid="1277"/>
   <tile gid="1277"/>
   <tile gid="1277"/>
   <tile gid="1277"/>
   <tile gid="1277"/>
   <tile gid="1277"/>
   <tile gid="1277"/>
   <tile gid="1277"/>
   <tile gid="1277"/>
   <tile gid="1277"/>
   <tile gid="1277"/>
   <tile gid="1277"/>
   <tile gid="1190"/>
   <tile gid="1234"/>
   <tile gid="1232"/>
   <tile gid="1233"/>
   <tile gid="1277"/>
   <tile gid="1277"/>
   <tile gid="1277"/>
   <tile gid="1276"/>
   <tile gid="1275"/>
   <tile gid="1277"/>
   <tile gid="1277"/>
   <tile gid="1277"/>
   <tile gid="1277"/>
   <tile gid="1277"/>
   <tile gid="1277"/>
   <tile gid="1277"/>
   <tile gid="1277"/>
   <tile gid="1277"/>
   <tile gid="1277"/>
   <tile gid="1277"/>
   <tile gid="1277"/>
   <tile gid="1277"/>
   <tile gid="1277"/>
   <tile gid="1277"/>
   <tile gid="1277"/>
   <tile gid="1277"/>
   <tile gid="1277"/>
   <tile gid="1277"/>
   <tile gid="1277"/>
   <tile gid="1277"/>
   <tile gid="1277"/>
   <tile gid="1277"/>
   <tile gid="1277"/>
   <tile gid="1277"/>
   <tile gid="1277"/>
   <tile gid="1277"/>
   <tile gid="1277"/>
   <tile gid="1277"/>
   <tile gid="1277"/>
   <tile gid="1277"/>
   <tile gid="1277"/>
   <tile gid="1277"/>
   <tile gid="1277"/>
   <tile gid="1277"/>
   <tile gid="1277"/>
   <tile gid="1277"/>
   <tile gid="1277"/>
   <tile gid="1277"/>
   <tile gid="1277"/>
   <tile gid="1277"/>
   <tile gid="1277"/>
   <tile gid="1277"/>
   <tile gid="1277"/>
   <tile gid="1277"/>
   <tile gid="1277"/>
   <tile gid="1277"/>
   <tile gid="1277"/>
   <tile gid="1277"/>
   <tile gid="1277"/>
   <tile gid="1277"/>
   <tile gid="1277"/>
   <tile gid="1277"/>
   <tile gid="1277"/>
   <tile gid="1277"/>
   <tile gid="1233"/>
   <tile gid="1277"/>
   <tile gid="1277"/>
   <tile gid="1277"/>
   <tile gid="1277"/>
   <tile gid="1277"/>
   <tile gid="1277"/>
   <tile gid="1277"/>
   <tile gid="1277"/>
   <tile gid="1277"/>
   <tile gid="1277"/>
   <tile gid="1277"/>
   <tile gid="1277"/>
   <tile gid="1277"/>
   <tile gid="1277"/>
   <tile gid="1277"/>
   <tile gid="1277"/>
   <tile gid="1277"/>
   <tile gid="1277"/>
   <tile gid="1277"/>
   <tile gid="1277"/>
   <tile gid="1277"/>
   <tile gid="1277"/>
   <tile gid="1277"/>
   <tile gid="1277"/>
   <tile gid="1277"/>
   <tile gid="1277"/>
   <tile gid="1277"/>
   <tile gid="1277"/>
   <tile gid="1277"/>
   <tile gid="1277"/>
   <tile gid="1277"/>
   <tile gid="1277"/>
   <tile gid="1277"/>
   <tile gid="1277"/>
   <tile gid="1277"/>
   <tile gid="1277"/>
   <tile gid="1277"/>
   <tile gid="1277"/>
   <tile gid="1277"/>
   <tile gid="1277"/>
   <tile gid="1277"/>
   <tile gid="1277"/>
   <tile gid="1277"/>
   <tile gid="1277"/>
   <tile gid="1277"/>
   <tile gid="1277"/>
   <tile gid="1277"/>
   <tile gid="1277"/>
   <tile gid="1277"/>
   <tile gid="1277"/>
   <tile gid="1277"/>
   <tile gid="1277"/>
   <tile gid="1277"/>
   <tile gid="1277"/>
   <tile gid="1277"/>
   <tile gid="1277"/>
   <tile gid="1277"/>
   <tile gid="1277"/>
   <tile gid="1277"/>
   <tile gid="1277"/>
   <tile gid="1277"/>
   <tile gid="1277"/>
   <tile gid="1277"/>
   <tile gid="1277"/>
   <tile gid="1277"/>
   <tile gid="1277"/>
   <tile gid="1277"/>
   <tile gid="1277"/>
   <tile gid="1277"/>
   <tile gid="1277"/>
   <tile gid="1277"/>
   <tile gid="1277"/>
   <tile gid="1277"/>
   <tile gid="1277"/>
   <tile gid="1275"/>
   <tile gid="1277"/>
   <tile gid="1277"/>
   <tile gid="1277"/>
   <tile gid="1277"/>
   <tile gid="1277"/>
   <tile gid="1277"/>
   <tile gid="1277"/>
   <tile gid="1277"/>
   <tile gid="1277"/>
   <tile gid="1277"/>
   <tile gid="1277"/>
   <tile gid="1277"/>
   <tile gid="1277"/>
   <tile gid="1277"/>
   <tile gid="1277"/>
   <tile gid="1277"/>
   <tile gid="1277"/>
   <tile gid="1277"/>
   <tile gid="1277"/>
   <tile gid="1277"/>
   <tile gid="1277"/>
   <tile gid="1277"/>
   <tile gid="1277"/>
   <tile gid="1277"/>
   <tile gid="1277"/>
   <tile gid="1275"/>
   <tile gid="1277"/>
   <tile gid="1277"/>
   <tile gid="1277"/>
   <tile gid="1277"/>
   <tile gid="1277"/>
   <tile gid="1277"/>
   <tile gid="1277"/>
   <tile gid="1277"/>
   <tile gid="1277"/>
   <tile gid="1277"/>
   <tile gid="1277"/>
   <tile gid="1277"/>
   <tile gid="1277"/>
   <tile gid="1277"/>
   <tile gid="1277"/>
   <tile gid="1277"/>
   <tile gid="1277"/>
   <tile gid="1277"/>
   <tile gid="1277"/>
   <tile gid="1277"/>
   <tile gid="1277"/>
   <tile gid="1277"/>
   <tile gid="1277"/>
   <tile gid="1277"/>
   <tile gid="1277"/>
   <tile gid="1277"/>
   <tile gid="1277"/>
   <tile gid="1277"/>
   <tile gid="1277"/>
   <tile gid="1277"/>
   <tile gid="1277"/>
   <tile gid="1277"/>
   <tile gid="1277"/>
   <tile gid="1277"/>
   <tile gid="1277"/>
   <tile gid="1277"/>
   <tile gid="1277"/>
   <tile gid="1277"/>
   <tile gid="1277"/>
   <tile gid="1277"/>
   <tile gid="1277"/>
   <tile gid="1277"/>
   <tile gid="1277"/>
   <tile gid="1277"/>
   <tile gid="1277"/>
   <tile gid="1277"/>
   <tile gid="1277"/>
   <tile gid="1277"/>
   <tile gid="1277"/>
   <tile gid="1277"/>
   <tile gid="1277"/>
   <tile gid="1277"/>
   <tile gid="1277"/>
   <tile gid="1277"/>
   <tile gid="1277"/>
   <tile gid="1277"/>
   <tile gid="1277"/>
   <tile gid="1277"/>
   <tile gid="1277"/>
   <tile gid="1277"/>
   <tile gid="1277"/>
   <tile gid="1277"/>
   <tile gid="1277"/>
   <tile gid="1277"/>
   <tile gid="1277"/>
   <tile gid="1277"/>
   <tile gid="1277"/>
   <tile gid="1277"/>
   <tile gid="1277"/>
   <tile gid="1277"/>
   <tile gid="1277"/>
   <tile gid="1277"/>
   <tile gid="1277"/>
   <tile gid="1277"/>
   <tile gid="1277"/>
   <tile gid="1277"/>
   <tile gid="1277"/>
   <tile gid="1277"/>
   <tile gid="1277"/>
   <tile gid="1277"/>
   <tile gid="1277"/>
   <tile gid="1277"/>
   <tile gid="1277"/>
   <tile gid="1277"/>
   <tile gid="1277"/>
   <tile gid="1277"/>
   <tile gid="1277"/>
   <tile gid="1277"/>
   <tile gid="1277"/>
   <tile gid="1277"/>
   <tile gid="1277"/>
   <tile gid="1277"/>
   <tile gid="1277"/>
   <tile gid="1277"/>
   <tile gid="1277"/>
   <tile gid="1277"/>
   <tile gid="1277"/>
   <tile gid="1277"/>
   <tile gid="1277"/>
   <tile gid="1277"/>
   <tile gid="1277"/>
   <tile gid="1277"/>
   <tile gid="1277"/>
   <tile gid="1277"/>
   <tile gid="1277"/>
   <tile gid="1277"/>
   <tile gid="1277"/>
   <tile gid="1277"/>
   <tile gid="1277"/>
   <tile gid="1277"/>
   <tile gid="1277"/>
   <tile gid="1277"/>
   <tile gid="1277"/>
   <tile gid="1277"/>
   <tile gid="1277"/>
   <tile gid="1277"/>
   <tile gid="1277"/>
   <tile gid="1277"/>
   <tile gid="1277"/>
   <tile gid="1277"/>
   <tile gid="1277"/>
   <tile gid="1277"/>
   <tile gid="1277"/>
   <tile gid="1277"/>
   <tile gid="1277"/>
   <tile gid="1233"/>
   <tile gid="1233"/>
   <tile gid="1275"/>
   <tile gid="1277"/>
   <tile gid="1277"/>
   <tile gid="1277"/>
   <tile gid="1277"/>
   <tile gid="1277"/>
   <tile gid="1277"/>
   <tile gid="1277"/>
   <tile gid="1277"/>
   <tile gid="1277"/>
   <tile gid="1277"/>
   <tile gid="1277"/>
   <tile gid="1277"/>
   <tile gid="1277"/>
   <tile gid="1277"/>
   <tile gid="1277"/>
   <tile gid="1277"/>
   <tile gid="1277"/>
   <tile gid="1277"/>
   <tile gid="1277"/>
   <tile gid="1277"/>
   <tile gid="1277"/>
   <tile gid="1277"/>
   <tile gid="1277"/>
   <tile gid="1277"/>
   <tile gid="1277"/>
   <tile gid="1277"/>
   <tile gid="1277"/>
   <tile gid="1277"/>
   <tile gid="1277"/>
   <tile gid="1277"/>
   <tile gid="1277"/>
   <tile gid="1277"/>
   <tile gid="1277"/>
   <tile gid="1277"/>
   <tile gid="1277"/>
   <tile gid="1277"/>
   <tile gid="1277"/>
   <tile gid="1277"/>
   <tile gid="1277"/>
   <tile gid="1277"/>
   <tile gid="1277"/>
   <tile gid="1277"/>
   <tile gid="1277"/>
   <tile gid="1277"/>
   <tile gid="1277"/>
   <tile gid="1277"/>
   <tile gid="1277"/>
   <tile gid="1277"/>
   <tile gid="1277"/>
   <tile gid="1277"/>
   <tile gid="1277"/>
   <tile gid="1277"/>
   <tile gid="1277"/>
   <tile gid="1277"/>
   <tile gid="1277"/>
   <tile gid="1277"/>
   <tile gid="1277"/>
   <tile gid="1277"/>
   <tile gid="1277"/>
   <tile gid="1277"/>
   <tile gid="1277"/>
   <tile gid="1277"/>
   <tile gid="1277"/>
   <tile gid="1277"/>
   <tile gid="1277"/>
   <tile gid="1277"/>
   <tile gid="1277"/>
   <tile gid="1277"/>
   <tile gid="1277"/>
   <tile gid="1277"/>
   <tile gid="1277"/>
   <tile gid="1277"/>
   <tile gid="1276"/>
   <tile gid="1234"/>
   <tile gid="1276"/>
   <tile gid="1277"/>
   <tile gid="1277"/>
   <tile gid="1277"/>
   <tile gid="1277"/>
   <tile gid="1277"/>
   <tile gid="1277"/>
   <tile gid="1277"/>
   <tile gid="1277"/>
   <tile gid="1277"/>
   <tile gid="1277"/>
   <tile gid="1277"/>
   <tile gid="1277"/>
   <tile gid="1277"/>
   <tile gid="1277"/>
   <tile gid="1277"/>
   <tile gid="1277"/>
   <tile gid="1277"/>
   <tile gid="1277"/>
   <tile gid="1277"/>
   <tile gid="1277"/>
   <tile gid="1277"/>
   <tile gid="1277"/>
   <tile gid="1277"/>
   <tile gid="1277"/>
   <tile gid="1277"/>
   <tile gid="1277"/>
   <tile gid="1277"/>
   <tile gid="1277"/>
   <tile gid="1277"/>
   <tile gid="1277"/>
   <tile gid="1277"/>
   <tile gid="1277"/>
   <tile gid="1277"/>
   <tile gid="1277"/>
   <tile gid="1277"/>
   <tile gid="1275"/>
   <tile gid="1277"/>
   <tile gid="1277"/>
   <tile gid="1277"/>
   <tile gid="1277"/>
   <tile gid="1277"/>
   <tile gid="1277"/>
   <tile gid="1277"/>
   <tile gid="1277"/>
   <tile gid="1277"/>
   <tile gid="1277"/>
   <tile gid="1277"/>
   <tile gid="1277"/>
   <tile gid="1277"/>
   <tile gid="1277"/>
   <tile gid="1277"/>
   <tile gid="1277"/>
   <tile gid="1277"/>
   <tile gid="1277"/>
   <tile gid="1277"/>
   <tile gid="1277"/>
   <tile gid="1277"/>
   <tile gid="1277"/>
   <tile gid="1277"/>
   <tile gid="1277"/>
   <tile gid="1277"/>
   <tile gid="1277"/>
   <tile gid="1277"/>
   <tile gid="1277"/>
   <tile gid="1277"/>
   <tile gid="1277"/>
   <tile gid="1277"/>
   <tile gid="1277"/>
   <tile gid="1277"/>
   <tile gid="1277"/>
   <tile gid="1277"/>
   <tile gid="1277"/>
   <tile gid="1277"/>
   <tile gid="1277"/>
   <tile gid="1277"/>
   <tile gid="1277"/>
   <tile gid="1277"/>
   <tile gid="1277"/>
   <tile gid="1277"/>
   <tile gid="1277"/>
   <tile gid="1277"/>
   <tile gid="1277"/>
   <tile gid="1277"/>
   <tile gid="1277"/>
   <tile gid="1275"/>
   <tile gid="1275"/>
   <tile gid="1277"/>
   <tile gid="1277"/>
   <tile gid="1277"/>
   <tile gid="1277"/>
   <tile gid="1277"/>
   <tile gid="1277"/>
   <tile gid="1277"/>
   <tile gid="1277"/>
   <tile gid="1277"/>
   <tile gid="1277"/>
   <tile gid="1277"/>
   <tile gid="1277"/>
   <tile gid="1277"/>
   <tile gid="1277"/>
   <tile gid="1277"/>
   <tile gid="1277"/>
   <tile gid="1277"/>
   <tile gid="1277"/>
   <tile gid="1277"/>
   <tile gid="1277"/>
   <tile gid="1277"/>
   <tile gid="1277"/>
   <tile gid="1277"/>
   <tile gid="1277"/>
   <tile gid="1190"/>
   <tile gid="1277"/>
   <tile gid="1277"/>
   <tile gid="1277"/>
   <tile gid="1277"/>
   <tile gid="1277"/>
   <tile gid="1277"/>
   <tile gid="1277"/>
   <tile gid="1277"/>
   <tile gid="1277"/>
   <tile gid="1277"/>
   <tile gid="1277"/>
   <tile gid="1277"/>
   <tile gid="1277"/>
   <tile gid="1277"/>
   <tile gid="1277"/>
   <tile gid="1277"/>
   <tile gid="1277"/>
   <tile gid="1277"/>
   <tile gid="1277"/>
   <tile gid="1277"/>
   <tile gid="1277"/>
   <tile gid="1277"/>
   <tile gid="1277"/>
   <tile gid="1277"/>
   <tile gid="1277"/>
   <tile gid="1277"/>
   <tile gid="1277"/>
   <tile gid="1277"/>
   <tile gid="1277"/>
   <tile gid="1277"/>
   <tile gid="1277"/>
   <tile gid="1277"/>
   <tile gid="1277"/>
   <tile gid="1277"/>
   <tile gid="1277"/>
   <tile gid="1277"/>
   <tile gid="1277"/>
   <tile gid="1277"/>
   <tile gid="1277"/>
   <tile gid="1277"/>
   <tile gid="1277"/>
   <tile gid="1277"/>
   <tile gid="1277"/>
   <tile gid="1277"/>
   <tile gid="1277"/>
   <tile gid="1277"/>
   <tile gid="1277"/>
   <tile gid="1277"/>
   <tile gid="1277"/>
   <tile gid="1277"/>
   <tile gid="1277"/>
   <tile gid="1277"/>
   <tile gid="1277"/>
   <tile gid="1277"/>
   <tile gid="1277"/>
   <tile gid="1233"/>
   <tile gid="1277"/>
   <tile gid="1277"/>
   <tile gid="1277"/>
   <tile gid="1277"/>
   <tile gid="1277"/>
   <tile gid="1277"/>
   <tile gid="1277"/>
   <tile gid="1277"/>
   <tile gid="1277"/>
   <tile gid="1277"/>
   <tile gid="1277"/>
   <tile gid="1277"/>
   <tile gid="1277"/>
   <tile gid="1277"/>
   <tile gid="1277"/>
   <tile gid="1277"/>
   <tile gid="1277"/>
   <tile gid="1277"/>
   <tile gid="1277"/>
   <tile gid="1277"/>
   <tile gid="1277"/>
   <tile gid="1277"/>
   <tile gid="1277"/>
   <tile gid="1277"/>
   <tile gid="1277"/>
   <tile gid="1277"/>
   <tile gid="1277"/>
   <tile gid="1277"/>
   <tile gid="1277"/>
   <tile gid="1277"/>
   <tile gid="1277"/>
   <tile gid="1277"/>
   <tile gid="1277"/>
   <tile gid="1277"/>
   <tile gid="1277"/>
   <tile gid="1277"/>
   <tile gid="1277"/>
   <tile gid="1277"/>
   <tile gid="1277"/>
   <tile gid="1277"/>
   <tile gid="1277"/>
   <tile gid="1277"/>
   <tile gid="1277"/>
   <tile gid="1277"/>
   <tile gid="1277"/>
   <tile gid="1277"/>
   <tile gid="1277"/>
   <tile gid="1277"/>
   <tile gid="1277"/>
   <tile gid="1277"/>
   <tile gid="1277"/>
   <tile gid="1277"/>
   <tile gid="1277"/>
   <tile gid="1277"/>
   <tile gid="1277"/>
   <tile gid="1277"/>
   <tile gid="1277"/>
   <tile gid="1277"/>
   <tile gid="1277"/>
   <tile gid="1277"/>
   <tile gid="1277"/>
   <tile gid="1277"/>
   <tile gid="1277"/>
   <tile gid="1277"/>
   <tile gid="1277"/>
   <tile gid="1277"/>
   <tile gid="1277"/>
   <tile gid="1277"/>
   <tile gid="1277"/>
   <tile gid="1277"/>
   <tile gid="1277"/>
   <tile gid="1277"/>
   <tile gid="1277"/>
   <tile gid="1277"/>
   <tile gid="1277"/>
   <tile gid="1277"/>
   <tile gid="1277"/>
   <tile gid="1277"/>
   <tile gid="1277"/>
   <tile gid="1277"/>
   <tile gid="1277"/>
   <tile gid="1277"/>
   <tile gid="1277"/>
   <tile gid="1277"/>
   <tile gid="1277"/>
   <tile gid="1277"/>
   <tile gid="1277"/>
   <tile gid="1277"/>
   <tile gid="1277"/>
   <tile gid="1277"/>
   <tile gid="1277"/>
   <tile gid="1277"/>
   <tile gid="1277"/>
   <tile gid="1277"/>
   <tile gid="1277"/>
   <tile gid="1277"/>
   <tile gid="1277"/>
   <tile gid="1277"/>
   <tile gid="1277"/>
   <tile gid="1277"/>
   <tile gid="1277"/>
   <tile gid="1277"/>
   <tile gid="1277"/>
   <tile gid="1277"/>
   <tile gid="1277"/>
   <tile gid="1277"/>
   <tile gid="1277"/>
   <tile gid="1277"/>
   <tile gid="1277"/>
   <tile gid="1277"/>
   <tile gid="1277"/>
   <tile gid="1277"/>
   <tile gid="1277"/>
   <tile gid="1277"/>
   <tile gid="1277"/>
   <tile gid="1277"/>
   <tile gid="1277"/>
   <tile gid="1277"/>
   <tile gid="1277"/>
   <tile gid="1277"/>
   <tile gid="1277"/>
   <tile gid="1277"/>
   <tile gid="1275"/>
   <tile gid="1190"/>
   <tile gid="1232"/>
   <tile gid="1276"/>
   <tile gid="1277"/>
   <tile gid="1277"/>
   <tile gid="1277"/>
   <tile gid="1277"/>
   <tile gid="1277"/>
   <tile gid="1277"/>
   <tile gid="1233"/>
   <tile gid="1275"/>
   <tile gid="1233"/>
   <tile gid="1234"/>
   <tile gid="1277"/>
   <tile gid="1277"/>
   <tile gid="1277"/>
   <tile gid="1277"/>
   <tile gid="1277"/>
   <tile gid="1234"/>
   <tile gid="1190"/>
   <tile gid="1277"/>
   <tile gid="1277"/>
   <tile gid="1277"/>
   <tile gid="1277"/>
   <tile gid="1277"/>
   <tile gid="1277"/>
   <tile gid="1277"/>
   <tile gid="1277"/>
   <tile gid="1277"/>
   <tile gid="1277"/>
   <tile gid="1277"/>
   <tile gid="1277"/>
   <tile gid="1277"/>
   <tile gid="1277"/>
   <tile gid="1277"/>
   <tile gid="1277"/>
   <tile gid="1277"/>
   <tile gid="1277"/>
   <tile gid="1277"/>
   <tile gid="1277"/>
   <tile gid="1277"/>
   <tile gid="1277"/>
   <tile gid="1232"/>
   <tile gid="1233"/>
   <tile gid="1277"/>
   <tile gid="1277"/>
   <tile gid="1277"/>
   <tile gid="1277"/>
   <tile gid="1277"/>
   <tile gid="1277"/>
   <tile gid="1277"/>
   <tile gid="1277"/>
   <tile gid="1277"/>
   <tile gid="1277"/>
   <tile gid="1277"/>
   <tile gid="1277"/>
   <tile gid="1277"/>
   <tile gid="1277"/>
   <tile gid="1277"/>
   <tile gid="1277"/>
   <tile gid="1277"/>
   <tile gid="1277"/>
   <tile gid="1277"/>
   <tile gid="1277"/>
   <tile gid="1277"/>
   <tile gid="1277"/>
   <tile gid="1277"/>
   <tile gid="1277"/>
   <tile gid="1277"/>
   <tile gid="1277"/>
   <tile gid="1277"/>
   <tile gid="1277"/>
   <tile gid="1277"/>
   <tile gid="1277"/>
   <tile gid="1277"/>
   <tile gid="1277"/>
   <tile gid="1277"/>
   <tile gid="1277"/>
   <tile gid="1277"/>
   <tile gid="1277"/>
   <tile gid="1277"/>
   <tile gid="1277"/>
   <tile gid="1277"/>
   <tile gid="1277"/>
   <tile gid="1277"/>
   <tile gid="1277"/>
   <tile gid="1277"/>
   <tile gid="1277"/>
   <tile gid="1277"/>
   <tile gid="1277"/>
   <tile gid="1277"/>
   <tile gid="1277"/>
   <tile gid="1277"/>
   <tile gid="1275"/>
   <tile gid="1232"/>
   <tile gid="1277"/>
   <tile gid="1277"/>
   <tile gid="1277"/>
   <tile gid="1277"/>
   <tile gid="1277"/>
   <tile gid="1277"/>
   <tile gid="1277"/>
   <tile gid="1277"/>
   <tile gid="1277"/>
   <tile gid="1277"/>
   <tile gid="1277"/>
   <tile gid="1277"/>
   <tile gid="1277"/>
   <tile gid="1277"/>
   <tile gid="1277"/>
   <tile gid="1277"/>
   <tile gid="1277"/>
   <tile gid="1277"/>
   <tile gid="1277"/>
   <tile gid="1277"/>
   <tile gid="1277"/>
   <tile gid="1277"/>
   <tile gid="1277"/>
   <tile gid="1277"/>
   <tile gid="1277"/>
   <tile gid="1277"/>
   <tile gid="1277"/>
   <tile gid="1277"/>
   <tile gid="1277"/>
   <tile gid="1277"/>
   <tile gid="1277"/>
   <tile gid="1277"/>
   <tile gid="1277"/>
   <tile gid="1277"/>
   <tile gid="1277"/>
   <tile gid="1277"/>
   <tile gid="1277"/>
   <tile gid="1277"/>
   <tile gid="1277"/>
   <tile gid="1277"/>
   <tile gid="1277"/>
   <tile gid="1277"/>
   <tile gid="1277"/>
   <tile gid="1277"/>
   <tile gid="1277"/>
   <tile gid="1277"/>
   <tile gid="1277"/>
   <tile gid="1277"/>
   <tile gid="1277"/>
   <tile gid="1277"/>
   <tile gid="1277"/>
   <tile gid="1277"/>
   <tile gid="746"/>
   <tile gid="744"/>
   <tile gid="745"/>
   <tile gid="746"/>
   <tile gid="745"/>
   <tile gid="746"/>
   <tile gid="744"/>
   <tile gid="746"/>
   <tile gid="745"/>
   <tile gid="745"/>
   <tile gid="745"/>
   <tile gid="745"/>
   <tile gid="746"/>
   <tile gid="745"/>
   <tile gid="746"/>
   <tile gid="745"/>
   <tile gid="745"/>
   <tile gid="745"/>
   <tile gid="744"/>
   <tile gid="744"/>
   <tile gid="744"/>
   <tile gid="744"/>
   <tile gid="744"/>
   <tile gid="745"/>
   <tile gid="745"/>
   <tile gid="745"/>
   <tile gid="746"/>
   <tile gid="746"/>
   <tile gid="744"/>
   <tile gid="746"/>
   <tile gid="745"/>
   <tile gid="745"/>
   <tile gid="746"/>
   <tile gid="745"/>
   <tile gid="746"/>
   <tile gid="744"/>
   <tile gid="746"/>
   <tile gid="745"/>
   <tile gid="746"/>
   <tile gid="745"/>
   <tile gid="744"/>
   <tile gid="745"/>
   <tile gid="746"/>
   <tile gid="744"/>
   <tile gid="746"/>
   <tile gid="744"/>
   <tile gid="744"/>
   <tile gid="745"/>
   <tile gid="746"/>
   <tile gid="744"/>
   <tile gid="744"/>
   <tile gid="744"/>
   <tile gid="744"/>
   <tile gid="746"/>
   <tile gid="746"/>
   <tile gid="745"/>
   <tile gid="745"/>
   <tile gid="744"/>
   <tile gid="746"/>
   <tile gid="744"/>
   <tile gid="746"/>
   <tile gid="746"/>
   <tile gid="744"/>
   <tile gid="745"/>
   <tile gid="746"/>
   <tile gid="746"/>
   <tile gid="744"/>
   <tile gid="744"/>
   <tile gid="744"/>
   <tile gid="745"/>
   <tile gid="744"/>
   <tile gid="744"/>
   <tile gid="745"/>
   <tile gid="746"/>
   <tile gid="746"/>
   <tile/>
   <tile/>
   <tile/>
   <tile/>
   <tile/>
   <tile/>
   <tile/>
   <tile/>
   <tile/>
   <tile/>
   <tile/>
   <tile/>
   <tile/>
   <tile/>
   <tile/>
   <tile/>
   <tile/>
   <tile/>
   <tile/>
   <tile/>
   <tile/>
   <tile/>
   <tile/>
   <tile/>
   <tile/>
   <tile/>
   <tile/>
   <tile/>
   <tile/>
   <tile/>
   <tile/>
   <tile/>
   <tile/>
   <tile/>
   <tile/>
   <tile/>
   <tile/>
   <tile/>
   <tile/>
   <tile/>
   <tile/>
   <tile/>
   <tile/>
   <tile/>
   <tile/>
   <tile/>
   <tile/>
   <tile/>
   <tile/>
   <tile/>
   <tile/>
   <tile/>
   <tile/>
   <tile/>
   <tile/>
   <tile/>
   <tile/>
   <tile/>
   <tile/>
   <tile/>
   <tile/>
   <tile/>
   <tile/>
   <tile/>
   <tile/>
   <tile/>
   <tile/>
   <tile/>
   <tile/>
   <tile/>
   <tile/>
   <tile/>
   <tile/>
   <tile/>
   <tile/>
  </data>
 </layer>
 <layer id="13" name="AssetsBG" width="75" height="64">
  <properties>
   <property name="Draw" type="bool" value="true"/>
  </properties>
  <data>
   <tile/>
   <tile/>
   <tile/>
   <tile/>
   <tile/>
   <tile/>
   <tile/>
   <tile/>
   <tile/>
   <tile/>
   <tile/>
   <tile/>
   <tile/>
   <tile/>
   <tile/>
   <tile/>
   <tile/>
   <tile/>
   <tile/>
   <tile/>
   <tile/>
   <tile/>
   <tile/>
   <tile/>
   <tile/>
   <tile/>
   <tile/>
   <tile/>
   <tile/>
   <tile/>
   <tile/>
   <tile/>
   <tile/>
   <tile/>
   <tile/>
   <tile/>
   <tile/>
   <tile/>
   <tile/>
   <tile/>
   <tile/>
   <tile/>
   <tile/>
   <tile/>
   <tile/>
   <tile/>
   <tile/>
   <tile/>
   <tile/>
   <tile/>
   <tile/>
   <tile/>
   <tile/>
   <tile/>
   <tile/>
   <tile/>
   <tile/>
   <tile/>
   <tile/>
   <tile/>
   <tile/>
   <tile/>
   <tile/>
   <tile/>
   <tile/>
   <tile/>
   <tile/>
   <tile/>
   <tile/>
   <tile/>
   <tile/>
   <tile/>
   <tile/>
   <tile/>
   <tile/>
   <tile/>
   <tile/>
   <tile/>
   <tile/>
   <tile/>
   <tile/>
   <tile/>
   <tile/>
   <tile/>
   <tile/>
   <tile/>
   <tile/>
   <tile/>
   <tile/>
   <tile/>
   <tile/>
   <tile/>
   <tile/>
   <tile/>
   <tile/>
   <tile/>
   <tile/>
   <tile/>
   <tile/>
   <tile/>
   <tile/>
   <tile/>
   <tile/>
   <tile/>
   <tile/>
   <tile/>
   <tile/>
   <tile/>
   <tile/>
   <tile/>
   <tile/>
   <tile/>
   <tile/>
   <tile/>
   <tile/>
   <tile/>
   <tile/>
   <tile/>
   <tile/>
   <tile/>
   <tile/>
   <tile/>
   <tile/>
   <tile/>
   <tile/>
   <tile/>
   <tile/>
   <tile/>
   <tile/>
   <tile/>
   <tile/>
   <tile/>
   <tile/>
   <tile/>
   <tile/>
   <tile/>
   <tile/>
   <tile/>
   <tile/>
   <tile/>
   <tile/>
   <tile/>
   <tile/>
   <tile/>
   <tile/>
   <tile/>
   <tile/>
   <tile/>
   <tile/>
   <tile/>
   <tile/>
   <tile/>
   <tile/>
   <tile/>
   <tile/>
   <tile/>
   <tile/>
   <tile/>
   <tile/>
   <tile/>
   <tile/>
   <tile/>
   <tile/>
   <tile/>
   <tile/>
   <tile/>
   <tile/>
   <tile/>
   <tile/>
   <tile/>
   <tile/>
   <tile/>
   <tile/>
   <tile/>
   <tile/>
   <tile/>
   <tile/>
   <tile/>
   <tile/>
   <tile/>
   <tile/>
   <tile/>
   <tile/>
   <tile/>
   <tile/>
   <tile/>
   <tile/>
   <tile/>
   <tile/>
   <tile/>
   <tile/>
   <tile/>
   <tile/>
   <tile/>
   <tile/>
   <tile/>
   <tile/>
   <tile/>
   <tile/>
   <tile/>
   <tile/>
   <tile/>
   <tile/>
   <tile/>
   <tile/>
   <tile/>
   <tile/>
   <tile/>
   <tile/>
   <tile/>
   <tile/>
   <tile/>
   <tile/>
   <tile/>
   <tile/>
   <tile/>
   <tile/>
   <tile/>
   <tile/>
   <tile/>
   <tile/>
   <tile/>
   <tile/>
   <tile/>
   <tile/>
   <tile/>
   <tile/>
   <tile/>
   <tile/>
   <tile/>
   <tile/>
   <tile/>
   <tile/>
   <tile/>
   <tile/>
   <tile/>
   <tile/>
   <tile/>
   <tile/>
   <tile/>
   <tile/>
   <tile/>
   <tile/>
   <tile/>
   <tile/>
   <tile/>
   <tile/>
   <tile/>
   <tile/>
   <tile/>
   <tile/>
   <tile/>
   <tile/>
   <tile/>
   <tile/>
   <tile/>
   <tile/>
   <tile/>
   <tile/>
   <tile/>
   <tile/>
   <tile/>
   <tile/>
   <tile/>
   <tile/>
   <tile/>
   <tile/>
   <tile/>
   <tile/>
   <tile/>
   <tile/>
   <tile/>
   <tile/>
   <tile/>
   <tile/>
   <tile/>
   <tile/>
   <tile/>
   <tile/>
   <tile/>
   <tile/>
   <tile/>
   <tile/>
   <tile/>
   <tile/>
   <tile/>
   <tile/>
   <tile/>
   <tile/>
   <tile/>
   <tile/>
   <tile/>
   <tile/>
   <tile/>
   <tile/>
   <tile/>
   <tile/>
   <tile/>
   <tile/>
   <tile/>
   <tile/>
   <tile/>
   <tile/>
   <tile/>
   <tile/>
   <tile/>
   <tile/>
   <tile/>
   <tile/>
   <tile/>
   <tile/>
   <tile/>
   <tile/>
   <tile/>
   <tile/>
   <tile/>
   <tile/>
   <tile/>
   <tile/>
   <tile/>
   <tile/>
   <tile/>
   <tile/>
   <tile/>
   <tile/>
   <tile/>
   <tile/>
   <tile/>
   <tile/>
   <tile/>
   <tile/>
   <tile/>
   <tile/>
   <tile/>
   <tile/>
   <tile/>
   <tile/>
   <tile/>
   <tile/>
   <tile/>
   <tile/>
   <tile/>
   <tile/>
   <tile/>
   <tile/>
   <tile/>
   <tile/>
   <tile/>
   <tile/>
   <tile/>
   <tile/>
   <tile/>
   <tile/>
   <tile/>
   <tile/>
   <tile/>
   <tile/>
   <tile/>
   <tile/>
   <tile/>
   <tile/>
   <tile/>
   <tile/>
   <tile/>
   <tile/>
   <tile/>
   <tile/>
   <tile/>
   <tile/>
   <tile/>
   <tile/>
   <tile/>
   <tile/>
   <tile/>
   <tile/>
   <tile/>
   <tile/>
   <tile/>
   <tile/>
   <tile/>
   <tile/>
   <tile/>
   <tile/>
   <tile/>
   <tile/>
   <tile/>
   <tile/>
   <tile/>
   <tile/>
   <tile/>
   <tile/>
   <tile/>
   <tile/>
   <tile/>
   <tile/>
   <tile/>
   <tile/>
   <tile/>
   <tile/>
   <tile/>
   <tile/>
   <tile/>
   <tile/>
   <tile/>
   <tile/>
   <tile/>
   <tile/>
   <tile/>
   <tile/>
   <tile/>
   <tile/>
   <tile/>
   <tile/>
   <tile/>
   <tile/>
   <tile/>
   <tile/>
   <tile/>
   <tile/>
   <tile/>
   <tile/>
   <tile/>
   <tile/>
   <tile/>
   <tile/>
   <tile/>
   <tile/>
   <tile/>
   <tile/>
   <tile/>
   <tile/>
   <tile/>
   <tile/>
   <tile/>
   <tile/>
   <tile/>
   <tile/>
   <tile/>
   <tile/>
   <tile/>
   <tile/>
   <tile/>
   <tile/>
   <tile/>
   <tile/>
   <tile/>
   <tile/>
   <tile/>
   <tile/>
   <tile/>
   <tile/>
   <tile/>
   <tile/>
   <tile/>
   <tile/>
   <tile/>
   <tile/>
   <tile/>
   <tile/>
   <tile/>
   <tile/>
   <tile/>
   <tile/>
   <tile/>
   <tile/>
   <tile/>
   <tile gid="169"/>
   <tile gid="303"/>
   <tile gid="299"/>
   <tile gid="303"/>
   <tile gid="213"/>
   <tile gid="171"/>
   <tile gid="173"/>
   <tile gid="173"/>
   <tile gid="260"/>
   <tile gid="213"/>
   <tile gid="175"/>
   <tile/>
   <tile/>
   <tile/>
   <tile/>
   <tile/>
   <tile/>
   <tile/>
   <tile/>
   <tile/>
   <tile/>
   <tile/>
   <tile/>
   <tile/>
   <tile/>
   <tile/>
   <tile/>
   <tile/>
   <tile/>
   <tile/>
   <tile/>
   <tile/>
   <tile/>
   <tile/>
   <tile/>
   <tile/>
   <tile/>
   <tile/>
   <tile/>
   <tile/>
   <tile/>
   <tile/>
   <tile/>
   <tile/>
   <tile/>
   <tile/>
   <tile/>
   <tile/>
   <tile/>
   <tile/>
   <tile/>
   <tile/>
   <tile/>
   <tile/>
   <tile/>
   <tile/>
   <tile/>
   <tile/>
   <tile/>
   <tile/>
   <tile/>
   <tile/>
   <tile/>
   <tile/>
   <tile/>
   <tile/>
   <tile/>
   <tile/>
   <tile/>
   <tile/>
   <tile/>
   <tile/>
   <tile/>
   <tile/>
   <tile/>
   <tile gid="255"/>
   <tile gid="303"/>
   <tile gid="174"/>
   <tile gid="173"/>
   <tile gid="256"/>
   <tile gid="172"/>
   <tile gid="260"/>
   <tile gid="173"/>
   <tile gid="303"/>
   <tile gid="256"/>
   <tile gid="261"/>
   <tile/>
   <tile/>
   <tile/>
   <tile/>
   <tile/>
   <tile/>
   <tile/>
   <tile/>
   <tile/>
   <tile/>
   <tile/>
   <tile/>
   <tile/>
   <tile/>
   <tile/>
   <tile/>
   <tile/>
   <tile/>
   <tile/>
   <tile/>
   <tile/>
   <tile/>
   <tile/>
   <tile/>
   <tile/>
   <tile/>
   <tile/>
   <tile/>
   <tile/>
   <tile/>
   <tile/>
   <tile/>
   <tile/>
   <tile/>
   <tile/>
   <tile/>
   <tile/>
   <tile/>
   <tile/>
   <tile/>
   <tile/>
   <tile/>
   <tile/>
   <tile/>
   <tile/>
   <tile/>
   <tile/>
   <tile/>
   <tile/>
   <tile/>
   <tile/>
   <tile/>
   <tile/>
   <tile/>
   <tile/>
   <tile/>
   <tile/>
   <tile/>
   <tile/>
   <tile/>
   <tile/>
   <tile/>
   <tile/>
   <tile/>
   <tile gid="255"/>
   <tile gid="217"/>
   <tile gid="170"/>
   <tile gid="303"/>
   <tile gid="299"/>
   <tile gid="213"/>
   <tile gid="171"/>
   <tile gid="299"/>
   <tile gid="172"/>
   <tile gid="256"/>
   <tile gid="261"/>
   <tile/>
   <tile/>
   <tile/>
   <tile/>
   <tile/>
   <tile/>
   <tile/>
   <tile/>
   <tile/>
   <tile/>
   <tile/>
   <tile/>
   <tile/>
   <tile/>
   <tile/>
   <tile/>
   <tile/>
   <tile/>
   <tile/>
   <tile/>
   <tile/>
   <tile/>
   <tile/>
   <tile/>
   <tile/>
   <tile/>
   <tile/>
   <tile/>
   <tile/>
   <tile/>
   <tile/>
   <tile/>
   <tile/>
   <tile/>
   <tile/>
   <tile/>
   <tile/>
   <tile/>
   <tile/>
   <tile/>
   <tile/>
   <tile/>
   <tile/>
   <tile/>
   <tile/>
   <tile/>
   <tile/>
   <tile/>
   <tile/>
   <tile/>
   <tile/>
   <tile/>
   <tile/>
   <tile/>
   <tile/>
   <tile/>
   <tile/>
   <tile/>
   <tile/>
   <tile/>
   <tile/>
   <tile/>
   <tile/>
   <tile/>
   <tile gid="169"/>
   <tile gid="260"/>
   <tile gid="171"/>
   <tile gid="299"/>
   <tile gid="260"/>
   <tile gid="260"/>
   <tile gid="173"/>
   <tile gid="170"/>
   <tile gid="171"/>
   <tile gid="170"/>
   <tile gid="175"/>
   <tile/>
   <tile/>
   <tile/>
   <tile/>
   <tile/>
   <tile/>
   <tile/>
   <tile/>
   <tile/>
   <tile/>
   <tile/>
   <tile/>
   <tile/>
   <tile/>
   <tile/>
   <tile/>
   <tile/>
   <tile/>
   <tile/>
   <tile/>
   <tile/>
   <tile/>
   <tile/>
   <tile/>
   <tile/>
   <tile/>
   <tile/>
   <tile/>
   <tile/>
   <tile/>
   <tile/>
   <tile/>
   <tile/>
   <tile/>
   <tile/>
   <tile/>
   <tile/>
   <tile/>
   <tile/>
   <tile/>
   <tile/>
   <tile/>
   <tile/>
   <tile/>
   <tile/>
   <tile/>
   <tile/>
   <tile/>
   <tile/>
   <tile/>
   <tile/>
   <tile/>
   <tile/>
   <tile/>
   <tile/>
   <tile/>
   <tile/>
   <tile/>
   <tile/>
   <tile/>
   <tile/>
   <tile/>
   <tile/>
   <tile/>
   <tile gid="169"/>
   <tile gid="173"/>
   <tile gid="303"/>
   <tile gid="174"/>
   <tile gid="260"/>
   <tile gid="173"/>
   <tile gid="299"/>
   <tile gid="172"/>
   <tile gid="213"/>
   <tile gid="171"/>
   <tile gid="175"/>
   <tile/>
   <tile/>
   <tile/>
   <tile/>
   <tile/>
   <tile/>
   <tile/>
   <tile/>
   <tile/>
   <tile/>
   <tile/>
   <tile/>
   <tile/>
   <tile/>
   <tile/>
   <tile/>
   <tile/>
   <tile/>
   <tile/>
   <tile/>
   <tile/>
   <tile gid="1042"/>
   <tile gid="1043"/>
   <tile/>
   <tile/>
   <tile/>
   <tile/>
   <tile/>
   <tile/>
   <tile/>
   <tile/>
   <tile/>
   <tile/>
   <tile/>
   <tile/>
   <tile/>
   <tile/>
   <tile/>
   <tile/>
   <tile/>
   <tile/>
   <tile/>
   <tile/>
   <tile/>
   <tile/>
   <tile/>
   <tile/>
   <tile/>
   <tile/>
   <tile/>
   <tile/>
   <tile/>
   <tile/>
   <tile/>
   <tile/>
   <tile/>
   <tile/>
   <tile/>
   <tile/>
   <tile/>
   <tile/>
   <tile/>
   <tile/>
   <tile/>
   <tile gid="169"/>
   <tile gid="303"/>
   <tile gid="303"/>
   <tile gid="173"/>
   <tile gid="213"/>
   <tile gid="256"/>
   <tile gid="303"/>
   <tile gid="256"/>
   <tile gid="299"/>
   <tile gid="256"/>
   <tile gid="261"/>
   <tile/>
   <tile/>
   <tile/>
   <tile/>
   <tile/>
   <tile/>
   <tile/>
   <tile/>
   <tile/>
   <tile/>
   <tile/>
   <tile/>
   <tile/>
   <tile/>
   <tile/>
   <tile gid="1080"/>
   <tile gid="1081"/>
   <tile gid="1082"/>
   <tile gid="1083"/>
   <tile gid="1084"/>
   <tile/>
   <tile gid="1085"/>
   <tile gid="1086"/>
   <tile/>
   <tile/>
   <tile/>
   <tile/>
   <tile/>
   <tile/>
   <tile/>
   <tile/>
   <tile/>
   <tile/>
   <tile/>
   <tile/>
   <tile/>
   <tile/>
   <tile/>
   <tile/>
   <tile/>
   <tile/>
   <tile/>
   <tile/>
   <tile/>
   <tile/>
   <tile/>
   <tile/>
   <tile/>
   <tile/>
   <tile/>
   <tile/>
   <tile/>
   <tile/>
   <tile/>
   <tile/>
   <tile/>
   <tile/>
   <tile/>
   <tile/>
   <tile/>
   <tile/>
   <tile/>
   <tile/>
   <tile/>
   <tile gid="169"/>
   <tile gid="303"/>
   <tile gid="260"/>
   <tile gid="217"/>
   <tile gid="299"/>
   <tile gid="260"/>
   <tile gid="173"/>
   <tile gid="256"/>
   <tile gid="213"/>
   <tile gid="171"/>
   <tile gid="218"/>
   <tile/>
   <tile/>
   <tile/>
   <tile/>
   <tile/>
   <tile/>
   <tile/>
   <tile/>
   <tile/>
   <tile/>
   <tile/>
   <tile/>
   <tile/>
   <tile/>
   <tile/>
   <tile gid="1123"/>
   <tile gid="1124"/>
   <tile gid="1125"/>
   <tile gid="1126"/>
   <tile gid="1127"/>
   <tile/>
   <tile gid="1128"/>
   <tile gid="1129"/>
   <tile/>
   <tile/>
   <tile/>
   <tile/>
   <tile/>
   <tile/>
   <tile/>
   <tile/>
   <tile/>
   <tile/>
   <tile/>
   <tile/>
   <tile/>
   <tile/>
   <tile/>
   <tile/>
   <tile/>
   <tile/>
   <tile/>
   <tile/>
   <tile/>
   <tile/>
   <tile/>
   <tile/>
   <tile/>
   <tile/>
   <tile/>
   <tile/>
   <tile/>
   <tile/>
   <tile/>
   <tile/>
   <tile/>
   <tile/>
   <tile/>
   <tile/>
   <tile/>
   <tile/>
   <tile/>
   <tile/>
   <tile/>
   <tile gid="212"/>
   <tile gid="217"/>
   <tile gid="171"/>
   <tile gid="213"/>
   <tile gid="213"/>
   <tile gid="256"/>
   <tile gid="217"/>
   <tile gid="171"/>
   <tile gid="174"/>
   <tile gid="217"/>
   <tile gid="218"/>
   <tile/>
   <tile/>
   <tile/>
   <tile/>
   <tile/>
   <tile/>
   <tile/>
   <tile/>
   <tile/>
   <tile/>
   <tile/>
   <tile/>
   <tile/>
   <tile/>
   <tile/>
   <tile gid="1166"/>
   <tile gid="1167"/>
   <tile gid="1168"/>
   <tile gid="1169"/>
   <tile gid="1170"/>
   <tile/>
   <tile gid="1171"/>
   <tile gid="1172"/>
   <tile/>
   <tile/>
   <tile/>
   <tile/>
   <tile/>
   <tile/>
   <tile/>
   <tile/>
   <tile/>
   <tile/>
   <tile/>
   <tile/>
   <tile/>
   <tile/>
   <tile/>
   <tile/>
   <tile/>
   <tile/>
   <tile/>
   <tile/>
   <tile/>
   <tile/>
   <tile/>
   <tile/>
   <tile/>
   <tile/>
   <tile/>
   <tile/>
   <tile/>
   <tile/>
   <tile/>
   <tile/>
   <tile/>
   <tile/>
   <tile/>
   <tile/>
   <tile/>
   <tile/>
   <tile/>
   <tile/>
   <tile/>
   <tile gid="255"/>
   <tile gid="170"/>
   <tile gid="299"/>
   <tile gid="172"/>
   <tile gid="172"/>
   <tile gid="256"/>
   <tile gid="256"/>
   <tile gid="172"/>
   <tile gid="256"/>
   <tile gid="173"/>
   <tile gid="218"/>
   <tile/>
   <tile/>
   <tile/>
   <tile/>
   <tile/>
   <tile/>
   <tile/>
   <tile/>
   <tile/>
   <tile/>
   <tile/>
   <tile/>
   <tile/>
   <tile/>
   <tile/>
   <tile/>
   <tile/>
   <tile/>
   <tile/>
   <tile/>
   <tile/>
   <tile/>
   <tile/>
   <tile/>
   <tile/>
   <tile/>
   <tile/>
   <tile/>
   <tile/>
   <tile/>
   <tile/>
   <tile/>
   <tile/>
   <tile/>
   <tile/>
   <tile/>
   <tile/>
   <tile/>
   <tile/>
   <tile/>
   <tile/>
   <tile/>
   <tile/>
   <tile/>
   <tile/>
   <tile/>
   <tile/>
   <tile/>
   <tile/>
   <tile/>
   <tile/>
   <tile/>
   <tile/>
   <tile/>
   <tile/>
   <tile/>
   <tile/>
   <tile/>
   <tile/>
   <tile/>
   <tile/>
   <tile/>
   <tile/>
   <tile/>
   <tile gid="255"/>
   <tile gid="256"/>
   <tile gid="171"/>
   <tile gid="170"/>
   <tile gid="217"/>
   <tile gid="213"/>
   <tile gid="172"/>
   <tile gid="172"/>
   <tile gid="213"/>
   <tile gid="173"/>
   <tile gid="175"/>
   <tile/>
   <tile/>
   <tile/>
   <tile/>
   <tile/>
   <tile/>
   <tile/>
   <tile/>
   <tile/>
   <tile/>
   <tile/>
   <tile/>
   <tile/>
   <tile/>
   <tile/>
   <tile/>
   <tile/>
   <tile/>
   <tile/>
   <tile/>
   <tile/>
   <tile/>
   <tile/>
   <tile/>
   <tile/>
   <tile/>
   <tile/>
   <tile/>
   <tile/>
   <tile/>
   <tile/>
   <tile/>
   <tile/>
   <tile/>
   <tile/>
   <tile/>
   <tile/>
   <tile/>
   <tile/>
   <tile/>
   <tile/>
   <tile/>
   <tile/>
   <tile/>
   <tile/>
   <tile/>
   <tile/>
   <tile/>
   <tile/>
   <tile/>
   <tile/>
   <tile/>
   <tile/>
   <tile/>
   <tile/>
   <tile/>
   <tile/>
   <tile/>
   <tile/>
   <tile/>
   <tile/>
   <tile/>
   <tile/>
   <tile/>
   <tile gid="255"/>
   <tile gid="213"/>
   <tile gid="173"/>
   <tile gid="171"/>
   <tile gid="303"/>
   <tile gid="213"/>
   <tile gid="173"/>
   <tile gid="260"/>
   <tile gid="170"/>
   <tile gid="213"/>
   <tile gid="175"/>
   <tile/>
   <tile/>
   <tile/>
   <tile/>
   <tile/>
   <tile/>
   <tile/>
   <tile/>
   <tile/>
   <tile/>
   <tile/>
   <tile/>
   <tile/>
   <tile/>
   <tile/>
   <tile/>
   <tile/>
   <tile/>
   <tile/>
   <tile/>
   <tile/>
   <tile/>
   <tile/>
   <tile/>
   <tile/>
   <tile/>
   <tile/>
   <tile/>
   <tile/>
   <tile/>
   <tile/>
   <tile/>
   <tile/>
   <tile/>
   <tile/>
   <tile/>
   <tile/>
   <tile/>
   <tile/>
   <tile/>
   <tile/>
   <tile/>
   <tile/>
   <tile/>
   <tile/>
   <tile/>
   <tile/>
   <tile/>
   <tile/>
   <tile/>
   <tile/>
   <tile/>
   <tile/>
   <tile/>
   <tile/>
   <tile/>
   <tile/>
   <tile/>
   <tile/>
   <tile/>
   <tile/>
   <tile/>
   <tile/>
   <tile/>
   <tile gid="212"/>
   <tile gid="171"/>
   <tile gid="217"/>
   <tile gid="173"/>
   <tile gid="174"/>
   <tile gid="170"/>
   <tile gid="303"/>
   <tile gid="173"/>
   <tile gid="260"/>
   <tile gid="299"/>
   <tile gid="175"/>
   <tile/>
   <tile/>
   <tile/>
   <tile/>
   <tile/>
   <tile/>
   <tile/>
   <tile/>
   <tile/>
   <tile/>
   <tile/>
   <tile/>
   <tile/>
   <tile/>
   <tile/>
   <tile/>
   <tile/>
   <tile/>
   <tile/>
   <tile/>
   <tile/>
   <tile/>
   <tile/>
   <tile/>
   <tile/>
   <tile/>
   <tile/>
   <tile/>
   <tile/>
   <tile/>
   <tile/>
   <tile/>
   <tile/>
   <tile/>
   <tile/>
   <tile/>
   <tile/>
   <tile/>
   <tile/>
   <tile/>
   <tile/>
   <tile/>
   <tile/>
   <tile/>
   <tile/>
   <tile/>
   <tile/>
   <tile/>
   <tile/>
   <tile/>
   <tile/>
   <tile/>
   <tile/>
   <tile/>
   <tile/>
   <tile/>
   <tile/>
   <tile/>
   <tile/>
   <tile/>
   <tile/>
   <tile/>
   <tile/>
   <tile/>
   <tile gid="255"/>
   <tile gid="260"/>
   <tile gid="172"/>
   <tile gid="217"/>
   <tile gid="260"/>
   <tile gid="256"/>
   <tile gid="172"/>
   <tile gid="171"/>
   <tile gid="299"/>
   <tile gid="299"/>
   <tile gid="175"/>
   <tile/>
   <tile/>
   <tile/>
   <tile/>
   <tile/>
   <tile/>
   <tile/>
   <tile/>
   <tile/>
   <tile/>
   <tile/>
   <tile/>
   <tile/>
   <tile/>
   <tile/>
   <tile/>
   <tile/>
   <tile/>
   <tile/>
   <tile/>
   <tile/>
   <tile/>
   <tile/>
   <tile/>
   <tile/>
   <tile/>
   <tile/>
   <tile/>
   <tile/>
   <tile/>
   <tile/>
   <tile/>
   <tile/>
   <tile/>
   <tile/>
   <tile/>
   <tile/>
   <tile/>
   <tile/>
   <tile/>
   <tile/>
   <tile/>
   <tile/>
   <tile/>
   <tile/>
   <tile/>
   <tile/>
   <tile/>
   <tile/>
   <tile/>
   <tile/>
   <tile/>
   <tile/>
   <tile/>
   <tile/>
   <tile/>
   <tile/>
   <tile/>
   <tile/>
   <tile/>
   <tile/>
   <tile/>
   <tile/>
   <tile/>
   <tile gid="255"/>
   <tile gid="256"/>
   <tile gid="174"/>
   <tile gid="172"/>
   <tile gid="171"/>
   <tile gid="260"/>
   <tile gid="303"/>
   <tile gid="303"/>
   <tile gid="174"/>
   <tile gid="172"/>
   <tile gid="175"/>
   <tile/>
   <tile/>
   <tile/>
   <tile/>
   <tile/>
   <tile/>
   <tile/>
   <tile/>
   <tile/>
   <tile/>
   <tile/>
   <tile/>
   <tile/>
   <tile/>
   <tile/>
   <tile/>
   <tile/>
   <tile/>
   <tile/>
   <tile/>
   <tile/>
   <tile/>
   <tile/>
   <tile/>
   <tile/>
   <tile/>
   <tile/>
   <tile/>
   <tile/>
   <tile/>
   <tile/>
   <tile/>
   <tile/>
   <tile/>
   <tile/>
   <tile/>
   <tile/>
   <tile/>
   <tile/>
   <tile/>
   <tile/>
   <tile/>
   <tile/>
   <tile/>
   <tile/>
   <tile/>
   <tile/>
   <tile/>
   <tile/>
   <tile/>
   <tile/>
   <tile/>
   <tile/>
   <tile/>
   <tile/>
   <tile/>
   <tile/>
   <tile/>
   <tile/>
   <tile/>
   <tile/>
   <tile/>
   <tile/>
   <tile/>
   <tile gid="255"/>
   <tile gid="171"/>
   <tile gid="303"/>
   <tile gid="213"/>
   <tile gid="303"/>
   <tile gid="217"/>
   <tile gid="172"/>
   <tile gid="174"/>
   <tile gid="299"/>
   <tile gid="170"/>
   <tile gid="175"/>
   <tile/>
   <tile/>
   <tile/>
   <tile/>
   <tile/>
   <tile/>
   <tile/>
   <tile/>
   <tile/>
   <tile/>
   <tile/>
   <tile/>
   <tile/>
   <tile/>
   <tile/>
   <tile/>
   <tile/>
   <tile/>
   <tile/>
   <tile/>
   <tile/>
   <tile/>
   <tile/>
   <tile/>
   <tile/>
   <tile/>
   <tile/>
   <tile/>
   <tile/>
   <tile/>
   <tile/>
   <tile/>
   <tile/>
   <tile/>
   <tile/>
   <tile/>
   <tile/>
   <tile/>
   <tile/>
   <tile/>
   <tile/>
   <tile/>
   <tile/>
   <tile/>
   <tile/>
   <tile/>
   <tile/>
   <tile/>
   <tile/>
   <tile/>
   <tile/>
   <tile/>
   <tile/>
   <tile/>
   <tile/>
   <tile/>
   <tile/>
   <tile/>
   <tile/>
   <tile/>
   <tile/>
   <tile/>
   <tile/>
   <tile/>
   <tile gid="255"/>
   <tile gid="171"/>
   <tile gid="172"/>
   <tile gid="217"/>
   <tile gid="174"/>
   <tile gid="170"/>
   <tile gid="172"/>
   <tile gid="171"/>
   <tile gid="256"/>
   <tile gid="213"/>
   <tile gid="218"/>
   <tile/>
   <tile/>
   <tile/>
   <tile/>
   <tile/>
   <tile/>
   <tile/>
   <tile/>
   <tile/>
   <tile/>
   <tile/>
   <tile/>
   <tile/>
   <tile/>
   <tile/>
   <tile/>
   <tile/>
   <tile/>
   <tile/>
   <tile/>
   <tile/>
   <tile/>
   <tile/>
   <tile/>
   <tile/>
   <tile/>
   <tile/>
   <tile/>
   <tile/>
   <tile/>
   <tile/>
   <tile/>
   <tile/>
   <tile/>
   <tile/>
   <tile/>
   <tile/>
   <tile/>
   <tile/>
   <tile/>
   <tile/>
   <tile/>
   <tile/>
   <tile/>
   <tile/>
   <tile/>
   <tile/>
   <tile/>
   <tile/>
   <tile/>
   <tile/>
   <tile/>
   <tile/>
   <tile/>
   <tile/>
   <tile/>
   <tile/>
   <tile/>
   <tile/>
   <tile/>
   <tile/>
   <tile/>
   <tile/>
   <tile/>
   <tile gid="169"/>
   <tile gid="173"/>
   <tile gid="170"/>
   <tile gid="256"/>
   <tile gid="173"/>
   <tile gid="299"/>
   <tile gid="172"/>
   <tile gid="303"/>
   <tile gid="174"/>
   <tile gid="173"/>
   <tile gid="175"/>
   <tile/>
   <tile/>
   <tile/>
   <tile/>
   <tile/>
   <tile/>
   <tile/>
   <tile/>
   <tile/>
   <tile/>
   <tile/>
   <tile/>
   <tile/>
   <tile/>
   <tile/>
   <tile/>
   <tile/>
   <tile/>
   <tile/>
   <tile/>
   <tile/>
   <tile/>
   <tile/>
   <tile/>
   <tile/>
   <tile/>
   <tile/>
   <tile/>
   <tile/>
   <tile/>
   <tile/>
   <tile/>
   <tile/>
   <tile/>
   <tile/>
   <tile/>
   <tile/>
   <tile/>
   <tile/>
   <tile/>
   <tile/>
   <tile/>
   <tile/>
   <tile/>
   <tile/>
   <tile/>
   <tile/>
   <tile/>
   <tile/>
   <tile/>
   <tile/>
   <tile/>
   <tile/>
   <tile/>
   <tile/>
   <tile/>
   <tile/>
   <tile/>
   <tile/>
   <tile/>
   <tile/>
   <tile/>
   <tile/>
   <tile/>
   <tile gid="255"/>
   <tile gid="170"/>
   <tile gid="170"/>
   <tile gid="256"/>
   <tile gid="213"/>
   <tile gid="170"/>
   <tile gid="170"/>
   <tile gid="170"/>
   <tile gid="172"/>
   <tile gid="303"/>
   <tile gid="261"/>
   <tile/>
   <tile/>
   <tile/>
   <tile/>
   <tile/>
   <tile/>
   <tile/>
   <tile/>
   <tile/>
   <tile/>
   <tile/>
   <tile/>
   <tile/>
   <tile/>
   <tile/>
   <tile/>
   <tile/>
   <tile/>
   <tile/>
   <tile/>
   <tile/>
   <tile/>
   <tile/>
   <tile/>
   <tile/>
   <tile/>
   <tile/>
   <tile/>
   <tile/>
   <tile/>
   <tile/>
   <tile/>
   <tile/>
   <tile/>
   <tile/>
   <tile/>
   <tile/>
   <tile/>
   <tile/>
   <tile/>
   <tile/>
   <tile/>
   <tile/>
   <tile/>
   <tile/>
   <tile/>
   <tile/>
   <tile/>
   <tile/>
   <tile/>
   <tile/>
   <tile/>
   <tile/>
   <tile/>
   <tile/>
   <tile/>
   <tile/>
   <tile/>
   <tile/>
   <tile/>
   <tile/>
   <tile/>
   <tile/>
   <tile/>
   <tile gid="169"/>
   <tile gid="171"/>
   <tile gid="260"/>
   <tile gid="173"/>
   <tile gid="171"/>
   <tile gid="172"/>
   <tile gid="173"/>
   <tile gid="174"/>
   <tile gid="174"/>
   <tile gid="171"/>
   <tile gid="175"/>
   <tile/>
   <tile/>
   <tile/>
   <tile/>
   <tile/>
   <tile/>
   <tile/>
   <tile/>
   <tile/>
   <tile/>
   <tile/>
   <tile/>
   <tile/>
   <tile/>
   <tile/>
   <tile/>
   <tile/>
   <tile/>
   <tile/>
   <tile/>
   <tile/>
   <tile/>
   <tile/>
   <tile/>
   <tile/>
   <tile/>
   <tile/>
   <tile/>
   <tile/>
   <tile/>
   <tile/>
   <tile/>
   <tile/>
   <tile/>
   <tile/>
   <tile/>
   <tile/>
   <tile/>
   <tile/>
   <tile/>
   <tile/>
   <tile/>
   <tile/>
   <tile/>
   <tile/>
   <tile/>
   <tile/>
   <tile/>
   <tile/>
   <tile/>
   <tile/>
   <tile/>
   <tile/>
   <tile/>
   <tile/>
   <tile/>
   <tile/>
   <tile/>
   <tile/>
   <tile/>
   <tile/>
   <tile/>
   <tile/>
   <tile/>
   <tile gid="212"/>
   <tile gid="170"/>
   <tile gid="172"/>
   <tile gid="299"/>
   <tile gid="214"/>
   <tile gid="215"/>
   <tile gid="216"/>
   <tile gid="172"/>
   <tile gid="217"/>
   <tile gid="170"/>
   <tile gid="218"/>
   <tile/>
   <tile/>
   <tile/>
   <tile/>
   <tile/>
   <tile/>
   <tile/>
   <tile/>
   <tile/>
   <tile/>
   <tile/>
   <tile/>
   <tile/>
   <tile/>
   <tile/>
   <tile/>
   <tile/>
   <tile/>
   <tile/>
   <tile/>
   <tile/>
   <tile/>
   <tile/>
   <tile/>
   <tile/>
   <tile/>
   <tile/>
   <tile/>
   <tile/>
   <tile/>
   <tile/>
   <tile/>
   <tile/>
   <tile/>
   <tile/>
   <tile/>
   <tile/>
   <tile/>
   <tile/>
   <tile/>
   <tile/>
   <tile/>
   <tile/>
   <tile/>
   <tile/>
   <tile/>
   <tile/>
   <tile/>
   <tile/>
   <tile/>
   <tile/>
   <tile/>
   <tile/>
   <tile/>
   <tile/>
   <tile/>
   <tile/>
   <tile/>
   <tile/>
   <tile/>
   <tile/>
   <tile/>
   <tile/>
   <tile/>
   <tile gid="255"/>
   <tile gid="172"/>
   <tile gid="173"/>
   <tile gid="256"/>
   <tile gid="257"/>
   <tile gid="258"/>
   <tile gid="259"/>
   <tile gid="171"/>
   <tile gid="217"/>
   <tile gid="256"/>
   <tile gid="261"/>
   <tile/>
   <tile/>
   <tile/>
   <tile/>
   <tile/>
   <tile/>
   <tile/>
   <tile/>
   <tile/>
   <tile/>
   <tile/>
   <tile/>
   <tile/>
   <tile/>
   <tile/>
   <tile/>
   <tile/>
   <tile/>
   <tile/>
   <tile/>
   <tile/>
   <tile/>
   <tile/>
   <tile/>
   <tile/>
   <tile/>
   <tile/>
   <tile/>
   <tile/>
   <tile/>
   <tile/>
   <tile/>
   <tile/>
   <tile/>
   <tile/>
   <tile/>
   <tile/>
   <tile/>
   <tile/>
   <tile/>
   <tile/>
   <tile/>
   <tile/>
   <tile/>
   <tile/>
   <tile/>
   <tile/>
   <tile/>
   <tile/>
   <tile/>
   <tile/>
   <tile/>
   <tile/>
   <tile/>
   <tile/>
   <tile/>
   <tile/>
   <tile/>
   <tile/>
   <tile/>
   <tile/>
   <tile/>
   <tile/>
   <tile/>
   <tile gid="298"/>
   <tile gid="173"/>
   <tile gid="217"/>
   <tile gid="217"/>
   <tile gid="300"/>
   <tile gid="301"/>
   <tile gid="302"/>
   <tile gid="256"/>
   <tile gid="171"/>
   <tile gid="303"/>
   <tile gid="304"/>
   <tile/>
   <tile/>
   <tile/>
   <tile/>
   <tile/>
   <tile/>
   <tile/>
   <tile/>
   <tile/>
   <tile/>
   <tile/>
   <tile/>
   <tile/>
   <tile/>
   <tile/>
   <tile/>
   <tile/>
   <tile/>
   <tile/>
   <tile/>
   <tile/>
   <tile/>
   <tile/>
   <tile/>
   <tile/>
   <tile/>
   <tile/>
   <tile/>
   <tile/>
   <tile/>
   <tile/>
   <tile/>
   <tile/>
   <tile/>
   <tile/>
   <tile/>
   <tile/>
   <tile/>
   <tile/>
   <tile/>
   <tile/>
   <tile/>
   <tile/>
   <tile/>
   <tile/>
   <tile/>
   <tile/>
   <tile/>
   <tile/>
   <tile/>
   <tile/>
   <tile/>
   <tile/>
   <tile/>
   <tile/>
   <tile/>
   <tile/>
   <tile/>
   <tile/>
   <tile/>
   <tile/>
   <tile/>
   <tile/>
   <tile/>
   <tile gid="341"/>
   <tile gid="342"/>
   <tile gid="342"/>
   <tile gid="342"/>
   <tile gid="343"/>
   <tile gid="344"/>
   <tile gid="345"/>
   <tile gid="346"/>
   <tile gid="346"/>
   <tile gid="346"/>
   <tile gid="347"/>
   <tile/>
   <tile/>
   <tile/>
   <tile/>
   <tile/>
   <tile/>
   <tile/>
   <tile/>
   <tile/>
   <tile/>
   <tile/>
   <tile/>
   <tile/>
   <tile/>
   <tile/>
   <tile/>
   <tile/>
   <tile/>
   <tile/>
   <tile/>
   <tile/>
   <tile/>
   <tile/>
   <tile/>
   <tile/>
   <tile/>
   <tile/>
   <tile/>
   <tile/>
   <tile/>
   <tile/>
   <tile/>
   <tile/>
   <tile/>
   <tile/>
   <tile/>
   <tile/>
   <tile/>
   <tile/>
   <tile/>
   <tile/>
   <tile/>
   <tile/>
   <tile/>
   <tile/>
   <tile/>
   <tile/>
   <tile/>
   <tile/>
   <tile/>
   <tile/>
   <tile/>
   <tile/>
   <tile/>
   <tile/>
   <tile/>
   <tile/>
   <tile/>
   <tile/>
   <tile/>
   <tile/>
   <tile/>
   <tile/>
   <tile/>
   <tile/>
   <tile/>
   <tile/>
   <tile/>
   <tile/>
   <tile/>
   <tile/>
   <tile/>
   <tile/>
   <tile/>
   <tile/>
   <tile/>
   <tile/>
   <tile/>
   <tile/>
   <tile/>
   <tile/>
   <tile/>
   <tile/>
   <tile/>
   <tile/>
   <tile/>
   <tile/>
   <tile/>
   <tile/>
   <tile/>
   <tile/>
   <tile/>
   <tile/>
   <tile/>
   <tile/>
   <tile/>
   <tile/>
   <tile/>
   <tile/>
   <tile/>
   <tile/>
   <tile/>
   <tile/>
   <tile/>
   <tile/>
   <tile/>
   <tile/>
   <tile/>
   <tile/>
   <tile/>
   <tile/>
   <tile/>
   <tile/>
   <tile/>
   <tile/>
   <tile/>
   <tile/>
   <tile/>
   <tile/>
   <tile/>
   <tile/>
   <tile/>
   <tile/>
   <tile/>
   <tile/>
   <tile/>
   <tile/>
   <tile/>
   <tile/>
   <tile/>
   <tile/>
   <tile/>
   <tile/>
   <tile/>
   <tile/>
   <tile/>
   <tile/>
   <tile/>
   <tile/>
   <tile/>
   <tile/>
   <tile/>
   <tile/>
   <tile/>
   <tile/>
   <tile/>
   <tile/>
   <tile/>
   <tile/>
   <tile/>
   <tile/>
   <tile/>
   <tile/>
   <tile/>
   <tile/>
   <tile/>
   <tile/>
   <tile/>
   <tile/>
   <tile/>
   <tile/>
   <tile/>
   <tile/>
   <tile/>
   <tile/>
   <tile/>
   <tile/>
   <tile/>
   <tile/>
   <tile/>
   <tile/>
   <tile/>
   <tile/>
   <tile/>
   <tile/>
   <tile/>
   <tile/>
   <tile/>
   <tile/>
   <tile/>
   <tile/>
   <tile/>
   <tile/>
   <tile/>
   <tile/>
   <tile/>
   <tile/>
   <tile/>
   <tile/>
   <tile/>
   <tile/>
   <tile/>
   <tile/>
   <tile/>
   <tile/>
   <tile/>
   <tile/>
   <tile/>
   <tile/>
   <tile/>
   <tile/>
   <tile/>
   <tile/>
   <tile/>
   <tile/>
   <tile/>
   <tile/>
   <tile/>
   <tile/>
   <tile/>
   <tile/>
   <tile/>
   <tile/>
   <tile/>
   <tile/>
   <tile/>
   <tile/>
   <tile/>
   <tile/>
   <tile/>
   <tile/>
   <tile/>
   <tile/>
   <tile/>
   <tile/>
   <tile/>
   <tile/>
   <tile/>
   <tile/>
   <tile/>
   <tile/>
   <tile/>
   <tile/>
   <tile/>
   <tile/>
   <tile/>
   <tile/>
   <tile/>
   <tile/>
   <tile/>
   <tile/>
   <tile/>
   <tile/>
   <tile/>
   <tile/>
   <tile/>
   <tile/>
   <tile/>
   <tile/>
   <tile/>
   <tile/>
   <tile/>
   <tile/>
   <tile/>
   <tile/>
   <tile/>
   <tile/>
   <tile/>
   <tile/>
   <tile/>
   <tile/>
   <tile/>
   <tile/>
   <tile/>
   <tile/>
   <tile/>
   <tile/>
   <tile/>
   <tile/>
   <tile/>
   <tile/>
   <tile/>
   <tile/>
   <tile/>
   <tile/>
   <tile/>
   <tile/>
   <tile/>
   <tile/>
   <tile/>
   <tile/>
   <tile/>
   <tile/>
   <tile/>
   <tile/>
   <tile/>
   <tile/>
   <tile/>
   <tile/>
   <tile/>
   <tile/>
   <tile/>
   <tile/>
   <tile/>
   <tile/>
   <tile/>
   <tile/>
   <tile/>
   <tile/>
   <tile/>
   <tile/>
   <tile/>
   <tile/>
   <tile/>
   <tile/>
   <tile/>
   <tile/>
   <tile/>
   <tile/>
   <tile/>
   <tile/>
   <tile/>
   <tile/>
   <tile/>
   <tile/>
   <tile/>
   <tile/>
   <tile/>
   <tile/>
   <tile/>
   <tile/>
   <tile/>
   <tile/>
   <tile/>
   <tile/>
   <tile/>
   <tile/>
   <tile/>
   <tile/>
   <tile/>
   <tile/>
   <tile/>
   <tile/>
   <tile/>
   <tile/>
   <tile/>
   <tile/>
   <tile/>
   <tile/>
   <tile/>
   <tile/>
   <tile/>
   <tile/>
   <tile/>
   <tile/>
   <tile/>
   <tile/>
   <tile/>
   <tile/>
   <tile/>
   <tile/>
   <tile/>
   <tile/>
   <tile/>
   <tile/>
   <tile/>
   <tile/>
   <tile/>
   <tile/>
   <tile/>
   <tile/>
   <tile/>
   <tile/>
   <tile/>
   <tile/>
   <tile/>
   <tile/>
   <tile/>
   <tile/>
   <tile/>
   <tile/>
   <tile/>
   <tile/>
   <tile/>
   <tile/>
   <tile/>
   <tile/>
   <tile/>
   <tile/>
   <tile/>
   <tile/>
   <tile/>
   <tile/>
   <tile/>
   <tile/>
   <tile/>
   <tile/>
   <tile/>
   <tile/>
   <tile/>
   <tile/>
   <tile/>
   <tile/>
   <tile/>
   <tile/>
   <tile/>
   <tile/>
   <tile/>
   <tile/>
   <tile/>
   <tile/>
   <tile/>
   <tile/>
   <tile/>
   <tile/>
   <tile/>
   <tile/>
   <tile/>
   <tile/>
   <tile/>
   <tile/>
   <tile/>
   <tile/>
   <tile/>
   <tile/>
   <tile/>
   <tile/>
   <tile/>
   <tile/>
   <tile/>
   <tile/>
   <tile/>
   <tile/>
   <tile/>
   <tile/>
   <tile/>
   <tile/>
   <tile/>
   <tile/>
   <tile/>
   <tile/>
   <tile/>
   <tile/>
   <tile/>
   <tile/>
   <tile/>
   <tile/>
   <tile/>
   <tile/>
   <tile/>
   <tile/>
   <tile/>
   <tile/>
   <tile/>
   <tile/>
   <tile/>
   <tile/>
   <tile/>
   <tile/>
   <tile/>
   <tile/>
   <tile/>
   <tile/>
   <tile/>
   <tile/>
   <tile/>
   <tile/>
   <tile/>
   <tile/>
   <tile/>
   <tile/>
   <tile/>
   <tile/>
   <tile/>
   <tile/>
   <tile/>
   <tile/>
   <tile/>
   <tile/>
   <tile/>
   <tile/>
   <tile/>
   <tile/>
   <tile/>
   <tile/>
   <tile/>
   <tile/>
   <tile/>
   <tile/>
   <tile/>
   <tile/>
   <tile/>
   <tile/>
   <tile/>
   <tile/>
   <tile/>
   <tile/>
   <tile/>
   <tile/>
   <tile/>
   <tile/>
   <tile/>
   <tile/>
   <tile/>
   <tile/>
   <tile/>
   <tile/>
   <tile/>
   <tile/>
   <tile/>
   <tile/>
   <tile/>
   <tile/>
   <tile/>
   <tile/>
   <tile/>
   <tile/>
   <tile/>
   <tile/>
   <tile/>
   <tile/>
   <tile/>
   <tile/>
   <tile/>
   <tile/>
   <tile/>
   <tile/>
   <tile/>
   <tile/>
   <tile/>
   <tile/>
   <tile/>
   <tile/>
   <tile/>
   <tile/>
   <tile/>
   <tile/>
   <tile/>
   <tile/>
   <tile/>
   <tile/>
   <tile/>
   <tile/>
   <tile/>
   <tile/>
   <tile/>
   <tile/>
   <tile/>
   <tile/>
   <tile/>
   <tile/>
   <tile/>
   <tile/>
   <tile/>
   <tile/>
   <tile/>
   <tile/>
   <tile/>
   <tile/>
   <tile/>
   <tile/>
   <tile/>
   <tile/>
   <tile/>
   <tile/>
   <tile/>
   <tile/>
   <tile/>
   <tile/>
   <tile/>
   <tile/>
   <tile/>
   <tile/>
   <tile/>
   <tile/>
   <tile/>
   <tile/>
   <tile/>
   <tile/>
   <tile/>
   <tile/>
   <tile/>
   <tile/>
   <tile/>
   <tile/>
   <tile/>
   <tile/>
   <tile/>
   <tile/>
   <tile/>
   <tile/>
   <tile/>
   <tile/>
   <tile/>
   <tile/>
   <tile/>
   <tile/>
   <tile/>
   <tile/>
   <tile/>
   <tile/>
   <tile/>
   <tile/>
   <tile/>
   <tile/>
   <tile/>
   <tile/>
   <tile/>
   <tile/>
   <tile/>
   <tile/>
   <tile/>
   <tile/>
   <tile/>
   <tile/>
   <tile/>
   <tile/>
   <tile/>
   <tile/>
   <tile/>
   <tile/>
   <tile/>
   <tile/>
   <tile/>
   <tile/>
   <tile/>
   <tile/>
   <tile/>
   <tile/>
   <tile/>
   <tile/>
   <tile/>
   <tile/>
   <tile/>
   <tile/>
   <tile/>
   <tile/>
   <tile/>
   <tile/>
   <tile/>
   <tile/>
   <tile/>
   <tile/>
   <tile/>
   <tile/>
   <tile/>
   <tile/>
   <tile/>
   <tile/>
   <tile/>
   <tile/>
   <tile/>
   <tile/>
   <tile/>
   <tile/>
   <tile/>
   <tile/>
   <tile/>
   <tile/>
   <tile/>
   <tile/>
   <tile/>
   <tile/>
   <tile/>
   <tile/>
   <tile/>
   <tile/>
   <tile/>
   <tile/>
   <tile/>
   <tile/>
   <tile/>
   <tile/>
   <tile/>
   <tile/>
   <tile/>
   <tile/>
   <tile/>
   <tile/>
   <tile/>
   <tile/>
   <tile/>
   <tile/>
   <tile/>
   <tile/>
   <tile/>
   <tile/>
   <tile/>
   <tile/>
   <tile/>
   <tile/>
   <tile/>
   <tile/>
   <tile/>
   <tile/>
   <tile/>
   <tile/>
   <tile/>
   <tile/>
   <tile/>
   <tile/>
   <tile/>
   <tile/>
   <tile/>
   <tile/>
   <tile/>
   <tile/>
   <tile/>
   <tile/>
   <tile/>
   <tile/>
   <tile/>
   <tile/>
   <tile/>
   <tile/>
   <tile/>
   <tile/>
   <tile/>
   <tile/>
   <tile/>
   <tile/>
   <tile/>
   <tile/>
   <tile/>
   <tile/>
   <tile/>
   <tile/>
   <tile/>
   <tile/>
   <tile/>
   <tile/>
   <tile/>
   <tile/>
   <tile/>
   <tile/>
   <tile/>
   <tile/>
   <tile/>
   <tile/>
   <tile/>
   <tile/>
   <tile/>
   <tile/>
   <tile/>
   <tile/>
   <tile/>
   <tile/>
   <tile/>
   <tile/>
   <tile/>
   <tile/>
   <tile/>
   <tile/>
   <tile/>
   <tile/>
   <tile/>
   <tile/>
   <tile/>
   <tile/>
   <tile/>
   <tile/>
   <tile/>
   <tile/>
   <tile/>
   <tile/>
   <tile/>
   <tile/>
   <tile/>
   <tile/>
   <tile/>
   <tile/>
   <tile/>
   <tile/>
   <tile/>
   <tile/>
   <tile/>
   <tile/>
   <tile/>
   <tile/>
   <tile/>
   <tile/>
   <tile/>
   <tile/>
   <tile/>
   <tile/>
   <tile/>
   <tile/>
   <tile/>
   <tile/>
   <tile/>
   <tile/>
   <tile/>
   <tile/>
   <tile/>
   <tile/>
   <tile/>
   <tile/>
   <tile/>
   <tile/>
   <tile/>
   <tile/>
   <tile/>
   <tile/>
   <tile/>
   <tile/>
   <tile/>
   <tile/>
   <tile/>
   <tile/>
   <tile/>
   <tile/>
   <tile/>
   <tile/>
   <tile/>
   <tile/>
   <tile/>
   <tile/>
   <tile/>
   <tile/>
   <tile/>
   <tile/>
   <tile/>
   <tile/>
   <tile/>
   <tile/>
   <tile/>
   <tile/>
   <tile/>
   <tile/>
   <tile/>
   <tile/>
   <tile/>
   <tile/>
   <tile/>
   <tile/>
   <tile/>
   <tile/>
   <tile/>
   <tile/>
   <tile/>
   <tile/>
   <tile/>
   <tile/>
   <tile/>
   <tile/>
   <tile/>
   <tile/>
   <tile/>
   <tile/>
   <tile/>
   <tile/>
   <tile/>
   <tile/>
   <tile/>
   <tile/>
   <tile/>
   <tile/>
   <tile/>
   <tile/>
   <tile/>
   <tile/>
   <tile/>
   <tile/>
   <tile/>
   <tile/>
   <tile/>
   <tile/>
   <tile/>
   <tile/>
   <tile/>
   <tile/>
   <tile/>
   <tile/>
   <tile/>
   <tile/>
   <tile/>
   <tile/>
   <tile/>
   <tile/>
   <tile/>
   <tile/>
   <tile/>
   <tile/>
   <tile/>
   <tile/>
   <tile/>
   <tile/>
   <tile/>
   <tile/>
   <tile/>
   <tile/>
   <tile/>
   <tile/>
   <tile/>
   <tile/>
   <tile/>
   <tile/>
   <tile/>
   <tile/>
   <tile/>
   <tile/>
   <tile/>
   <tile/>
   <tile/>
   <tile/>
   <tile/>
   <tile/>
   <tile/>
   <tile/>
   <tile/>
   <tile/>
   <tile/>
   <tile/>
   <tile/>
   <tile/>
   <tile/>
   <tile/>
   <tile/>
   <tile/>
   <tile/>
   <tile/>
   <tile/>
   <tile/>
   <tile/>
   <tile/>
   <tile/>
   <tile/>
   <tile/>
   <tile/>
   <tile/>
   <tile/>
   <tile/>
   <tile/>
   <tile/>
   <tile/>
   <tile/>
   <tile/>
   <tile/>
   <tile/>
   <tile/>
   <tile/>
   <tile/>
   <tile/>
   <tile/>
   <tile/>
   <tile/>
   <tile/>
   <tile/>
   <tile/>
   <tile/>
   <tile/>
   <tile/>
   <tile/>
   <tile/>
   <tile/>
   <tile/>
   <tile/>
   <tile/>
   <tile/>
   <tile/>
   <tile/>
   <tile/>
   <tile/>
   <tile/>
   <tile/>
   <tile/>
   <tile/>
   <tile/>
   <tile/>
   <tile/>
   <tile/>
   <tile/>
   <tile/>
   <tile/>
   <tile/>
   <tile/>
   <tile/>
   <tile/>
   <tile/>
   <tile/>
   <tile/>
   <tile/>
   <tile/>
   <tile/>
   <tile/>
   <tile/>
   <tile/>
   <tile/>
   <tile/>
   <tile/>
   <tile/>
   <tile/>
   <tile/>
   <tile/>
   <tile/>
   <tile/>
   <tile/>
   <tile/>
   <tile/>
   <tile/>
   <tile/>
   <tile/>
   <tile/>
   <tile/>
   <tile/>
   <tile/>
   <tile/>
   <tile/>
   <tile/>
   <tile/>
   <tile/>
   <tile/>
   <tile/>
   <tile/>
   <tile/>
   <tile/>
   <tile/>
   <tile/>
   <tile/>
   <tile/>
   <tile/>
   <tile/>
   <tile/>
   <tile/>
   <tile/>
   <tile/>
   <tile/>
   <tile/>
   <tile/>
   <tile/>
   <tile/>
   <tile/>
   <tile/>
   <tile/>
   <tile/>
   <tile/>
   <tile/>
   <tile/>
   <tile/>
   <tile/>
   <tile/>
   <tile/>
   <tile/>
   <tile/>
   <tile/>
   <tile/>
   <tile/>
   <tile/>
   <tile/>
   <tile/>
   <tile/>
   <tile/>
   <tile/>
   <tile/>
   <tile/>
   <tile/>
   <tile/>
   <tile/>
   <tile/>
   <tile/>
   <tile/>
   <tile/>
   <tile/>
   <tile/>
   <tile/>
   <tile/>
   <tile/>
   <tile/>
   <tile/>
   <tile/>
   <tile/>
   <tile/>
   <tile/>
   <tile/>
   <tile/>
   <tile/>
   <tile/>
   <tile/>
   <tile/>
   <tile/>
   <tile/>
   <tile/>
   <tile/>
   <tile/>
   <tile/>
   <tile/>
   <tile/>
   <tile/>
   <tile/>
   <tile/>
   <tile/>
   <tile/>
   <tile/>
   <tile/>
   <tile/>
   <tile/>
   <tile/>
   <tile/>
   <tile/>
   <tile/>
   <tile/>
   <tile/>
   <tile/>
   <tile/>
   <tile/>
   <tile/>
   <tile/>
   <tile/>
   <tile/>
   <tile/>
   <tile/>
   <tile/>
   <tile/>
   <tile/>
   <tile/>
   <tile/>
   <tile/>
   <tile/>
   <tile/>
   <tile/>
   <tile/>
   <tile/>
   <tile/>
   <tile/>
   <tile/>
   <tile/>
   <tile/>
   <tile/>
   <tile/>
   <tile/>
   <tile/>
   <tile/>
   <tile/>
   <tile/>
   <tile/>
   <tile/>
   <tile/>
   <tile/>
   <tile/>
   <tile/>
   <tile/>
   <tile/>
   <tile/>
   <tile/>
   <tile/>
   <tile/>
   <tile/>
   <tile/>
   <tile/>
   <tile/>
   <tile/>
   <tile/>
   <tile/>
   <tile/>
   <tile/>
   <tile/>
   <tile/>
   <tile/>
   <tile/>
   <tile/>
   <tile/>
   <tile/>
   <tile/>
   <tile/>
   <tile/>
   <tile/>
   <tile/>
   <tile/>
   <tile/>
   <tile/>
   <tile/>
   <tile/>
   <tile/>
   <tile/>
   <tile/>
   <tile/>
   <tile/>
   <tile/>
   <tile/>
   <tile/>
   <tile/>
   <tile/>
   <tile/>
   <tile/>
   <tile/>
   <tile/>
   <tile/>
   <tile/>
   <tile/>
   <tile/>
   <tile/>
   <tile/>
   <tile/>
   <tile/>
   <tile/>
   <tile/>
   <tile/>
   <tile/>
   <tile/>
   <tile/>
   <tile/>
   <tile/>
   <tile/>
   <tile/>
   <tile/>
   <tile/>
   <tile/>
   <tile/>
   <tile/>
   <tile/>
   <tile/>
   <tile/>
   <tile/>
   <tile/>
   <tile/>
   <tile/>
   <tile/>
   <tile/>
   <tile/>
   <tile/>
   <tile/>
   <tile/>
   <tile/>
   <tile/>
   <tile/>
   <tile/>
   <tile/>
   <tile/>
   <tile/>
   <tile/>
   <tile/>
   <tile/>
   <tile/>
   <tile/>
   <tile/>
   <tile/>
   <tile/>
   <tile/>
   <tile/>
   <tile/>
   <tile/>
   <tile/>
   <tile/>
   <tile/>
   <tile/>
   <tile/>
   <tile/>
   <tile/>
   <tile/>
   <tile/>
   <tile/>
   <tile/>
   <tile/>
   <tile/>
   <tile/>
   <tile/>
   <tile/>
   <tile/>
   <tile/>
   <tile/>
   <tile/>
   <tile/>
   <tile/>
   <tile/>
   <tile/>
   <tile/>
   <tile/>
   <tile/>
   <tile/>
   <tile/>
   <tile/>
   <tile/>
   <tile/>
   <tile/>
   <tile/>
   <tile/>
   <tile/>
   <tile/>
   <tile/>
   <tile/>
   <tile/>
   <tile/>
   <tile/>
   <tile/>
   <tile/>
   <tile/>
   <tile/>
   <tile/>
   <tile/>
   <tile/>
   <tile/>
   <tile/>
   <tile/>
   <tile/>
   <tile/>
   <tile/>
   <tile/>
   <tile/>
   <tile/>
   <tile/>
   <tile/>
   <tile/>
   <tile/>
   <tile/>
   <tile/>
   <tile/>
   <tile/>
   <tile/>
   <tile/>
   <tile/>
   <tile/>
   <tile/>
   <tile/>
   <tile/>
   <tile/>
   <tile/>
   <tile/>
   <tile/>
   <tile/>
   <tile/>
   <tile/>
   <tile/>
   <tile/>
   <tile/>
   <tile/>
   <tile/>
   <tile/>
   <tile/>
   <tile/>
   <tile/>
   <tile/>
   <tile/>
   <tile/>
   <tile/>
   <tile/>
   <tile/>
   <tile/>
   <tile/>
   <tile/>
   <tile/>
   <tile/>
   <tile/>
   <tile/>
   <tile/>
   <tile/>
   <tile/>
   <tile/>
   <tile/>
   <tile/>
   <tile/>
   <tile/>
   <tile/>
   <tile/>
   <tile/>
   <tile/>
   <tile/>
   <tile/>
   <tile/>
   <tile/>
   <tile/>
   <tile/>
   <tile/>
   <tile/>
   <tile/>
   <tile/>
   <tile/>
   <tile/>
   <tile/>
   <tile/>
   <tile/>
   <tile/>
   <tile/>
   <tile/>
   <tile/>
   <tile/>
   <tile/>
   <tile/>
   <tile/>
   <tile/>
   <tile/>
   <tile/>
   <tile/>
   <tile/>
   <tile/>
   <tile/>
   <tile/>
   <tile/>
   <tile/>
   <tile/>
   <tile/>
   <tile/>
   <tile/>
   <tile/>
   <tile/>
   <tile/>
   <tile/>
   <tile/>
   <tile/>
   <tile/>
   <tile/>
   <tile/>
   <tile/>
   <tile/>
   <tile/>
   <tile/>
   <tile/>
   <tile/>
   <tile/>
   <tile/>
   <tile/>
   <tile/>
   <tile/>
   <tile/>
   <tile/>
   <tile/>
   <tile/>
   <tile/>
   <tile/>
   <tile/>
   <tile/>
   <tile/>
   <tile/>
   <tile/>
   <tile/>
   <tile/>
   <tile/>
   <tile/>
   <tile/>
   <tile/>
   <tile/>
   <tile/>
   <tile/>
   <tile/>
   <tile/>
   <tile/>
   <tile/>
   <tile/>
   <tile/>
   <tile/>
   <tile/>
   <tile/>
   <tile/>
   <tile/>
   <tile/>
   <tile/>
   <tile/>
   <tile/>
   <tile/>
   <tile/>
   <tile/>
   <tile/>
   <tile/>
   <tile/>
   <tile/>
   <tile/>
   <tile/>
   <tile/>
   <tile/>
   <tile/>
   <tile/>
   <tile/>
   <tile/>
   <tile/>
   <tile/>
   <tile/>
   <tile/>
   <tile/>
   <tile/>
   <tile/>
   <tile/>
   <tile/>
   <tile/>
   <tile/>
   <tile/>
   <tile/>
   <tile/>
   <tile/>
   <tile/>
   <tile/>
   <tile/>
   <tile/>
   <tile/>
   <tile/>
   <tile/>
   <tile/>
   <tile/>
   <tile/>
   <tile/>
   <tile/>
   <tile/>
   <tile/>
   <tile/>
   <tile/>
   <tile/>
   <tile/>
   <tile/>
   <tile/>
   <tile/>
   <tile/>
   <tile/>
   <tile/>
   <tile/>
   <tile/>
   <tile/>
   <tile/>
   <tile/>
   <tile/>
   <tile/>
   <tile/>
   <tile/>
   <tile/>
   <tile/>
   <tile/>
   <tile/>
   <tile/>
   <tile/>
   <tile/>
   <tile/>
   <tile/>
   <tile/>
   <tile/>
   <tile/>
   <tile/>
   <tile/>
   <tile/>
   <tile/>
   <tile/>
   <tile/>
   <tile/>
   <tile/>
   <tile/>
   <tile/>
   <tile/>
   <tile/>
   <tile/>
   <tile/>
   <tile/>
   <tile/>
   <tile/>
   <tile/>
   <tile/>
   <tile/>
   <tile/>
   <tile/>
   <tile/>
   <tile/>
   <tile/>
   <tile/>
   <tile/>
   <tile/>
   <tile/>
   <tile/>
   <tile/>
   <tile/>
   <tile/>
   <tile/>
   <tile/>
   <tile/>
   <tile/>
   <tile/>
   <tile/>
   <tile/>
   <tile/>
   <tile/>
   <tile/>
   <tile/>
   <tile/>
   <tile/>
   <tile/>
   <tile/>
   <tile/>
   <tile/>
   <tile/>
   <tile/>
   <tile/>
   <tile/>
   <tile/>
   <tile/>
   <tile/>
   <tile/>
   <tile/>
   <tile/>
   <tile/>
   <tile/>
   <tile/>
   <tile/>
   <tile/>
   <tile/>
   <tile/>
   <tile/>
   <tile/>
   <tile/>
   <tile/>
   <tile/>
   <tile/>
   <tile/>
   <tile/>
   <tile/>
   <tile/>
   <tile/>
   <tile/>
   <tile/>
   <tile/>
   <tile/>
   <tile/>
   <tile/>
   <tile/>
   <tile/>
   <tile/>
   <tile/>
   <tile/>
   <tile/>
   <tile/>
   <tile/>
   <tile/>
   <tile/>
   <tile/>
   <tile/>
   <tile/>
   <tile/>
   <tile/>
   <tile/>
   <tile/>
   <tile/>
   <tile/>
   <tile/>
   <tile/>
   <tile/>
   <tile/>
   <tile/>
   <tile/>
   <tile/>
   <tile/>
   <tile/>
   <tile/>
   <tile/>
   <tile/>
   <tile/>
   <tile/>
   <tile/>
   <tile/>
   <tile/>
   <tile/>
   <tile/>
   <tile/>
   <tile/>
   <tile/>
   <tile/>
   <tile/>
   <tile/>
   <tile/>
   <tile/>
   <tile/>
   <tile/>
   <tile/>
   <tile/>
   <tile/>
   <tile/>
   <tile/>
   <tile/>
   <tile/>
   <tile/>
   <tile/>
   <tile/>
   <tile/>
   <tile/>
   <tile/>
   <tile/>
   <tile/>
   <tile/>
   <tile/>
   <tile/>
   <tile/>
   <tile/>
   <tile/>
   <tile/>
   <tile/>
   <tile/>
   <tile/>
   <tile/>
   <tile/>
   <tile/>
   <tile/>
   <tile/>
   <tile/>
   <tile/>
   <tile/>
   <tile/>
   <tile gid="770"/>
   <tile gid="771"/>
   <tile gid="772"/>
   <tile gid="773"/>
   <tile gid="774"/>
   <tile gid="775"/>
   <tile/>
   <tile/>
   <tile/>
   <tile/>
   <tile gid="770"/>
   <tile gid="771"/>
   <tile gid="772"/>
   <tile gid="773"/>
   <tile gid="774"/>
   <tile gid="775"/>
   <tile/>
   <tile/>
   <tile/>
   <tile/>
   <tile/>
   <tile/>
   <tile/>
   <tile/>
   <tile/>
   <tile/>
   <tile/>
   <tile/>
   <tile/>
   <tile/>
   <tile/>
   <tile/>
   <tile/>
   <tile/>
   <tile/>
   <tile/>
   <tile/>
   <tile/>
   <tile/>
   <tile/>
   <tile/>
   <tile/>
   <tile/>
   <tile/>
   <tile/>
   <tile/>
   <tile/>
   <tile/>
   <tile/>
   <tile/>
   <tile/>
   <tile/>
   <tile/>
   <tile/>
   <tile/>
   <tile/>
   <tile/>
   <tile/>
   <tile/>
   <tile/>
   <tile/>
   <tile/>
   <tile/>
   <tile/>
   <tile/>
   <tile/>
   <tile/>
   <tile/>
   <tile/>
   <tile/>
   <tile/>
   <tile/>
   <tile/>
   <tile/>
   <tile/>
   <tile gid="813"/>
   <tile gid="814"/>
   <tile gid="815"/>
   <tile gid="816"/>
   <tile gid="817"/>
   <tile gid="818"/>
   <tile/>
   <tile/>
   <tile/>
   <tile/>
   <tile gid="813"/>
   <tile gid="814"/>
   <tile gid="815"/>
   <tile gid="816"/>
   <tile gid="817"/>
   <tile gid="818"/>
   <tile/>
   <tile/>
   <tile/>
   <tile/>
   <tile/>
   <tile/>
   <tile/>
   <tile/>
   <tile/>
   <tile/>
   <tile/>
   <tile/>
   <tile/>
   <tile/>
   <tile/>
   <tile/>
   <tile/>
   <tile/>
   <tile/>
   <tile/>
   <tile/>
   <tile/>
   <tile/>
   <tile/>
   <tile/>
   <tile/>
   <tile/>
   <tile/>
   <tile/>
   <tile/>
   <tile/>
   <tile/>
   <tile/>
   <tile/>
   <tile/>
   <tile/>
   <tile/>
   <tile/>
   <tile/>
   <tile/>
   <tile/>
   <tile/>
   <tile/>
   <tile/>
   <tile/>
   <tile/>
   <tile/>
   <tile/>
   <tile/>
   <tile/>
   <tile/>
   <tile/>
   <tile/>
   <tile/>
   <tile/>
   <tile/>
   <tile/>
   <tile/>
   <tile/>
   <tile gid="856"/>
   <tile gid="857"/>
   <tile gid="858"/>
   <tile gid="859"/>
   <tile gid="860"/>
   <tile gid="861"/>
   <tile/>
   <tile/>
   <tile/>
   <tile/>
   <tile gid="856"/>
   <tile gid="857"/>
   <tile gid="858"/>
   <tile gid="859"/>
   <tile gid="860"/>
   <tile gid="861"/>
   <tile/>
   <tile/>
   <tile/>
   <tile/>
   <tile/>
   <tile/>
   <tile/>
   <tile/>
   <tile/>
   <tile/>
   <tile/>
   <tile/>
   <tile/>
   <tile/>
   <tile/>
   <tile/>
   <tile/>
   <tile/>
   <tile/>
   <tile/>
   <tile/>
   <tile/>
   <tile/>
   <tile/>
   <tile/>
   <tile/>
   <tile/>
   <tile/>
   <tile/>
   <tile/>
   <tile/>
   <tile/>
   <tile/>
   <tile/>
   <tile/>
   <tile/>
   <tile/>
   <tile/>
   <tile/>
   <tile/>
   <tile/>
   <tile/>
   <tile/>
   <tile/>
   <tile/>
   <tile/>
   <tile/>
   <tile/>
   <tile/>
   <tile/>
   <tile/>
   <tile/>
   <tile/>
   <tile/>
   <tile/>
   <tile/>
   <tile/>
   <tile/>
   <tile/>
   <tile gid="899"/>
   <tile gid="900"/>
   <tile gid="901"/>
   <tile gid="902"/>
   <tile gid="903"/>
   <tile gid="904"/>
   <tile/>
   <tile/>
   <tile/>
   <tile/>
   <tile gid="899"/>
   <tile gid="900"/>
   <tile gid="901"/>
   <tile gid="902"/>
   <tile gid="903"/>
   <tile gid="904"/>
   <tile/>
   <tile/>
   <tile/>
   <tile/>
   <tile/>
   <tile/>
   <tile/>
   <tile/>
   <tile/>
   <tile/>
   <tile/>
   <tile/>
   <tile/>
   <tile/>
   <tile/>
   <tile/>
   <tile/>
   <tile/>
   <tile/>
   <tile/>
   <tile/>
   <tile/>
   <tile/>
   <tile/>
   <tile/>
   <tile/>
   <tile/>
   <tile/>
   <tile/>
   <tile/>
   <tile/>
   <tile/>
   <tile/>
   <tile/>
   <tile/>
   <tile/>
   <tile/>
   <tile/>
   <tile/>
   <tile/>
   <tile/>
   <tile/>
   <tile/>
   <tile/>
   <tile/>
   <tile/>
   <tile/>
   <tile/>
   <tile/>
   <tile/>
   <tile/>
   <tile/>
   <tile/>
   <tile/>
   <tile/>
   <tile/>
   <tile/>
   <tile/>
   <tile/>
   <tile gid="856"/>
   <tile gid="857"/>
   <tile gid="858"/>
   <tile gid="859"/>
   <tile gid="860"/>
   <tile gid="861"/>
   <tile/>
   <tile/>
   <tile/>
   <tile/>
   <tile gid="856"/>
   <tile gid="857"/>
   <tile gid="858"/>
   <tile gid="859"/>
   <tile gid="860"/>
   <tile gid="861"/>
   <tile/>
   <tile/>
   <tile/>
   <tile/>
   <tile/>
   <tile/>
   <tile/>
   <tile/>
   <tile/>
   <tile/>
   <tile/>
   <tile/>
   <tile/>
   <tile/>
   <tile/>
   <tile/>
   <tile/>
   <tile/>
   <tile/>
   <tile/>
   <tile/>
   <tile/>
   <tile/>
   <tile/>
   <tile/>
   <tile/>
   <tile/>
   <tile/>
   <tile/>
   <tile/>
   <tile/>
   <tile/>
   <tile/>
   <tile/>
   <tile/>
   <tile/>
   <tile/>
   <tile/>
   <tile/>
   <tile/>
   <tile/>
   <tile/>
   <tile/>
   <tile/>
   <tile/>
   <tile/>
   <tile/>
   <tile/>
   <tile/>
   <tile/>
   <tile/>
   <tile/>
   <tile/>
   <tile/>
   <tile/>
   <tile/>
   <tile/>
   <tile/>
   <tile/>
   <tile gid="899"/>
   <tile gid="900"/>
   <tile gid="901"/>
   <tile gid="902"/>
   <tile gid="903"/>
   <tile gid="904"/>
   <tile/>
   <tile/>
   <tile/>
   <tile/>
   <tile gid="899"/>
   <tile gid="900"/>
   <tile gid="901"/>
   <tile gid="902"/>
   <tile gid="903"/>
   <tile gid="904"/>
   <tile/>
   <tile/>
   <tile/>
   <tile/>
   <tile/>
   <tile/>
   <tile/>
   <tile/>
   <tile/>
   <tile/>
   <tile/>
   <tile/>
   <tile/>
   <tile/>
   <tile/>
   <tile/>
   <tile/>
   <tile/>
   <tile/>
   <tile/>
   <tile/>
   <tile/>
   <tile/>
   <tile/>
   <tile/>
   <tile/>
   <tile/>
   <tile/>
   <tile/>
   <tile/>
   <tile/>
   <tile/>
   <tile/>
   <tile/>
   <tile/>
   <tile/>
   <tile/>
   <tile/>
   <tile/>
   <tile/>
   <tile/>
   <tile/>
   <tile/>
   <tile/>
   <tile/>
   <tile/>
   <tile/>
   <tile/>
   <tile/>
   <tile/>
   <tile/>
   <tile/>
   <tile/>
   <tile/>
   <tile/>
   <tile/>
   <tile/>
   <tile/>
   <tile/>
   <tile gid="856"/>
   <tile gid="857"/>
   <tile gid="858"/>
   <tile gid="859"/>
   <tile gid="860"/>
   <tile gid="861"/>
   <tile/>
   <tile/>
   <tile/>
   <tile/>
   <tile gid="856"/>
   <tile gid="857"/>
   <tile gid="858"/>
   <tile gid="859"/>
   <tile gid="860"/>
   <tile gid="861"/>
   <tile/>
   <tile/>
   <tile/>
   <tile/>
   <tile/>
   <tile/>
   <tile/>
   <tile/>
   <tile/>
   <tile/>
   <tile/>
   <tile/>
   <tile/>
   <tile/>
   <tile/>
   <tile/>
   <tile/>
   <tile/>
   <tile/>
   <tile/>
   <tile/>
   <tile/>
   <tile/>
   <tile/>
   <tile/>
   <tile/>
   <tile/>
   <tile/>
   <tile/>
   <tile/>
   <tile/>
   <tile/>
   <tile/>
   <tile/>
   <tile/>
   <tile/>
   <tile/>
   <tile/>
   <tile/>
   <tile/>
   <tile/>
   <tile/>
   <tile/>
   <tile/>
   <tile/>
   <tile/>
   <tile/>
   <tile/>
   <tile/>
   <tile/>
   <tile/>
   <tile/>
   <tile/>
   <tile/>
   <tile/>
   <tile/>
   <tile/>
   <tile/>
   <tile/>
   <tile gid="899"/>
   <tile gid="900"/>
   <tile gid="901"/>
   <tile gid="902"/>
   <tile gid="903"/>
   <tile gid="904"/>
   <tile/>
   <tile/>
   <tile/>
   <tile/>
   <tile gid="899"/>
   <tile gid="900"/>
   <tile gid="901"/>
   <tile gid="902"/>
   <tile gid="903"/>
   <tile gid="904"/>
   <tile/>
   <tile/>
   <tile/>
   <tile/>
   <tile/>
   <tile/>
   <tile/>
   <tile/>
   <tile/>
   <tile/>
   <tile/>
   <tile/>
   <tile/>
   <tile/>
   <tile/>
   <tile/>
   <tile/>
   <tile/>
   <tile/>
   <tile/>
   <tile/>
   <tile/>
   <tile/>
   <tile/>
   <tile/>
   <tile/>
   <tile/>
   <tile/>
   <tile/>
   <tile/>
   <tile/>
   <tile/>
   <tile/>
   <tile/>
   <tile/>
   <tile/>
   <tile/>
   <tile/>
   <tile/>
   <tile/>
   <tile/>
   <tile/>
   <tile/>
   <tile/>
   <tile/>
   <tile/>
   <tile/>
   <tile/>
   <tile/>
   <tile/>
   <tile/>
   <tile/>
   <tile/>
   <tile/>
   <tile/>
   <tile/>
   <tile/>
   <tile/>
   <tile/>
   <tile gid="856"/>
   <tile gid="857"/>
   <tile gid="858"/>
   <tile gid="859"/>
   <tile gid="860"/>
   <tile gid="861"/>
   <tile/>
   <tile/>
   <tile/>
   <tile/>
   <tile gid="856"/>
   <tile gid="857"/>
   <tile gid="858"/>
   <tile gid="859"/>
   <tile gid="860"/>
   <tile gid="861"/>
   <tile/>
   <tile/>
   <tile/>
   <tile/>
   <tile/>
   <tile/>
   <tile/>
   <tile/>
   <tile/>
   <tile/>
   <tile/>
   <tile/>
   <tile/>
   <tile/>
   <tile/>
   <tile/>
   <tile/>
   <tile/>
   <tile/>
   <tile/>
   <tile/>
   <tile/>
   <tile/>
   <tile/>
   <tile/>
   <tile/>
   <tile/>
   <tile/>
   <tile/>
   <tile/>
   <tile/>
   <tile/>
   <tile/>
   <tile/>
   <tile/>
   <tile/>
   <tile/>
   <tile/>
   <tile/>
   <tile/>
   <tile/>
   <tile/>
   <tile/>
   <tile/>
   <tile/>
   <tile/>
   <tile/>
   <tile/>
   <tile/>
   <tile/>
   <tile/>
   <tile/>
   <tile/>
   <tile/>
   <tile/>
   <tile/>
   <tile/>
   <tile/>
   <tile/>
   <tile gid="899"/>
   <tile gid="900"/>
   <tile gid="901"/>
   <tile gid="902"/>
   <tile gid="903"/>
   <tile gid="904"/>
   <tile/>
   <tile/>
   <tile/>
   <tile/>
   <tile gid="899"/>
   <tile gid="900"/>
   <tile gid="901"/>
   <tile gid="902"/>
   <tile gid="903"/>
   <tile gid="904"/>
   <tile/>
   <tile/>
   <tile/>
   <tile/>
   <tile/>
   <tile/>
   <tile/>
   <tile/>
   <tile/>
   <tile/>
   <tile/>
   <tile/>
   <tile/>
   <tile/>
   <tile/>
   <tile/>
   <tile/>
   <tile/>
   <tile/>
   <tile/>
   <tile/>
   <tile/>
   <tile/>
   <tile/>
   <tile/>
   <tile/>
   <tile/>
   <tile/>
   <tile/>
   <tile/>
   <tile/>
   <tile/>
   <tile/>
   <tile/>
   <tile/>
   <tile/>
   <tile/>
   <tile/>
   <tile/>
   <tile/>
   <tile/>
   <tile/>
   <tile/>
   <tile/>
   <tile/>
   <tile/>
   <tile/>
   <tile/>
   <tile/>
   <tile/>
   <tile/>
   <tile/>
   <tile/>
   <tile/>
   <tile/>
   <tile/>
   <tile/>
   <tile/>
   <tile/>
   <tile gid="942"/>
   <tile gid="943"/>
   <tile gid="944"/>
   <tile gid="945"/>
   <tile gid="946"/>
   <tile gid="947"/>
   <tile/>
   <tile/>
   <tile/>
   <tile/>
   <tile gid="942"/>
   <tile gid="943"/>
   <tile gid="944"/>
   <tile gid="945"/>
   <tile gid="946"/>
   <tile gid="947"/>
   <tile/>
   <tile/>
   <tile/>
   <tile/>
   <tile/>
   <tile/>
   <tile/>
   <tile/>
   <tile/>
   <tile/>
   <tile/>
   <tile/>
   <tile/>
   <tile/>
   <tile/>
   <tile/>
   <tile/>
   <tile/>
   <tile/>
   <tile/>
   <tile/>
   <tile/>
   <tile/>
   <tile/>
   <tile/>
   <tile/>
   <tile/>
   <tile/>
   <tile/>
   <tile/>
   <tile/>
   <tile/>
   <tile/>
   <tile/>
   <tile/>
   <tile/>
   <tile/>
   <tile/>
   <tile/>
   <tile/>
   <tile/>
   <tile/>
   <tile/>
   <tile/>
   <tile/>
   <tile/>
   <tile/>
   <tile/>
   <tile/>
   <tile/>
   <tile/>
   <tile/>
   <tile/>
   <tile/>
   <tile/>
   <tile/>
   <tile/>
   <tile/>
   <tile/>
   <tile gid="985"/>
   <tile gid="986"/>
   <tile gid="987"/>
   <tile gid="988"/>
   <tile gid="989"/>
   <tile gid="990"/>
   <tile/>
   <tile/>
   <tile/>
   <tile/>
   <tile gid="985"/>
   <tile gid="986"/>
   <tile gid="987"/>
   <tile gid="988"/>
   <tile gid="989"/>
   <tile gid="990"/>
   <tile/>
   <tile/>
   <tile/>
   <tile/>
   <tile/>
   <tile/>
   <tile/>
   <tile/>
   <tile/>
   <tile/>
   <tile/>
   <tile/>
   <tile/>
   <tile/>
   <tile/>
   <tile/>
   <tile/>
   <tile/>
   <tile/>
   <tile/>
   <tile/>
   <tile/>
   <tile/>
   <tile/>
   <tile/>
   <tile/>
   <tile/>
   <tile/>
   <tile/>
   <tile/>
   <tile/>
   <tile/>
   <tile/>
   <tile/>
   <tile/>
   <tile/>
   <tile/>
   <tile/>
   <tile/>
   <tile/>
   <tile/>
   <tile/>
   <tile/>
   <tile/>
   <tile/>
   <tile/>
   <tile/>
   <tile/>
   <tile/>
   <tile/>
   <tile/>
   <tile/>
   <tile/>
   <tile/>
   <tile/>
   <tile/>
   <tile/>
   <tile/>
   <tile/>
   <tile/>
   <tile/>
   <tile/>
   <tile/>
   <tile/>
   <tile/>
   <tile/>
   <tile/>
   <tile/>
   <tile/>
   <tile/>
   <tile/>
   <tile/>
   <tile/>
   <tile/>
   <tile/>
   <tile/>
   <tile/>
   <tile/>
   <tile/>
   <tile/>
   <tile/>
   <tile/>
   <tile/>
   <tile/>
   <tile/>
   <tile/>
   <tile/>
   <tile/>
   <tile/>
   <tile/>
   <tile/>
   <tile/>
   <tile/>
   <tile/>
   <tile/>
   <tile/>
   <tile/>
   <tile/>
   <tile/>
   <tile/>
   <tile/>
   <tile/>
   <tile/>
   <tile/>
   <tile/>
   <tile/>
   <tile/>
   <tile/>
   <tile/>
   <tile/>
   <tile/>
   <tile/>
   <tile/>
   <tile/>
   <tile/>
   <tile/>
   <tile/>
   <tile/>
   <tile/>
   <tile/>
   <tile/>
   <tile/>
   <tile/>
   <tile/>
   <tile/>
   <tile/>
   <tile/>
   <tile/>
   <tile/>
   <tile/>
   <tile/>
   <tile/>
   <tile/>
   <tile/>
   <tile/>
   <tile/>
   <tile/>
   <tile/>
   <tile/>
   <tile/>
   <tile/>
   <tile/>
   <tile/>
   <tile/>
   <tile/>
   <tile/>
   <tile/>
   <tile/>
   <tile/>
   <tile/>
   <tile/>
   <tile/>
   <tile/>
   <tile/>
  </data>
 </layer>
 <layer id="14" name="Assets" width="75" height="64">
  <properties>
   <property name="Draw" type="bool" value="true"/>
  </properties>
  <data>
   <tile/>
   <tile/>
   <tile/>
   <tile/>
   <tile/>
   <tile/>
   <tile/>
   <tile/>
   <tile/>
   <tile/>
   <tile/>
   <tile/>
   <tile/>
   <tile/>
   <tile/>
   <tile/>
   <tile/>
   <tile/>
   <tile/>
   <tile/>
   <tile/>
   <tile/>
   <tile/>
   <tile/>
   <tile/>
   <tile/>
   <tile/>
   <tile/>
   <tile/>
   <tile/>
   <tile/>
   <tile/>
   <tile/>
   <tile/>
   <tile/>
   <tile/>
   <tile/>
   <tile/>
   <tile/>
   <tile/>
   <tile/>
   <tile/>
   <tile/>
   <tile/>
   <tile/>
   <tile/>
   <tile/>
   <tile/>
   <tile/>
   <tile/>
   <tile/>
   <tile/>
   <tile/>
   <tile/>
   <tile/>
   <tile/>
   <tile/>
   <tile/>
   <tile/>
   <tile/>
   <tile/>
   <tile/>
   <tile/>
   <tile/>
   <tile/>
   <tile/>
   <tile/>
   <tile/>
   <tile/>
   <tile/>
   <tile/>
   <tile/>
   <tile/>
   <tile/>
   <tile/>
   <tile/>
   <tile/>
   <tile/>
   <tile/>
   <tile/>
   <tile/>
   <tile/>
   <tile/>
   <tile/>
   <tile/>
   <tile/>
   <tile/>
   <tile/>
   <tile/>
   <tile/>
   <tile/>
   <tile/>
   <tile/>
   <tile/>
   <tile/>
   <tile/>
   <tile/>
   <tile/>
   <tile/>
   <tile/>
   <tile/>
   <tile/>
   <tile/>
   <tile/>
   <tile/>
   <tile/>
   <tile/>
   <tile/>
   <tile/>
   <tile/>
   <tile/>
   <tile/>
   <tile/>
   <tile/>
   <tile/>
   <tile/>
   <tile/>
   <tile/>
   <tile/>
   <tile/>
   <tile/>
   <tile/>
   <tile/>
   <tile/>
   <tile/>
   <tile/>
   <tile/>
   <tile/>
   <tile/>
   <tile/>
   <tile/>
   <tile/>
   <tile/>
   <tile/>
   <tile/>
   <tile/>
   <tile/>
   <tile/>
   <tile/>
   <tile/>
   <tile/>
   <tile/>
   <tile/>
   <tile/>
   <tile/>
   <tile/>
   <tile/>
   <tile/>
   <tile/>
   <tile/>
   <tile/>
   <tile/>
   <tile/>
   <tile/>
   <tile/>
   <tile/>
   <tile/>
   <tile/>
   <tile/>
   <tile/>
   <tile/>
   <tile/>
   <tile/>
   <tile/>
   <tile/>
   <tile/>
   <tile/>
   <tile/>
   <tile/>
   <tile/>
   <tile/>
   <tile/>
   <tile/>
   <tile/>
   <tile/>
   <tile/>
   <tile/>
   <tile/>
   <tile/>
   <tile/>
   <tile/>
   <tile/>
   <tile/>
   <tile/>
   <tile/>
   <tile/>
   <tile/>
   <tile/>
   <tile/>
   <tile/>
   <tile/>
   <tile/>
   <tile/>
   <tile/>
   <tile/>
   <tile/>
   <tile/>
   <tile/>
   <tile/>
   <tile/>
   <tile/>
   <tile/>
   <tile/>
   <tile/>
   <tile/>
   <tile/>
   <tile/>
   <tile/>
   <tile/>
   <tile/>
   <tile/>
   <tile/>
   <tile/>
   <tile/>
   <tile/>
   <tile/>
   <tile/>
   <tile/>
   <tile/>
   <tile/>
   <tile/>
   <tile/>
   <tile/>
   <tile/>
   <tile/>
   <tile/>
   <tile/>
   <tile/>
   <tile/>
   <tile/>
   <tile/>
   <tile/>
   <tile/>
   <tile/>
   <tile/>
   <tile/>
   <tile/>
   <tile/>
   <tile/>
   <tile/>
   <tile/>
   <tile/>
   <tile/>
   <tile/>
   <tile/>
   <tile/>
   <tile/>
   <tile/>
   <tile/>
   <tile/>
   <tile/>
   <tile/>
   <tile/>
   <tile/>
   <tile/>
   <tile/>
   <tile/>
   <tile/>
   <tile/>
   <tile/>
   <tile/>
   <tile/>
   <tile/>
   <tile/>
   <tile/>
   <tile/>
   <tile/>
   <tile/>
   <tile/>
   <tile/>
   <tile/>
   <tile/>
   <tile/>
   <tile/>
   <tile/>
   <tile/>
   <tile/>
   <tile/>
   <tile/>
   <tile/>
   <tile/>
   <tile/>
   <tile/>
   <tile/>
   <tile/>
   <tile/>
   <tile/>
   <tile/>
   <tile/>
   <tile/>
   <tile/>
   <tile/>
   <tile/>
   <tile/>
   <tile/>
   <tile/>
   <tile/>
   <tile/>
   <tile/>
   <tile/>
   <tile/>
   <tile/>
   <tile/>
   <tile/>
   <tile/>
   <tile/>
   <tile/>
   <tile/>
   <tile/>
   <tile/>
   <tile/>
   <tile/>
   <tile/>
   <tile/>
   <tile/>
   <tile/>
   <tile/>
   <tile/>
   <tile/>
   <tile/>
   <tile/>
   <tile/>
   <tile/>
   <tile/>
   <tile/>
   <tile/>
   <tile/>
   <tile/>
   <tile/>
   <tile/>
   <tile/>
   <tile/>
   <tile/>
   <tile/>
   <tile/>
   <tile/>
   <tile/>
   <tile/>
   <tile/>
   <tile/>
   <tile/>
   <tile/>
   <tile/>
   <tile/>
   <tile/>
   <tile/>
   <tile/>
   <tile/>
   <tile/>
   <tile/>
   <tile/>
   <tile/>
   <tile/>
   <tile/>
   <tile/>
   <tile/>
   <tile/>
   <tile/>
   <tile/>
   <tile/>
   <tile/>
   <tile/>
   <tile/>
   <tile/>
   <tile/>
   <tile/>
   <tile/>
   <tile/>
   <tile/>
   <tile/>
   <tile/>
   <tile/>
   <tile/>
   <tile/>
   <tile/>
   <tile/>
   <tile/>
   <tile/>
   <tile/>
   <tile/>
   <tile/>
   <tile/>
   <tile/>
   <tile/>
   <tile/>
   <tile/>
   <tile/>
   <tile/>
   <tile/>
   <tile/>
   <tile/>
   <tile/>
   <tile/>
   <tile/>
   <tile/>
   <tile/>
   <tile/>
   <tile/>
   <tile/>
   <tile/>
   <tile/>
   <tile/>
   <tile/>
   <tile/>
   <tile/>
   <tile/>
   <tile/>
   <tile/>
   <tile/>
   <tile/>
   <tile/>
   <tile/>
   <tile/>
   <tile/>
   <tile/>
   <tile/>
   <tile/>
   <tile/>
   <tile/>
   <tile/>
   <tile/>
   <tile/>
   <tile/>
   <tile/>
   <tile/>
   <tile/>
   <tile/>
   <tile/>
   <tile/>
   <tile/>
   <tile/>
   <tile/>
   <tile/>
   <tile/>
   <tile/>
   <tile/>
   <tile/>
   <tile/>
   <tile/>
   <tile/>
   <tile/>
   <tile/>
   <tile/>
   <tile/>
   <tile/>
   <tile/>
   <tile/>
   <tile/>
   <tile/>
   <tile/>
   <tile/>
   <tile/>
   <tile/>
   <tile/>
   <tile/>
   <tile/>
   <tile/>
   <tile/>
   <tile/>
   <tile/>
   <tile/>
   <tile/>
   <tile/>
   <tile/>
   <tile/>
   <tile/>
   <tile/>
   <tile/>
   <tile/>
   <tile/>
   <tile/>
   <tile/>
   <tile/>
   <tile/>
   <tile/>
   <tile/>
   <tile/>
   <tile/>
   <tile/>
   <tile/>
   <tile/>
   <tile/>
   <tile/>
   <tile/>
   <tile/>
   <tile/>
   <tile/>
   <tile/>
   <tile/>
   <tile/>
   <tile/>
   <tile/>
   <tile/>
   <tile/>
   <tile/>
   <tile/>
   <tile/>
   <tile/>
   <tile/>
   <tile/>
   <tile/>
   <tile/>
   <tile/>
   <tile/>
   <tile/>
   <tile/>
   <tile/>
   <tile/>
   <tile/>
   <tile/>
   <tile/>
   <tile/>
   <tile/>
   <tile/>
   <tile/>
   <tile/>
   <tile/>
   <tile/>
   <tile/>
   <tile/>
   <tile/>
   <tile/>
   <tile/>
   <tile/>
   <tile/>
   <tile/>
   <tile/>
   <tile/>
   <tile/>
   <tile/>
   <tile/>
   <tile/>
   <tile/>
   <tile/>
   <tile/>
   <tile/>
   <tile/>
   <tile/>
   <tile/>
   <tile/>
   <tile/>
   <tile/>
   <tile/>
   <tile/>
   <tile/>
   <tile/>
   <tile/>
   <tile/>
   <tile/>
   <tile/>
   <tile/>
   <tile/>
   <tile/>
   <tile/>
   <tile/>
   <tile/>
   <tile/>
   <tile/>
   <tile/>
   <tile/>
   <tile/>
   <tile/>
   <tile/>
   <tile/>
   <tile/>
   <tile/>
   <tile/>
   <tile/>
   <tile/>
   <tile/>
   <tile/>
   <tile/>
   <tile/>
   <tile/>
   <tile/>
   <tile/>
   <tile/>
   <tile/>
   <tile/>
   <tile/>
   <tile/>
   <tile/>
   <tile/>
   <tile/>
   <tile/>
   <tile/>
   <tile/>
   <tile/>
   <tile/>
   <tile/>
   <tile/>
   <tile/>
   <tile/>
   <tile/>
   <tile/>
   <tile/>
   <tile/>
   <tile/>
   <tile/>
   <tile/>
   <tile/>
   <tile/>
   <tile/>
   <tile/>
   <tile/>
   <tile/>
   <tile/>
   <tile/>
   <tile/>
   <tile/>
   <tile/>
   <tile/>
   <tile/>
   <tile/>
   <tile/>
   <tile/>
   <tile/>
   <tile/>
   <tile/>
   <tile/>
   <tile/>
   <tile/>
   <tile/>
   <tile/>
   <tile/>
   <tile/>
   <tile/>
   <tile/>
   <tile/>
   <tile/>
   <tile/>
   <tile/>
   <tile/>
   <tile/>
   <tile/>
   <tile/>
   <tile/>
   <tile/>
   <tile/>
   <tile/>
   <tile/>
   <tile/>
   <tile/>
   <tile/>
   <tile/>
   <tile/>
   <tile/>
   <tile/>
   <tile/>
   <tile/>
   <tile/>
   <tile/>
   <tile/>
   <tile/>
   <tile/>
   <tile/>
   <tile/>
   <tile/>
   <tile/>
   <tile/>
   <tile/>
   <tile/>
   <tile/>
   <tile/>
   <tile/>
   <tile/>
   <tile/>
   <tile/>
   <tile/>
   <tile/>
   <tile/>
   <tile/>
   <tile/>
   <tile/>
   <tile/>
   <tile/>
   <tile/>
   <tile/>
   <tile/>
   <tile/>
   <tile/>
   <tile/>
   <tile/>
   <tile/>
   <tile/>
   <tile/>
   <tile/>
   <tile/>
   <tile/>
   <tile/>
   <tile/>
   <tile/>
   <tile/>
   <tile gid="40"/>
   <tile gid="41"/>
   <tile gid="42"/>
   <tile gid="43"/>
   <tile gid="44"/>
   <tile gid="45"/>
   <tile gid="46"/>
   <tile/>
   <tile/>
   <tile/>
   <tile/>
   <tile/>
   <tile/>
   <tile/>
   <tile/>
   <tile/>
   <tile/>
   <tile/>
   <tile/>
   <tile/>
   <tile/>
   <tile/>
   <tile/>
   <tile/>
   <tile/>
   <tile/>
   <tile/>
   <tile/>
   <tile/>
   <tile/>
   <tile/>
   <tile/>
   <tile/>
   <tile/>
   <tile/>
   <tile/>
   <tile/>
   <tile/>
   <tile/>
   <tile/>
   <tile/>
   <tile/>
   <tile/>
   <tile/>
   <tile/>
   <tile/>
   <tile/>
   <tile/>
   <tile/>
   <tile/>
   <tile/>
   <tile/>
   <tile/>
   <tile/>
   <tile/>
   <tile/>
   <tile/>
   <tile/>
   <tile/>
   <tile/>
   <tile/>
   <tile/>
   <tile/>
   <tile/>
   <tile/>
   <tile/>
   <tile/>
   <tile/>
   <tile/>
   <tile/>
   <tile/>
   <tile/>
   <tile/>
   <tile/>
   <tile/>
   <tile gid="83"/>
   <tile gid="84"/>
   <tile gid="85"/>
   <tile gid="86"/>
   <tile gid="87"/>
   <tile gid="88"/>
   <tile gid="89"/>
   <tile/>
   <tile/>
   <tile/>
   <tile/>
   <tile/>
   <tile/>
   <tile/>
   <tile/>
   <tile/>
   <tile/>
   <tile/>
   <tile/>
   <tile/>
   <tile/>
   <tile/>
   <tile/>
   <tile/>
   <tile/>
   <tile/>
   <tile/>
   <tile/>
   <tile/>
   <tile/>
   <tile/>
   <tile/>
   <tile/>
   <tile/>
   <tile/>
   <tile/>
   <tile/>
   <tile/>
   <tile/>
   <tile/>
   <tile/>
   <tile/>
   <tile/>
   <tile/>
   <tile/>
   <tile/>
   <tile/>
   <tile/>
   <tile/>
   <tile/>
   <tile/>
   <tile/>
   <tile/>
   <tile/>
   <tile/>
   <tile/>
   <tile/>
   <tile/>
   <tile/>
   <tile/>
   <tile/>
   <tile/>
   <tile/>
   <tile/>
   <tile/>
   <tile/>
   <tile/>
   <tile/>
   <tile/>
   <tile/>
   <tile/>
   <tile/>
   <tile/>
   <tile/>
   <tile/>
   <tile gid="126"/>
   <tile gid="127"/>
   <tile gid="128"/>
   <tile gid="129"/>
   <tile gid="130"/>
   <tile gid="131"/>
   <tile gid="132"/>
   <tile/>
   <tile/>
   <tile/>
   <tile/>
   <tile/>
   <tile/>
   <tile/>
   <tile/>
   <tile/>
   <tile/>
   <tile/>
   <tile/>
   <tile/>
   <tile/>
   <tile/>
   <tile/>
   <tile/>
   <tile/>
   <tile/>
   <tile/>
   <tile/>
   <tile/>
   <tile/>
   <tile/>
   <tile/>
   <tile/>
   <tile/>
   <tile/>
   <tile/>
   <tile/>
   <tile/>
   <tile/>
   <tile/>
   <tile/>
   <tile/>
   <tile/>
   <tile/>
   <tile/>
   <tile/>
   <tile/>
   <tile/>
   <tile/>
   <tile/>
   <tile/>
   <tile/>
   <tile/>
   <tile/>
   <tile/>
   <tile/>
   <tile/>
   <tile/>
   <tile/>
   <tile/>
   <tile/>
   <tile/>
   <tile/>
   <tile/>
   <tile/>
   <tile/>
   <tile/>
   <tile/>
   <tile/>
   <tile/>
   <tile/>
   <tile/>
   <tile/>
   <tile/>
   <tile/>
   <tile/>
   <tile/>
   <tile/>
   <tile/>
   <tile/>
   <tile/>
   <tile/>
   <tile/>
   <tile/>
   <tile/>
   <tile/>
   <tile/>
   <tile/>
   <tile/>
   <tile/>
   <tile/>
   <tile/>
   <tile/>
   <tile/>
   <tile/>
   <tile/>
   <tile/>
   <tile/>
   <tile/>
   <tile/>
   <tile gid="1037"/>
   <tile gid="1038"/>
   <tile/>
   <tile/>
   <tile/>
   <tile/>
   <tile/>
   <tile/>
   <tile/>
   <tile/>
   <tile/>
   <tile/>
   <tile/>
   <tile/>
   <tile/>
   <tile/>
   <tile/>
   <tile/>
   <tile/>
   <tile/>
   <tile/>
   <tile/>
   <tile/>
   <tile/>
   <tile/>
   <tile/>
   <tile/>
   <tile/>
   <tile/>
   <tile/>
   <tile/>
   <tile/>
   <tile/>
   <tile/>
   <tile/>
   <tile/>
   <tile/>
   <tile/>
   <tile/>
   <tile/>
   <tile/>
   <tile/>
   <tile/>
   <tile/>
   <tile/>
   <tile/>
   <tile/>
   <tile/>
   <tile/>
   <tile/>
   <tile/>
   <tile/>
   <tile/>
   <tile/>
   <tile/>
   <tile/>
   <tile/>
   <tile/>
   <tile/>
   <tile/>
   <tile/>
   <tile/>
   <tile/>
   <tile/>
   <tile/>
   <tile/>
   <tile/>
   <tile/>
   <tile/>
   <tile/>
   <tile/>
   <tile/>
   <tile gid="1037"/>
   <tile gid="1039"/>
   <tile/>
   <tile/>
   <tile/>
   <tile gid="1037"/>
   <tile/>
   <tile gid="1039"/>
   <tile/>
   <tile/>
   <tile/>
   <tile/>
   <tile/>
   <tile/>
   <tile/>
   <tile/>
   <tile/>
   <tile/>
   <tile/>
   <tile/>
   <tile/>
   <tile/>
   <tile/>
   <tile/>
   <tile/>
   <tile/>
   <tile/>
   <tile/>
   <tile/>
   <tile/>
   <tile/>
   <tile/>
   <tile/>
   <tile/>
   <tile/>
   <tile/>
   <tile/>
   <tile/>
   <tile/>
   <tile/>
   <tile/>
   <tile/>
   <tile/>
   <tile/>
   <tile/>
   <tile/>
   <tile/>
   <tile/>
   <tile/>
   <tile/>
   <tile/>
   <tile/>
   <tile/>
   <tile/>
   <tile/>
   <tile/>
   <tile/>
   <tile/>
   <tile/>
   <tile/>
   <tile/>
   <tile/>
   <tile/>
   <tile/>
   <tile/>
   <tile/>
   <tile/>
   <tile/>
   <tile/>
   <tile/>
   <tile/>
   <tile/>
   <tile/>
   <tile/>
   <tile/>
   <tile/>
   <tile/>
   <tile/>
   <tile/>
   <tile/>
   <tile/>
   <tile/>
   <tile/>
   <tile/>
   <tile/>
   <tile/>
   <tile/>
   <tile/>
   <tile/>
   <tile/>
   <tile/>
   <tile/>
   <tile/>
   <tile/>
   <tile/>
   <tile/>
   <tile/>
   <tile/>
   <tile/>
   <tile/>
   <tile/>
   <tile/>
   <tile/>
   <tile/>
   <tile/>
   <tile/>
   <tile/>
   <tile/>
   <tile/>
   <tile/>
   <tile/>
   <tile/>
   <tile/>
   <tile/>
   <tile/>
   <tile/>
   <tile/>
   <tile/>
   <tile/>
   <tile/>
   <tile/>
   <tile/>
   <tile/>
   <tile/>
   <tile/>
   <tile/>
   <tile/>
   <tile/>
   <tile/>
   <tile/>
   <tile/>
   <tile/>
   <tile/>
   <tile/>
   <tile/>
   <tile/>
   <tile/>
   <tile/>
   <tile/>
   <tile/>
   <tile/>
   <tile/>
   <tile/>
   <tile/>
   <tile/>
   <tile/>
   <tile/>
   <tile/>
   <tile/>
   <tile/>
   <tile/>
   <tile/>
   <tile/>
   <tile/>
   <tile/>
   <tile/>
   <tile/>
   <tile/>
   <tile/>
   <tile/>
   <tile/>
   <tile/>
   <tile/>
   <tile/>
   <tile/>
   <tile/>
   <tile/>
   <tile/>
   <tile/>
   <tile/>
   <tile/>
   <tile/>
   <tile/>
   <tile/>
   <tile/>
   <tile/>
   <tile/>
   <tile/>
   <tile/>
   <tile/>
   <tile/>
   <tile/>
   <tile/>
   <tile/>
   <tile/>
   <tile/>
   <tile/>
   <tile/>
   <tile/>
   <tile/>
   <tile/>
   <tile/>
   <tile/>
   <tile/>
   <tile/>
   <tile/>
   <tile/>
   <tile/>
   <tile/>
   <tile/>
   <tile/>
   <tile/>
   <tile/>
   <tile/>
   <tile/>
   <tile/>
   <tile/>
   <tile/>
   <tile/>
   <tile/>
   <tile/>
   <tile/>
   <tile/>
   <tile/>
   <tile/>
   <tile/>
   <tile/>
   <tile/>
   <tile/>
   <tile/>
   <tile/>
   <tile/>
   <tile/>
   <tile/>
   <tile/>
   <tile/>
   <tile/>
   <tile/>
   <tile/>
   <tile/>
   <tile/>
   <tile/>
   <tile/>
   <tile/>
   <tile/>
   <tile/>
   <tile/>
   <tile/>
   <tile/>
   <tile/>
   <tile/>
   <tile/>
   <tile/>
   <tile/>
   <tile/>
   <tile/>
   <tile/>
   <tile/>
   <tile/>
   <tile/>
   <tile/>
   <tile/>
   <tile/>
   <tile/>
   <tile/>
   <tile/>
   <tile/>
   <tile/>
   <tile/>
   <tile/>
   <tile/>
   <tile/>
   <tile/>
   <tile/>
   <tile/>
   <tile/>
   <tile/>
   <tile/>
   <tile/>
   <tile/>
   <tile/>
   <tile/>
   <tile/>
   <tile/>
   <tile/>
   <tile/>
   <tile/>
   <tile/>
   <tile/>
   <tile/>
   <tile/>
   <tile/>
   <tile/>
   <tile/>
   <tile/>
   <tile/>
   <tile/>
   <tile/>
   <tile/>
   <tile/>
   <tile/>
   <tile/>
   <tile/>
   <tile/>
   <tile/>
   <tile/>
   <tile/>
   <tile/>
   <tile/>
   <tile/>
   <tile/>
   <tile/>
   <tile/>
   <tile/>
   <tile/>
   <tile/>
   <tile/>
   <tile/>
   <tile/>
   <tile/>
   <tile/>
   <tile/>
   <tile/>
   <tile/>
   <tile/>
   <tile/>
   <tile/>
   <tile/>
   <tile/>
   <tile/>
   <tile/>
   <tile/>
   <tile/>
   <tile/>
   <tile/>
   <tile/>
   <tile/>
   <tile/>
   <tile/>
   <tile/>
   <tile/>
   <tile/>
   <tile/>
   <tile/>
   <tile/>
   <tile/>
   <tile/>
   <tile/>
   <tile/>
   <tile/>
   <tile/>
   <tile/>
   <tile/>
   <tile/>
   <tile/>
   <tile/>
   <tile/>
   <tile/>
   <tile/>
   <tile/>
   <tile/>
   <tile/>
   <tile/>
   <tile/>
   <tile/>
   <tile/>
   <tile/>
   <tile/>
   <tile/>
   <tile/>
   <tile/>
   <tile/>
   <tile/>
   <tile/>
   <tile/>
   <tile/>
   <tile/>
   <tile/>
   <tile/>
   <tile/>
   <tile/>
   <tile/>
   <tile/>
   <tile/>
   <tile/>
   <tile/>
   <tile/>
   <tile/>
   <tile/>
   <tile/>
   <tile/>
   <tile/>
   <tile/>
   <tile/>
   <tile/>
   <tile/>
   <tile/>
   <tile/>
   <tile/>
   <tile/>
   <tile/>
   <tile/>
   <tile/>
   <tile/>
   <tile/>
   <tile/>
   <tile/>
   <tile/>
   <tile/>
   <tile/>
   <tile/>
   <tile/>
   <tile/>
   <tile/>
   <tile/>
   <tile/>
   <tile/>
   <tile/>
   <tile/>
   <tile/>
   <tile/>
   <tile/>
   <tile/>
   <tile/>
   <tile/>
   <tile/>
   <tile/>
   <tile/>
   <tile/>
   <tile/>
   <tile/>
   <tile/>
   <tile/>
   <tile/>
   <tile/>
   <tile/>
   <tile/>
   <tile/>
   <tile gid="40"/>
   <tile gid="41"/>
   <tile gid="42"/>
   <tile gid="43"/>
   <tile gid="44"/>
   <tile gid="45"/>
   <tile gid="46"/>
   <tile/>
   <tile/>
   <tile/>
   <tile/>
   <tile/>
   <tile/>
   <tile/>
   <tile/>
   <tile/>
   <tile/>
   <tile/>
   <tile/>
   <tile/>
   <tile/>
   <tile/>
   <tile/>
   <tile/>
   <tile/>
   <tile/>
   <tile/>
   <tile/>
   <tile/>
   <tile/>
   <tile/>
   <tile/>
   <tile/>
   <tile/>
   <tile/>
   <tile/>
   <tile/>
   <tile/>
   <tile/>
   <tile/>
   <tile/>
   <tile/>
   <tile/>
   <tile/>
   <tile/>
   <tile/>
   <tile/>
   <tile/>
   <tile/>
   <tile/>
   <tile/>
   <tile/>
   <tile/>
   <tile/>
   <tile/>
   <tile/>
   <tile/>
   <tile/>
   <tile/>
   <tile/>
   <tile/>
   <tile/>
   <tile/>
   <tile/>
   <tile/>
   <tile/>
   <tile/>
   <tile/>
   <tile/>
   <tile/>
   <tile/>
   <tile/>
   <tile/>
   <tile/>
   <tile/>
   <tile gid="83"/>
   <tile gid="84"/>
   <tile gid="85"/>
   <tile gid="86"/>
   <tile gid="87"/>
   <tile gid="88"/>
   <tile gid="89"/>
   <tile/>
   <tile/>
   <tile/>
   <tile/>
   <tile/>
   <tile/>
   <tile/>
   <tile/>
   <tile/>
   <tile/>
   <tile/>
   <tile/>
   <tile/>
   <tile/>
   <tile/>
   <tile/>
   <tile/>
   <tile/>
   <tile/>
   <tile/>
   <tile/>
   <tile/>
   <tile/>
   <tile/>
   <tile/>
   <tile/>
   <tile/>
   <tile/>
   <tile/>
   <tile/>
   <tile/>
   <tile/>
   <tile/>
   <tile/>
   <tile/>
   <tile/>
   <tile/>
   <tile/>
   <tile/>
   <tile/>
   <tile/>
   <tile/>
   <tile/>
   <tile/>
   <tile/>
   <tile/>
   <tile/>
   <tile/>
   <tile/>
   <tile/>
   <tile/>
   <tile/>
   <tile/>
   <tile/>
   <tile/>
   <tile/>
   <tile/>
   <tile/>
   <tile/>
   <tile/>
   <tile/>
   <tile/>
   <tile/>
   <tile/>
   <tile/>
   <tile/>
   <tile/>
   <tile/>
   <tile gid="126"/>
   <tile gid="127"/>
   <tile gid="128"/>
   <tile gid="129"/>
   <tile gid="130"/>
   <tile gid="131"/>
   <tile gid="132"/>
   <tile/>
   <tile/>
   <tile/>
   <tile/>
   <tile/>
   <tile/>
   <tile/>
   <tile/>
   <tile/>
   <tile/>
   <tile/>
   <tile/>
   <tile/>
   <tile/>
   <tile/>
   <tile/>
   <tile/>
   <tile/>
   <tile/>
   <tile/>
   <tile/>
   <tile/>
   <tile/>
   <tile/>
   <tile/>
   <tile/>
   <tile/>
   <tile/>
   <tile/>
   <tile/>
   <tile/>
   <tile/>
   <tile/>
   <tile/>
   <tile/>
   <tile/>
   <tile/>
   <tile/>
   <tile/>
   <tile/>
   <tile/>
   <tile/>
   <tile/>
   <tile/>
   <tile/>
   <tile/>
   <tile/>
   <tile/>
   <tile/>
   <tile/>
   <tile/>
   <tile/>
   <tile/>
   <tile/>
   <tile/>
   <tile/>
   <tile/>
   <tile/>
   <tile/>
   <tile/>
   <tile/>
   <tile/>
   <tile/>
   <tile/>
   <tile/>
   <tile/>
   <tile/>
   <tile/>
   <tile/>
   <tile/>
   <tile/>
   <tile/>
   <tile/>
   <tile/>
   <tile/>
   <tile/>
   <tile/>
   <tile/>
   <tile/>
   <tile/>
   <tile/>
   <tile/>
   <tile/>
   <tile/>
   <tile/>
   <tile/>
   <tile/>
   <tile/>
   <tile/>
   <tile/>
   <tile/>
   <tile/>
   <tile/>
   <tile/>
   <tile/>
   <tile/>
   <tile/>
   <tile/>
   <tile/>
   <tile/>
   <tile/>
   <tile/>
   <tile/>
   <tile/>
   <tile/>
   <tile/>
   <tile/>
   <tile/>
   <tile/>
   <tile/>
   <tile/>
   <tile/>
   <tile/>
   <tile/>
   <tile/>
   <tile/>
   <tile/>
   <tile/>
   <tile/>
   <tile/>
   <tile/>
   <tile/>
   <tile/>
   <tile/>
   <tile/>
   <tile/>
   <tile/>
   <tile/>
   <tile/>
   <tile/>
   <tile/>
   <tile/>
   <tile/>
   <tile/>
   <tile/>
   <tile/>
   <tile/>
   <tile/>
   <tile/>
   <tile/>
   <tile/>
   <tile/>
   <tile/>
   <tile/>
   <tile/>
   <tile/>
   <tile/>
   <tile/>
   <tile/>
   <tile/>
   <tile/>
   <tile/>
   <tile/>
   <tile/>
   <tile/>
   <tile/>
   <tile/>
   <tile/>
   <tile/>
   <tile/>
   <tile/>
   <tile/>
   <tile/>
   <tile/>
   <tile/>
   <tile/>
   <tile/>
   <tile/>
   <tile/>
   <tile/>
   <tile/>
   <tile/>
   <tile/>
   <tile/>
   <tile/>
   <tile/>
   <tile/>
   <tile/>
   <tile/>
   <tile/>
   <tile/>
   <tile/>
   <tile/>
   <tile/>
   <tile/>
   <tile/>
   <tile/>
   <tile/>
   <tile/>
   <tile/>
   <tile/>
   <tile/>
   <tile/>
   <tile/>
   <tile/>
   <tile/>
   <tile/>
   <tile/>
   <tile/>
   <tile/>
   <tile/>
   <tile/>
   <tile/>
   <tile/>
   <tile/>
   <tile/>
   <tile/>
   <tile/>
   <tile/>
   <tile/>
   <tile/>
   <tile/>
   <tile/>
   <tile/>
   <tile/>
   <tile/>
   <tile/>
   <tile/>
   <tile/>
   <tile/>
   <tile/>
   <tile/>
   <tile/>
   <tile/>
   <tile/>
   <tile/>
   <tile/>
   <tile/>
   <tile/>
   <tile/>
   <tile/>
   <tile/>
   <tile/>
   <tile/>
   <tile/>
   <tile/>
   <tile/>
   <tile/>
   <tile/>
   <tile/>
   <tile/>
   <tile/>
   <tile/>
   <tile/>
   <tile/>
   <tile/>
   <tile/>
   <tile/>
   <tile/>
   <tile/>
   <tile/>
   <tile/>
   <tile/>
   <tile/>
   <tile/>
   <tile/>
   <tile/>
   <tile/>
   <tile/>
   <tile/>
   <tile/>
   <tile/>
   <tile/>
   <tile/>
   <tile/>
   <tile/>
   <tile/>
   <tile/>
   <tile/>
   <tile/>
   <tile/>
   <tile/>
   <tile/>
   <tile/>
   <tile/>
   <tile/>
   <tile/>
   <tile/>
   <tile/>
   <tile/>
   <tile/>
   <tile/>
   <tile/>
   <tile/>
   <tile/>
   <tile/>
   <tile/>
   <tile/>
   <tile/>
   <tile/>
   <tile/>
   <tile/>
   <tile/>
   <tile/>
   <tile/>
   <tile/>
   <tile/>
   <tile/>
   <tile/>
   <tile/>
   <tile/>
   <tile/>
   <tile/>
   <tile/>
   <tile/>
   <tile/>
   <tile/>
   <tile/>
   <tile/>
   <tile/>
   <tile/>
   <tile/>
   <tile/>
   <tile/>
   <tile/>
   <tile/>
   <tile/>
   <tile/>
   <tile/>
   <tile/>
   <tile/>
   <tile/>
   <tile/>
   <tile/>
   <tile/>
   <tile/>
   <tile/>
   <tile/>
   <tile/>
   <tile/>
   <tile/>
   <tile/>
   <tile/>
   <tile/>
   <tile/>
   <tile/>
   <tile/>
   <tile/>
   <tile/>
   <tile/>
   <tile/>
   <tile/>
   <tile/>
   <tile/>
   <tile/>
   <tile/>
   <tile/>
   <tile/>
   <tile/>
   <tile/>
   <tile/>
   <tile/>
   <tile/>
   <tile/>
   <tile/>
   <tile/>
   <tile/>
   <tile/>
   <tile/>
   <tile/>
   <tile/>
   <tile/>
   <tile/>
   <tile/>
   <tile/>
   <tile/>
   <tile/>
   <tile/>
   <tile/>
   <tile/>
   <tile/>
   <tile/>
   <tile/>
   <tile/>
   <tile/>
   <tile/>
   <tile/>
   <tile/>
   <tile/>
   <tile/>
   <tile/>
   <tile/>
   <tile/>
   <tile/>
   <tile/>
   <tile/>
   <tile/>
   <tile/>
   <tile/>
   <tile/>
   <tile/>
   <tile/>
   <tile/>
   <tile/>
   <tile/>
   <tile/>
   <tile/>
   <tile/>
   <tile/>
   <tile/>
   <tile/>
   <tile/>
   <tile/>
   <tile/>
   <tile/>
   <tile/>
   <tile/>
   <tile/>
   <tile/>
   <tile/>
   <tile/>
   <tile/>
   <tile/>
   <tile/>
   <tile/>
   <tile/>
   <tile/>
   <tile/>
   <tile/>
   <tile/>
   <tile/>
   <tile/>
   <tile/>
   <tile/>
   <tile/>
   <tile/>
   <tile/>
   <tile/>
   <tile/>
   <tile/>
   <tile/>
   <tile/>
   <tile/>
   <tile/>
   <tile/>
   <tile/>
   <tile/>
   <tile/>
   <tile/>
   <tile/>
   <tile/>
   <tile/>
   <tile/>
   <tile/>
   <tile/>
   <tile/>
   <tile/>
   <tile/>
   <tile/>
   <tile/>
   <tile/>
   <tile/>
   <tile/>
   <tile/>
   <tile/>
   <tile/>
   <tile/>
   <tile/>
   <tile/>
   <tile/>
   <tile/>
   <tile/>
   <tile/>
   <tile/>
   <tile/>
   <tile/>
   <tile/>
   <tile/>
   <tile/>
   <tile/>
   <tile/>
   <tile/>
   <tile/>
   <tile/>
   <tile/>
   <tile/>
   <tile/>
   <tile/>
   <tile/>
   <tile/>
   <tile/>
   <tile/>
   <tile/>
   <tile/>
   <tile/>
   <tile/>
   <tile/>
   <tile/>
   <tile/>
   <tile/>
   <tile/>
   <tile/>
   <tile/>
   <tile/>
   <tile/>
   <tile/>
   <tile/>
   <tile/>
   <tile/>
   <tile/>
   <tile/>
   <tile/>
   <tile/>
   <tile/>
   <tile/>
   <tile/>
   <tile/>
   <tile/>
   <tile/>
   <tile/>
   <tile/>
   <tile/>
   <tile/>
   <tile/>
   <tile/>
   <tile/>
   <tile/>
   <tile/>
   <tile/>
   <tile/>
   <tile/>
   <tile/>
   <tile/>
   <tile/>
   <tile/>
   <tile/>
   <tile/>
   <tile/>
   <tile/>
   <tile/>
   <tile/>
   <tile/>
   <tile/>
   <tile/>
   <tile/>
   <tile/>
   <tile/>
   <tile/>
   <tile/>
   <tile/>
   <tile/>
   <tile/>
   <tile/>
   <tile/>
   <tile/>
   <tile/>
   <tile/>
   <tile/>
   <tile/>
   <tile/>
   <tile/>
   <tile/>
   <tile/>
   <tile/>
   <tile/>
   <tile/>
   <tile/>
   <tile/>
   <tile/>
   <tile/>
   <tile/>
   <tile/>
   <tile/>
   <tile/>
   <tile/>
   <tile/>
   <tile/>
   <tile/>
   <tile/>
   <tile/>
   <tile/>
   <tile/>
   <tile/>
   <tile/>
   <tile/>
   <tile/>
   <tile/>
   <tile/>
   <tile/>
   <tile/>
   <tile/>
   <tile/>
   <tile/>
   <tile/>
   <tile/>
   <tile/>
   <tile/>
   <tile/>
   <tile/>
   <tile/>
   <tile/>
   <tile/>
   <tile/>
   <tile/>
   <tile/>
   <tile/>
   <tile/>
   <tile/>
   <tile/>
   <tile/>
   <tile/>
   <tile/>
   <tile/>
   <tile/>
   <tile/>
   <tile/>
   <tile/>
   <tile/>
   <tile/>
   <tile/>
   <tile/>
   <tile/>
   <tile/>
   <tile/>
   <tile/>
   <tile/>
   <tile/>
   <tile/>
   <tile/>
   <tile/>
   <tile/>
   <tile/>
   <tile/>
   <tile/>
   <tile/>
   <tile/>
   <tile/>
   <tile/>
   <tile/>
   <tile/>
   <tile/>
   <tile/>
   <tile/>
   <tile/>
   <tile/>
   <tile/>
   <tile/>
   <tile/>
   <tile/>
   <tile/>
   <tile/>
   <tile/>
   <tile/>
   <tile/>
   <tile/>
   <tile/>
   <tile/>
   <tile/>
   <tile/>
   <tile/>
   <tile/>
   <tile/>
   <tile/>
   <tile/>
   <tile/>
   <tile/>
   <tile/>
   <tile/>
   <tile/>
   <tile/>
   <tile/>
   <tile/>
   <tile/>
   <tile/>
   <tile/>
   <tile/>
   <tile/>
   <tile/>
   <tile/>
   <tile/>
   <tile/>
   <tile/>
   <tile/>
   <tile/>
   <tile/>
   <tile/>
   <tile/>
   <tile/>
   <tile/>
   <tile/>
   <tile/>
   <tile/>
   <tile/>
   <tile/>
   <tile/>
   <tile/>
   <tile/>
   <tile/>
   <tile/>
   <tile/>
   <tile/>
   <tile/>
   <tile/>
   <tile/>
   <tile/>
   <tile/>
   <tile/>
   <tile/>
   <tile/>
   <tile/>
   <tile/>
   <tile/>
   <tile/>
   <tile/>
   <tile/>
   <tile/>
   <tile/>
   <tile/>
   <tile/>
   <tile/>
   <tile/>
   <tile/>
   <tile/>
   <tile/>
   <tile/>
   <tile/>
   <tile/>
   <tile/>
   <tile/>
   <tile/>
   <tile/>
   <tile/>
   <tile/>
   <tile/>
   <tile/>
   <tile/>
   <tile/>
   <tile/>
   <tile/>
   <tile/>
   <tile/>
   <tile/>
   <tile/>
   <tile/>
   <tile/>
   <tile/>
   <tile/>
   <tile/>
   <tile/>
   <tile/>
   <tile/>
   <tile/>
   <tile/>
   <tile/>
   <tile/>
   <tile/>
   <tile/>
   <tile/>
   <tile/>
   <tile/>
   <tile/>
   <tile/>
   <tile/>
   <tile/>
   <tile/>
   <tile/>
   <tile/>
   <tile/>
   <tile/>
   <tile/>
   <tile/>
   <tile/>
   <tile/>
   <tile/>
   <tile/>
   <tile/>
   <tile/>
   <tile/>
   <tile/>
   <tile/>
   <tile/>
   <tile/>
   <tile/>
   <tile/>
   <tile/>
   <tile/>
   <tile/>
   <tile/>
   <tile/>
   <tile/>
   <tile/>
   <tile/>
   <tile/>
   <tile/>
   <tile/>
   <tile/>
   <tile/>
   <tile/>
   <tile/>
   <tile/>
   <tile/>
   <tile/>
   <tile/>
   <tile/>
   <tile/>
   <tile/>
   <tile/>
   <tile/>
   <tile/>
   <tile/>
   <tile/>
   <tile/>
   <tile/>
   <tile/>
   <tile/>
   <tile/>
   <tile/>
   <tile/>
   <tile/>
   <tile/>
   <tile/>
   <tile/>
   <tile/>
   <tile/>
   <tile/>
   <tile/>
   <tile/>
   <tile/>
   <tile/>
   <tile/>
   <tile/>
   <tile/>
   <tile/>
   <tile/>
   <tile/>
   <tile/>
   <tile/>
   <tile/>
   <tile/>
   <tile/>
   <tile/>
   <tile/>
   <tile/>
   <tile/>
   <tile/>
   <tile/>
   <tile/>
   <tile/>
   <tile/>
   <tile/>
   <tile/>
   <tile/>
   <tile/>
   <tile/>
   <tile/>
   <tile/>
   <tile/>
   <tile/>
   <tile/>
   <tile/>
   <tile/>
   <tile/>
   <tile/>
   <tile/>
   <tile/>
   <tile/>
   <tile/>
   <tile/>
   <tile/>
   <tile/>
   <tile/>
   <tile/>
   <tile/>
   <tile/>
   <tile/>
   <tile/>
   <tile/>
   <tile/>
   <tile/>
   <tile/>
   <tile/>
   <tile/>
   <tile/>
   <tile/>
   <tile/>
   <tile/>
   <tile/>
   <tile/>
   <tile/>
   <tile/>
   <tile/>
   <tile/>
   <tile/>
   <tile/>
   <tile/>
   <tile/>
   <tile/>
   <tile/>
   <tile/>
   <tile/>
   <tile/>
   <tile/>
   <tile/>
   <tile/>
   <tile/>
   <tile/>
   <tile/>
   <tile/>
   <tile/>
   <tile/>
   <tile/>
   <tile/>
   <tile/>
   <tile/>
   <tile/>
   <tile/>
   <tile/>
   <tile/>
   <tile/>
   <tile/>
   <tile/>
   <tile/>
   <tile/>
   <tile/>
   <tile/>
   <tile/>
   <tile/>
   <tile/>
   <tile/>
   <tile/>
   <tile/>
   <tile/>
   <tile/>
   <tile/>
   <tile/>
   <tile/>
   <tile/>
   <tile/>
   <tile/>
   <tile/>
   <tile/>
   <tile/>
   <tile/>
   <tile/>
   <tile/>
   <tile/>
   <tile/>
   <tile/>
   <tile/>
   <tile/>
   <tile/>
   <tile/>
   <tile/>
   <tile/>
   <tile/>
   <tile/>
   <tile/>
   <tile/>
   <tile/>
   <tile/>
   <tile/>
   <tile/>
   <tile/>
   <tile/>
   <tile/>
   <tile/>
   <tile/>
   <tile/>
   <tile/>
   <tile/>
   <tile/>
   <tile/>
   <tile/>
   <tile/>
   <tile/>
   <tile/>
   <tile/>
   <tile/>
   <tile/>
   <tile/>
   <tile/>
   <tile/>
   <tile/>
   <tile/>
   <tile/>
   <tile/>
   <tile/>
   <tile/>
   <tile/>
   <tile/>
   <tile/>
   <tile/>
   <tile/>
   <tile/>
   <tile/>
   <tile/>
   <tile/>
   <tile/>
   <tile/>
   <tile/>
   <tile/>
   <tile/>
   <tile/>
   <tile/>
   <tile/>
   <tile/>
   <tile/>
   <tile/>
   <tile/>
   <tile/>
   <tile/>
   <tile/>
   <tile/>
   <tile/>
   <tile/>
   <tile/>
   <tile/>
   <tile/>
   <tile/>
   <tile/>
   <tile/>
   <tile/>
   <tile/>
   <tile/>
   <tile/>
   <tile/>
   <tile/>
   <tile/>
   <tile/>
   <tile/>
   <tile/>
   <tile/>
   <tile/>
   <tile/>
   <tile/>
   <tile/>
   <tile/>
   <tile/>
   <tile/>
   <tile/>
   <tile/>
   <tile/>
   <tile/>
   <tile/>
   <tile/>
   <tile/>
   <tile/>
   <tile/>
   <tile/>
   <tile/>
   <tile/>
   <tile/>
   <tile/>
   <tile/>
   <tile/>
   <tile/>
   <tile/>
   <tile/>
   <tile/>
   <tile/>
   <tile/>
   <tile/>
   <tile/>
   <tile/>
   <tile/>
   <tile/>
   <tile/>
   <tile/>
   <tile/>
   <tile/>
   <tile/>
   <tile/>
   <tile/>
   <tile/>
   <tile/>
   <tile/>
   <tile/>
   <tile/>
   <tile/>
   <tile/>
   <tile/>
   <tile/>
   <tile/>
   <tile/>
   <tile/>
   <tile/>
   <tile/>
   <tile/>
   <tile/>
   <tile/>
   <tile/>
   <tile/>
   <tile/>
   <tile/>
   <tile/>
   <tile/>
   <tile/>
   <tile/>
   <tile/>
   <tile/>
   <tile/>
   <tile/>
   <tile/>
   <tile/>
   <tile/>
   <tile/>
   <tile/>
   <tile/>
   <tile/>
   <tile/>
   <tile/>
   <tile/>
   <tile/>
   <tile/>
   <tile/>
   <tile/>
   <tile/>
   <tile/>
   <tile/>
   <tile/>
   <tile/>
   <tile/>
   <tile/>
   <tile/>
   <tile/>
   <tile/>
   <tile/>
   <tile/>
   <tile/>
   <tile/>
   <tile/>
   <tile/>
   <tile/>
   <tile/>
   <tile/>
   <tile/>
   <tile/>
   <tile/>
   <tile/>
   <tile/>
   <tile/>
   <tile/>
   <tile/>
   <tile/>
   <tile/>
   <tile/>
   <tile/>
   <tile/>
   <tile/>
   <tile/>
   <tile/>
   <tile/>
   <tile/>
   <tile/>
   <tile/>
   <tile/>
   <tile/>
   <tile/>
   <tile/>
   <tile/>
   <tile/>
   <tile/>
   <tile/>
   <tile/>
   <tile/>
   <tile/>
   <tile/>
   <tile/>
   <tile/>
   <tile/>
   <tile/>
   <tile/>
   <tile/>
   <tile/>
   <tile/>
   <tile/>
   <tile/>
   <tile/>
   <tile/>
   <tile/>
   <tile/>
   <tile/>
   <tile/>
   <tile/>
   <tile/>
   <tile/>
   <tile/>
   <tile/>
   <tile/>
   <tile/>
   <tile/>
   <tile/>
   <tile/>
   <tile/>
   <tile/>
   <tile/>
   <tile/>
   <tile/>
   <tile/>
   <tile/>
   <tile/>
   <tile/>
   <tile/>
   <tile/>
   <tile/>
   <tile/>
   <tile/>
   <tile/>
   <tile/>
   <tile/>
   <tile/>
   <tile/>
   <tile/>
   <tile/>
   <tile/>
   <tile/>
   <tile/>
   <tile/>
   <tile/>
   <tile/>
   <tile/>
   <tile/>
   <tile/>
   <tile/>
   <tile/>
   <tile/>
   <tile/>
   <tile/>
   <tile/>
   <tile/>
   <tile/>
   <tile/>
   <tile/>
   <tile/>
   <tile/>
   <tile/>
   <tile/>
   <tile/>
   <tile/>
   <tile/>
   <tile/>
   <tile/>
   <tile/>
   <tile/>
   <tile/>
   <tile/>
   <tile/>
   <tile/>
   <tile/>
   <tile/>
   <tile/>
   <tile/>
   <tile/>
   <tile/>
   <tile/>
   <tile/>
   <tile/>
   <tile/>
   <tile/>
   <tile/>
   <tile/>
   <tile/>
   <tile/>
   <tile/>
   <tile/>
   <tile/>
   <tile/>
   <tile/>
   <tile/>
   <tile/>
   <tile/>
   <tile/>
   <tile/>
   <tile/>
   <tile/>
   <tile/>
   <tile/>
   <tile/>
   <tile/>
   <tile/>
   <tile/>
   <tile/>
   <tile/>
   <tile/>
   <tile/>
   <tile/>
   <tile/>
   <tile/>
   <tile/>
   <tile/>
   <tile/>
   <tile/>
   <tile/>
   <tile/>
   <tile/>
   <tile/>
   <tile/>
   <tile/>
   <tile/>
   <tile/>
   <tile/>
   <tile/>
   <tile/>
   <tile/>
   <tile/>
   <tile/>
   <tile/>
   <tile/>
   <tile/>
   <tile/>
   <tile/>
   <tile/>
   <tile/>
   <tile/>
   <tile/>
   <tile/>
   <tile/>
   <tile/>
   <tile/>
   <tile/>
   <tile/>
   <tile/>
   <tile/>
   <tile/>
   <tile/>
   <tile/>
   <tile/>
   <tile/>
   <tile/>
   <tile/>
   <tile/>
   <tile/>
   <tile/>
   <tile/>
   <tile/>
   <tile/>
   <tile/>
   <tile/>
   <tile/>
   <tile/>
   <tile/>
   <tile/>
   <tile/>
   <tile/>
   <tile/>
   <tile/>
   <tile/>
   <tile/>
   <tile/>
   <tile/>
   <tile/>
   <tile/>
   <tile/>
   <tile/>
   <tile/>
   <tile/>
   <tile/>
   <tile/>
   <tile/>
   <tile/>
   <tile/>
   <tile/>
   <tile/>
   <tile/>
   <tile/>
   <tile/>
   <tile/>
   <tile/>
   <tile/>
   <tile/>
   <tile/>
   <tile/>
   <tile/>
   <tile/>
   <tile/>
   <tile/>
   <tile/>
   <tile/>
   <tile/>
   <tile/>
   <tile/>
   <tile/>
   <tile/>
   <tile/>
   <tile/>
   <tile/>
   <tile/>
   <tile/>
   <tile/>
   <tile/>
   <tile/>
   <tile/>
   <tile/>
   <tile/>
   <tile/>
   <tile/>
   <tile/>
   <tile/>
   <tile/>
   <tile/>
   <tile/>
   <tile/>
   <tile/>
   <tile/>
   <tile/>
   <tile/>
   <tile/>
   <tile/>
   <tile/>
   <tile/>
   <tile/>
   <tile/>
   <tile/>
   <tile/>
   <tile/>
   <tile/>
   <tile/>
   <tile/>
   <tile/>
   <tile/>
   <tile/>
   <tile/>
   <tile/>
   <tile/>
   <tile/>
   <tile/>
   <tile/>
   <tile/>
   <tile/>
   <tile/>
   <tile/>
   <tile/>
   <tile/>
   <tile/>
   <tile/>
   <tile/>
   <tile/>
   <tile/>
   <tile/>
   <tile/>
   <tile/>
   <tile/>
   <tile/>
   <tile/>
   <tile/>
   <tile/>
   <tile/>
   <tile/>
   <tile/>
   <tile/>
   <tile/>
   <tile/>
   <tile/>
   <tile/>
   <tile/>
   <tile/>
   <tile/>
   <tile/>
   <tile/>
   <tile/>
   <tile/>
   <tile/>
   <tile/>
   <tile/>
   <tile/>
   <tile/>
   <tile/>
   <tile/>
   <tile/>
   <tile/>
   <tile/>
   <tile/>
   <tile/>
   <tile/>
   <tile/>
   <tile/>
   <tile/>
   <tile/>
   <tile/>
   <tile/>
   <tile/>
   <tile/>
   <tile/>
   <tile/>
   <tile/>
   <tile/>
   <tile/>
   <tile/>
   <tile/>
   <tile/>
   <tile/>
   <tile/>
   <tile/>
   <tile/>
   <tile/>
   <tile/>
   <tile/>
   <tile/>
   <tile/>
   <tile/>
   <tile/>
   <tile/>
   <tile/>
   <tile/>
   <tile/>
   <tile/>
   <tile/>
   <tile/>
   <tile/>
   <tile/>
   <tile/>
   <tile/>
   <tile/>
   <tile/>
   <tile/>
   <tile/>
   <tile/>
   <tile/>
   <tile/>
   <tile/>
   <tile/>
   <tile/>
   <tile/>
   <tile/>
   <tile/>
   <tile/>
   <tile/>
   <tile/>
   <tile/>
   <tile/>
   <tile/>
   <tile/>
   <tile/>
   <tile/>
   <tile/>
   <tile/>
   <tile/>
   <tile/>
   <tile/>
   <tile/>
   <tile/>
   <tile/>
   <tile/>
   <tile/>
   <tile/>
   <tile/>
   <tile/>
   <tile/>
   <tile/>
   <tile/>
   <tile/>
   <tile/>
   <tile/>
   <tile/>
   <tile/>
   <tile/>
   <tile/>
   <tile/>
   <tile/>
   <tile/>
   <tile/>
   <tile/>
   <tile/>
   <tile/>
   <tile/>
   <tile/>
   <tile/>
   <tile/>
   <tile/>
   <tile/>
   <tile/>
   <tile/>
   <tile/>
   <tile/>
   <tile/>
   <tile/>
   <tile/>
   <tile/>
   <tile/>
   <tile/>
   <tile/>
   <tile/>
   <tile/>
   <tile/>
   <tile/>
   <tile/>
   <tile/>
   <tile/>
   <tile/>
   <tile/>
   <tile/>
   <tile/>
   <tile/>
   <tile/>
   <tile/>
   <tile/>
   <tile/>
   <tile/>
   <tile/>
   <tile/>
   <tile/>
   <tile/>
   <tile/>
   <tile/>
   <tile/>
   <tile/>
   <tile/>
   <tile/>
   <tile/>
   <tile/>
   <tile/>
   <tile/>
   <tile/>
   <tile/>
   <tile/>
   <tile/>
   <tile/>
   <tile/>
   <tile/>
   <tile/>
   <tile/>
   <tile/>
   <tile/>
   <tile/>
   <tile/>
   <tile/>
   <tile/>
   <tile/>
   <tile/>
   <tile/>
   <tile/>
   <tile/>
   <tile/>
   <tile/>
   <tile/>
   <tile/>
   <tile/>
   <tile/>
   <tile/>
   <tile/>
   <tile/>
   <tile/>
   <tile/>
   <tile/>
   <tile/>
   <tile/>
   <tile/>
   <tile/>
   <tile/>
   <tile/>
   <tile/>
   <tile/>
   <tile/>
   <tile/>
   <tile/>
   <tile/>
   <tile/>
   <tile/>
   <tile/>
   <tile/>
   <tile/>
   <tile/>
   <tile/>
   <tile/>
   <tile/>
   <tile/>
   <tile/>
   <tile/>
   <tile/>
   <tile/>
   <tile/>
   <tile/>
   <tile/>
   <tile/>
   <tile/>
   <tile/>
   <tile/>
   <tile/>
   <tile/>
   <tile/>
   <tile/>
   <tile/>
   <tile/>
   <tile/>
   <tile/>
   <tile/>
   <tile/>
   <tile/>
   <tile/>
   <tile/>
   <tile/>
   <tile/>
   <tile/>
   <tile/>
   <tile/>
   <tile/>
   <tile/>
   <tile/>
   <tile/>
   <tile/>
   <tile/>
   <tile/>
   <tile/>
   <tile/>
   <tile/>
   <tile/>
   <tile/>
   <tile/>
   <tile/>
   <tile/>
   <tile/>
   <tile/>
   <tile/>
   <tile/>
   <tile/>
   <tile/>
   <tile/>
   <tile/>
   <tile/>
   <tile/>
   <tile/>
   <tile/>
   <tile/>
   <tile/>
   <tile/>
   <tile/>
   <tile/>
   <tile/>
   <tile/>
   <tile/>
   <tile/>
   <tile/>
   <tile/>
   <tile/>
   <tile/>
   <tile/>
   <tile/>
   <tile/>
   <tile/>
   <tile/>
   <tile/>
   <tile/>
   <tile/>
   <tile/>
   <tile/>
   <tile/>
   <tile/>
   <tile/>
   <tile/>
   <tile/>
   <tile/>
   <tile/>
   <tile/>
   <tile/>
   <tile/>
   <tile/>
   <tile/>
   <tile/>
   <tile/>
   <tile/>
   <tile/>
   <tile/>
   <tile/>
   <tile/>
   <tile/>
   <tile/>
   <tile/>
   <tile/>
   <tile/>
   <tile/>
   <tile/>
   <tile/>
   <tile/>
   <tile/>
   <tile/>
   <tile/>
   <tile/>
   <tile/>
   <tile/>
   <tile/>
   <tile/>
   <tile/>
   <tile/>
   <tile/>
   <tile/>
   <tile/>
   <tile/>
   <tile/>
   <tile/>
   <tile/>
   <tile/>
   <tile/>
   <tile/>
   <tile/>
   <tile/>
   <tile/>
   <tile/>
   <tile/>
   <tile/>
   <tile/>
   <tile/>
   <tile/>
   <tile/>
   <tile/>
   <tile/>
   <tile/>
   <tile/>
   <tile/>
   <tile/>
   <tile/>
   <tile/>
   <tile/>
   <tile/>
   <tile/>
   <tile/>
   <tile/>
   <tile/>
   <tile/>
   <tile/>
   <tile/>
   <tile/>
   <tile/>
   <tile/>
   <tile/>
   <tile/>
   <tile/>
   <tile/>
   <tile/>
   <tile/>
   <tile/>
   <tile/>
   <tile/>
   <tile/>
   <tile/>
   <tile/>
   <tile/>
   <tile/>
   <tile/>
   <tile/>
   <tile/>
   <tile/>
   <tile/>
   <tile/>
   <tile/>
   <tile/>
   <tile/>
   <tile/>
   <tile/>
   <tile/>
   <tile/>
   <tile/>
   <tile/>
   <tile/>
   <tile/>
   <tile/>
   <tile/>
   <tile/>
   <tile/>
   <tile/>
   <tile/>
   <tile/>
   <tile/>
   <tile/>
   <tile/>
   <tile/>
   <tile/>
   <tile/>
   <tile/>
   <tile/>
   <tile/>
   <tile/>
   <tile/>
   <tile/>
   <tile/>
   <tile/>
   <tile/>
   <tile/>
   <tile/>
   <tile/>
   <tile/>
   <tile/>
   <tile/>
   <tile/>
   <tile/>
   <tile/>
   <tile/>
   <tile/>
   <tile/>
   <tile/>
   <tile/>
   <tile/>
   <tile/>
   <tile/>
   <tile/>
   <tile/>
   <tile/>
   <tile/>
   <tile/>
   <tile/>
   <tile/>
   <tile/>
   <tile/>
   <tile/>
   <tile/>
   <tile/>
   <tile/>
   <tile/>
   <tile/>
   <tile/>
   <tile/>
   <tile/>
   <tile/>
   <tile/>
   <tile/>
   <tile/>
   <tile/>
   <tile/>
   <tile/>
   <tile/>
   <tile/>
   <tile/>
   <tile/>
   <tile/>
   <tile/>
   <tile/>
   <tile/>
   <tile/>
   <tile/>
   <tile/>
   <tile/>
   <tile/>
   <tile/>
   <tile/>
   <tile/>
   <tile/>
   <tile/>
   <tile/>
   <tile/>
   <tile/>
   <tile/>
   <tile/>
   <tile/>
   <tile/>
   <tile/>
   <tile/>
   <tile/>
   <tile/>
   <tile/>
   <tile/>
   <tile/>
   <tile/>
   <tile/>
   <tile/>
   <tile/>
   <tile/>
   <tile/>
   <tile/>
   <tile/>
   <tile/>
   <tile/>
   <tile/>
   <tile/>
   <tile/>
   <tile/>
   <tile/>
   <tile/>
   <tile/>
   <tile/>
   <tile/>
   <tile/>
   <tile/>
   <tile/>
   <tile/>
   <tile/>
   <tile/>
   <tile/>
   <tile/>
   <tile/>
   <tile/>
   <tile/>
   <tile/>
   <tile/>
   <tile/>
   <tile/>
   <tile/>
   <tile/>
   <tile/>
   <tile/>
   <tile/>
   <tile/>
   <tile/>
   <tile/>
   <tile/>
   <tile/>
   <tile/>
   <tile/>
   <tile/>
   <tile/>
   <tile/>
   <tile/>
   <tile/>
   <tile/>
   <tile/>
   <tile/>
   <tile/>
   <tile/>
   <tile/>
   <tile/>
   <tile/>
   <tile/>
   <tile/>
   <tile/>
   <tile/>
   <tile/>
   <tile/>
   <tile/>
   <tile/>
   <tile/>
   <tile/>
   <tile/>
   <tile/>
   <tile/>
   <tile/>
   <tile/>
   <tile/>
   <tile/>
   <tile/>
   <tile/>
   <tile/>
   <tile/>
   <tile/>
   <tile/>
   <tile/>
   <tile/>
   <tile/>
   <tile/>
   <tile/>
   <tile/>
   <tile/>
   <tile/>
   <tile/>
   <tile/>
   <tile/>
   <tile/>
   <tile/>
   <tile/>
   <tile/>
   <tile/>
   <tile/>
   <tile/>
   <tile/>
   <tile/>
   <tile/>
   <tile/>
   <tile/>
   <tile/>
   <tile/>
   <tile/>
   <tile/>
   <tile/>
   <tile/>
   <tile/>
   <tile/>
   <tile/>
   <tile/>
   <tile/>
   <tile/>
   <tile/>
   <tile/>
   <tile/>
   <tile/>
   <tile/>
   <tile/>
   <tile/>
   <tile/>
   <tile/>
   <tile/>
   <tile/>
   <tile/>
   <tile/>
   <tile/>
   <tile/>
   <tile/>
   <tile/>
   <tile/>
   <tile/>
   <tile/>
   <tile/>
   <tile/>
   <tile/>
   <tile/>
   <tile/>
   <tile/>
   <tile/>
   <tile/>
   <tile/>
   <tile/>
   <tile/>
   <tile/>
   <tile/>
   <tile/>
   <tile/>
   <tile/>
   <tile/>
   <tile/>
   <tile/>
   <tile/>
   <tile/>
   <tile/>
   <tile/>
   <tile/>
   <tile/>
   <tile/>
   <tile/>
   <tile/>
   <tile/>
   <tile/>
   <tile/>
   <tile/>
   <tile/>
   <tile/>
   <tile/>
   <tile/>
   <tile/>
   <tile/>
   <tile/>
   <tile/>
   <tile/>
   <tile/>
   <tile/>
   <tile/>
   <tile/>
   <tile/>
   <tile/>
   <tile/>
   <tile/>
   <tile/>
   <tile/>
   <tile/>
   <tile/>
   <tile/>
   <tile/>
   <tile/>
   <tile/>
   <tile/>
   <tile/>
   <tile/>
   <tile/>
   <tile/>
   <tile/>
   <tile/>
   <tile/>
   <tile/>
   <tile/>
   <tile/>
   <tile/>
   <tile/>
   <tile/>
   <tile/>
   <tile/>
   <tile/>
   <tile/>
   <tile/>
   <tile/>
   <tile/>
   <tile/>
   <tile/>
   <tile/>
   <tile/>
   <tile/>
   <tile/>
   <tile/>
   <tile/>
   <tile/>
   <tile/>
   <tile/>
   <tile/>
   <tile/>
   <tile/>
   <tile/>
   <tile/>
   <tile/>
   <tile/>
   <tile/>
   <tile/>
   <tile/>
   <tile/>
   <tile/>
   <tile/>
   <tile/>
   <tile/>
   <tile/>
   <tile/>
   <tile/>
   <tile/>
   <tile/>
   <tile/>
   <tile/>
   <tile/>
   <tile/>
   <tile/>
   <tile/>
   <tile/>
   <tile/>
   <tile/>
   <tile/>
   <tile/>
   <tile/>
   <tile/>
   <tile/>
   <tile gid="770"/>
   <tile gid="771"/>
   <tile gid="772"/>
   <tile gid="773"/>
   <tile gid="774"/>
   <tile gid="775"/>
   <tile/>
   <tile/>
   <tile/>
   <tile/>
   <tile gid="770"/>
   <tile gid="771"/>
   <tile gid="772"/>
   <tile gid="773"/>
   <tile gid="774"/>
   <tile gid="775"/>
   <tile/>
   <tile/>
   <tile/>
   <tile/>
   <tile/>
   <tile/>
   <tile/>
   <tile/>
   <tile/>
   <tile/>
   <tile/>
   <tile/>
   <tile/>
   <tile/>
   <tile/>
   <tile/>
   <tile/>
   <tile/>
   <tile/>
   <tile/>
   <tile/>
   <tile/>
   <tile/>
   <tile/>
   <tile/>
   <tile/>
   <tile/>
   <tile/>
   <tile/>
   <tile/>
   <tile/>
   <tile/>
   <tile/>
   <tile/>
   <tile/>
   <tile/>
   <tile/>
   <tile/>
   <tile/>
   <tile/>
   <tile/>
   <tile/>
   <tile/>
   <tile/>
   <tile/>
   <tile/>
   <tile/>
   <tile/>
   <tile/>
   <tile/>
   <tile/>
   <tile/>
   <tile/>
   <tile/>
   <tile/>
   <tile/>
   <tile/>
   <tile/>
   <tile/>
   <tile gid="813"/>
   <tile gid="814"/>
   <tile gid="815"/>
   <tile gid="816"/>
   <tile gid="817"/>
   <tile gid="818"/>
   <tile/>
   <tile/>
   <tile/>
   <tile/>
   <tile gid="813"/>
   <tile gid="814"/>
   <tile gid="815"/>
   <tile gid="816"/>
   <tile gid="817"/>
   <tile gid="818"/>
   <tile/>
   <tile/>
   <tile/>
   <tile/>
   <tile/>
   <tile/>
   <tile/>
   <tile/>
   <tile/>
   <tile/>
   <tile/>
   <tile/>
   <tile/>
   <tile/>
   <tile/>
   <tile/>
   <tile/>
   <tile/>
   <tile/>
   <tile/>
   <tile/>
   <tile/>
   <tile/>
   <tile/>
   <tile/>
   <tile/>
   <tile/>
   <tile/>
   <tile/>
   <tile/>
   <tile/>
   <tile/>
   <tile/>
   <tile/>
   <tile/>
   <tile/>
   <tile/>
   <tile/>
   <tile/>
   <tile/>
   <tile/>
   <tile/>
   <tile/>
   <tile/>
   <tile/>
   <tile/>
   <tile/>
   <tile/>
   <tile/>
   <tile/>
   <tile/>
   <tile/>
   <tile/>
   <tile/>
   <tile/>
   <tile/>
   <tile/>
   <tile/>
   <tile/>
   <tile gid="856"/>
   <tile gid="857"/>
   <tile gid="858"/>
   <tile gid="859"/>
   <tile gid="860"/>
   <tile gid="861"/>
   <tile/>
   <tile/>
   <tile/>
   <tile/>
   <tile gid="856"/>
   <tile gid="857"/>
   <tile gid="858"/>
   <tile gid="859"/>
   <tile gid="860"/>
   <tile gid="861"/>
   <tile/>
   <tile/>
   <tile/>
   <tile/>
   <tile/>
   <tile/>
   <tile/>
   <tile/>
   <tile/>
   <tile/>
   <tile/>
   <tile/>
   <tile/>
   <tile/>
   <tile/>
   <tile/>
   <tile/>
   <tile/>
   <tile/>
   <tile/>
   <tile/>
   <tile/>
   <tile/>
   <tile/>
   <tile/>
   <tile/>
   <tile/>
   <tile/>
   <tile/>
   <tile/>
   <tile/>
   <tile/>
   <tile/>
   <tile/>
   <tile/>
   <tile/>
   <tile/>
   <tile/>
   <tile/>
   <tile/>
   <tile/>
   <tile/>
   <tile/>
   <tile/>
   <tile/>
   <tile/>
   <tile/>
   <tile/>
   <tile/>
   <tile/>
   <tile/>
   <tile/>
   <tile/>
   <tile/>
   <tile/>
   <tile/>
   <tile/>
   <tile/>
   <tile/>
   <tile gid="899"/>
   <tile gid="900"/>
   <tile gid="901"/>
   <tile gid="902"/>
   <tile gid="903"/>
   <tile gid="904"/>
   <tile/>
   <tile/>
   <tile/>
   <tile/>
   <tile gid="899"/>
   <tile gid="900"/>
   <tile gid="901"/>
   <tile gid="902"/>
   <tile gid="903"/>
   <tile gid="904"/>
   <tile/>
   <tile/>
   <tile/>
   <tile/>
   <tile/>
   <tile/>
   <tile/>
   <tile/>
   <tile/>
   <tile/>
   <tile/>
   <tile/>
   <tile/>
   <tile/>
   <tile/>
   <tile/>
   <tile/>
   <tile/>
   <tile/>
   <tile/>
   <tile/>
   <tile/>
   <tile/>
   <tile/>
   <tile/>
   <tile/>
   <tile/>
   <tile/>
   <tile/>
   <tile/>
   <tile/>
   <tile/>
   <tile/>
   <tile/>
   <tile/>
   <tile/>
   <tile/>
   <tile/>
   <tile/>
   <tile/>
   <tile/>
   <tile/>
   <tile/>
   <tile/>
   <tile/>
   <tile/>
   <tile/>
   <tile/>
   <tile/>
   <tile/>
   <tile/>
   <tile/>
   <tile/>
   <tile/>
   <tile/>
   <tile/>
   <tile/>
   <tile/>
   <tile/>
   <tile gid="856"/>
   <tile gid="857"/>
   <tile gid="858"/>
   <tile gid="859"/>
   <tile gid="860"/>
   <tile gid="861"/>
   <tile/>
   <tile/>
   <tile/>
   <tile/>
   <tile gid="856"/>
   <tile gid="857"/>
   <tile gid="858"/>
   <tile gid="859"/>
   <tile gid="860"/>
   <tile gid="861"/>
   <tile/>
   <tile/>
   <tile/>
   <tile/>
   <tile/>
   <tile/>
   <tile/>
   <tile/>
   <tile/>
   <tile/>
   <tile/>
   <tile/>
   <tile/>
   <tile/>
   <tile/>
   <tile/>
   <tile/>
   <tile/>
   <tile/>
   <tile/>
   <tile/>
   <tile/>
   <tile/>
   <tile/>
   <tile/>
   <tile/>
   <tile/>
   <tile/>
   <tile/>
   <tile/>
   <tile/>
   <tile/>
   <tile/>
   <tile/>
   <tile/>
   <tile/>
   <tile/>
   <tile/>
   <tile/>
   <tile/>
   <tile/>
   <tile/>
   <tile/>
   <tile/>
   <tile/>
   <tile/>
   <tile/>
   <tile/>
   <tile/>
   <tile/>
   <tile/>
   <tile/>
   <tile/>
   <tile/>
   <tile/>
   <tile/>
   <tile/>
   <tile/>
   <tile/>
   <tile gid="899"/>
   <tile gid="900"/>
   <tile gid="901"/>
   <tile gid="902"/>
   <tile gid="903"/>
   <tile gid="904"/>
   <tile/>
   <tile/>
   <tile/>
   <tile/>
   <tile gid="899"/>
   <tile gid="900"/>
   <tile gid="901"/>
   <tile gid="902"/>
   <tile gid="903"/>
   <tile gid="904"/>
   <tile/>
   <tile/>
   <tile/>
   <tile/>
   <tile/>
   <tile/>
   <tile/>
   <tile/>
   <tile/>
   <tile/>
   <tile/>
   <tile/>
   <tile/>
   <tile/>
   <tile/>
   <tile/>
   <tile/>
   <tile/>
   <tile/>
   <tile/>
   <tile/>
   <tile/>
   <tile/>
   <tile/>
   <tile/>
   <tile/>
   <tile/>
   <tile/>
   <tile/>
   <tile/>
   <tile/>
   <tile/>
   <tile/>
   <tile/>
   <tile/>
   <tile/>
   <tile/>
   <tile/>
   <tile/>
   <tile/>
   <tile/>
   <tile/>
   <tile/>
   <tile/>
   <tile/>
   <tile/>
   <tile/>
   <tile/>
   <tile/>
   <tile/>
   <tile/>
   <tile/>
   <tile/>
   <tile/>
   <tile/>
   <tile/>
   <tile/>
   <tile/>
   <tile/>
   <tile gid="856"/>
   <tile gid="857"/>
   <tile gid="858"/>
   <tile gid="859"/>
   <tile gid="860"/>
   <tile gid="861"/>
   <tile/>
   <tile/>
   <tile/>
   <tile/>
   <tile gid="856"/>
   <tile gid="857"/>
   <tile gid="858"/>
   <tile gid="859"/>
   <tile gid="860"/>
   <tile gid="861"/>
   <tile/>
   <tile/>
   <tile/>
   <tile/>
   <tile/>
   <tile/>
   <tile/>
   <tile/>
   <tile/>
   <tile/>
   <tile/>
   <tile/>
   <tile/>
   <tile/>
   <tile/>
   <tile/>
   <tile/>
   <tile/>
   <tile/>
   <tile/>
   <tile/>
   <tile/>
   <tile/>
   <tile/>
   <tile/>
   <tile/>
   <tile/>
   <tile/>
   <tile/>
   <tile/>
   <tile/>
   <tile/>
   <tile/>
   <tile/>
   <tile/>
   <tile/>
   <tile/>
   <tile/>
   <tile/>
   <tile/>
   <tile/>
   <tile/>
   <tile/>
   <tile/>
   <tile/>
   <tile/>
   <tile/>
   <tile/>
   <tile/>
   <tile/>
   <tile/>
   <tile/>
   <tile/>
   <tile/>
   <tile/>
   <tile/>
   <tile/>
   <tile/>
   <tile/>
   <tile gid="899"/>
   <tile gid="900"/>
   <tile gid="901"/>
   <tile gid="902"/>
   <tile gid="903"/>
   <tile gid="904"/>
   <tile/>
   <tile/>
   <tile/>
   <tile/>
   <tile gid="899"/>
   <tile gid="900"/>
   <tile gid="901"/>
   <tile gid="902"/>
   <tile gid="903"/>
   <tile gid="904"/>
   <tile/>
   <tile/>
   <tile/>
   <tile/>
   <tile/>
   <tile/>
   <tile/>
   <tile/>
   <tile/>
   <tile/>
   <tile/>
   <tile/>
   <tile/>
   <tile/>
   <tile/>
   <tile/>
   <tile/>
   <tile/>
   <tile/>
   <tile/>
   <tile/>
   <tile/>
   <tile/>
   <tile/>
   <tile/>
   <tile/>
   <tile/>
   <tile/>
   <tile/>
   <tile/>
   <tile/>
   <tile/>
   <tile/>
   <tile/>
   <tile/>
   <tile/>
   <tile/>
   <tile/>
   <tile/>
   <tile/>
   <tile/>
   <tile/>
   <tile/>
   <tile/>
   <tile/>
   <tile/>
   <tile/>
   <tile/>
   <tile/>
   <tile/>
   <tile/>
   <tile/>
   <tile/>
   <tile/>
   <tile/>
   <tile/>
   <tile/>
   <tile/>
   <tile/>
   <tile gid="856"/>
   <tile gid="857"/>
   <tile gid="858"/>
   <tile gid="859"/>
   <tile gid="860"/>
   <tile gid="861"/>
   <tile/>
   <tile/>
   <tile/>
   <tile/>
   <tile gid="856"/>
   <tile gid="857"/>
   <tile gid="858"/>
   <tile gid="859"/>
   <tile gid="860"/>
   <tile gid="861"/>
   <tile/>
   <tile/>
   <tile/>
   <tile/>
   <tile/>
   <tile/>
   <tile/>
   <tile/>
   <tile/>
   <tile/>
   <tile/>
   <tile/>
   <tile/>
   <tile/>
   <tile/>
   <tile/>
   <tile/>
   <tile/>
   <tile/>
   <tile/>
   <tile/>
   <tile/>
   <tile/>
   <tile/>
   <tile/>
   <tile/>
   <tile/>
   <tile/>
   <tile/>
   <tile/>
   <tile/>
   <tile/>
   <tile/>
   <tile/>
   <tile/>
   <tile/>
   <tile/>
   <tile/>
   <tile/>
   <tile/>
   <tile/>
   <tile/>
   <tile/>
   <tile/>
   <tile/>
   <tile/>
   <tile/>
   <tile/>
   <tile/>
   <tile/>
   <tile/>
   <tile/>
   <tile/>
   <tile/>
   <tile/>
   <tile/>
   <tile/>
   <tile/>
   <tile/>
   <tile gid="899"/>
   <tile gid="900"/>
   <tile gid="901"/>
   <tile gid="902"/>
   <tile gid="903"/>
   <tile gid="904"/>
   <tile/>
   <tile/>
   <tile/>
   <tile/>
   <tile gid="899"/>
   <tile gid="900"/>
   <tile gid="901"/>
   <tile gid="902"/>
   <tile gid="903"/>
   <tile gid="904"/>
   <tile/>
   <tile/>
   <tile/>
   <tile/>
   <tile/>
   <tile/>
   <tile/>
   <tile/>
   <tile/>
   <tile/>
   <tile/>
   <tile/>
   <tile/>
   <tile/>
   <tile/>
   <tile/>
   <tile/>
   <tile/>
   <tile/>
   <tile/>
   <tile/>
   <tile/>
   <tile/>
   <tile/>
   <tile/>
   <tile/>
   <tile/>
   <tile/>
   <tile/>
   <tile/>
   <tile/>
   <tile/>
   <tile/>
   <tile/>
   <tile/>
   <tile/>
   <tile/>
   <tile/>
   <tile/>
   <tile/>
   <tile/>
   <tile/>
   <tile/>
   <tile/>
   <tile/>
   <tile/>
   <tile/>
   <tile/>
   <tile/>
   <tile/>
   <tile/>
   <tile/>
   <tile/>
   <tile/>
   <tile/>
   <tile/>
   <tile/>
   <tile/>
   <tile/>
   <tile gid="942"/>
   <tile gid="943"/>
   <tile gid="944"/>
   <tile gid="945"/>
   <tile gid="946"/>
   <tile gid="947"/>
   <tile/>
   <tile/>
   <tile/>
   <tile/>
   <tile gid="942"/>
   <tile gid="943"/>
   <tile gid="944"/>
   <tile gid="945"/>
   <tile gid="946"/>
   <tile gid="947"/>
   <tile/>
   <tile/>
   <tile/>
   <tile/>
   <tile/>
   <tile/>
   <tile/>
   <tile/>
   <tile/>
   <tile/>
   <tile/>
   <tile/>
   <tile/>
   <tile/>
   <tile/>
   <tile/>
   <tile/>
   <tile/>
   <tile/>
   <tile/>
   <tile/>
   <tile/>
   <tile/>
   <tile/>
   <tile/>
   <tile/>
   <tile/>
   <tile/>
   <tile/>
   <tile/>
   <tile/>
   <tile/>
   <tile/>
   <tile/>
   <tile/>
   <tile/>
   <tile/>
   <tile/>
   <tile/>
   <tile/>
   <tile/>
   <tile/>
   <tile/>
   <tile/>
   <tile/>
   <tile/>
   <tile/>
   <tile/>
   <tile/>
   <tile/>
   <tile/>
   <tile/>
   <tile/>
   <tile/>
   <tile/>
   <tile/>
   <tile/>
   <tile/>
   <tile/>
   <tile gid="985"/>
   <tile gid="986"/>
   <tile gid="987"/>
   <tile gid="988"/>
   <tile gid="989"/>
   <tile gid="990"/>
   <tile/>
   <tile/>
   <tile/>
   <tile/>
   <tile gid="985"/>
   <tile gid="986"/>
   <tile gid="987"/>
   <tile gid="988"/>
   <tile gid="989"/>
   <tile gid="990"/>
   <tile/>
   <tile/>
   <tile/>
   <tile/>
   <tile/>
   <tile/>
   <tile/>
   <tile/>
   <tile/>
   <tile/>
   <tile/>
   <tile/>
   <tile/>
   <tile/>
   <tile/>
   <tile/>
   <tile/>
   <tile/>
   <tile/>
   <tile/>
   <tile/>
   <tile/>
   <tile/>
   <tile/>
   <tile/>
   <tile/>
   <tile/>
   <tile/>
   <tile/>
   <tile/>
   <tile/>
   <tile/>
   <tile/>
   <tile/>
   <tile/>
   <tile/>
   <tile/>
   <tile/>
   <tile/>
   <tile/>
   <tile/>
   <tile/>
   <tile/>
   <tile/>
   <tile/>
   <tile/>
   <tile/>
   <tile/>
   <tile/>
   <tile/>
   <tile/>
   <tile/>
   <tile/>
   <tile/>
   <tile/>
   <tile/>
   <tile/>
   <tile/>
   <tile/>
   <tile/>
   <tile/>
   <tile/>
   <tile/>
   <tile/>
   <tile/>
   <tile/>
   <tile/>
   <tile/>
   <tile/>
   <tile/>
   <tile/>
   <tile/>
   <tile/>
   <tile/>
   <tile/>
   <tile/>
   <tile/>
   <tile/>
   <tile/>
   <tile/>
   <tile/>
   <tile/>
   <tile/>
   <tile/>
   <tile/>
   <tile/>
   <tile/>
   <tile/>
   <tile/>
   <tile/>
   <tile/>
   <tile/>
   <tile/>
   <tile/>
   <tile/>
   <tile/>
   <tile/>
   <tile/>
   <tile/>
   <tile/>
   <tile/>
   <tile/>
   <tile/>
   <tile/>
   <tile/>
   <tile/>
   <tile/>
   <tile/>
   <tile/>
   <tile/>
   <tile/>
   <tile/>
   <tile/>
   <tile/>
   <tile/>
   <tile/>
   <tile/>
   <tile/>
   <tile/>
   <tile/>
   <tile/>
   <tile/>
   <tile/>
   <tile/>
   <tile/>
   <tile/>
   <tile/>
   <tile/>
   <tile/>
   <tile/>
   <tile/>
   <tile/>
   <tile/>
   <tile/>
   <tile/>
   <tile/>
   <tile/>
   <tile/>
   <tile/>
   <tile/>
   <tile/>
   <tile/>
   <tile/>
   <tile/>
   <tile/>
   <tile/>
   <tile/>
   <tile/>
   <tile/>
   <tile/>
   <tile/>
   <tile/>
   <tile/>
   <tile/>
   <tile/>
   <tile/>
   <tile/>
   <tile/>
   <tile/>
  </data>
 </layer>
 <layer id="10" name="Map" width="75" height="64">
  <properties>
   <property name="Draw" type="bool" value="true"/>
  </properties>
  <data>
   <tile gid="788"/>
   <tile gid="788"/>
   <tile gid="788"/>
   <tile gid="788"/>
   <tile gid="788"/>
   <tile gid="788"/>
   <tile gid="788"/>
   <tile gid="788"/>
   <tile gid="788"/>
   <tile gid="788"/>
   <tile gid="788"/>
   <tile gid="788"/>
   <tile gid="788"/>
   <tile gid="788"/>
   <tile gid="788"/>
   <tile gid="788"/>
   <tile gid="788"/>
   <tile gid="788"/>
   <tile gid="788"/>
   <tile gid="788"/>
   <tile gid="788"/>
   <tile gid="788"/>
   <tile gid="788"/>
   <tile gid="788"/>
   <tile gid="788"/>
   <tile gid="788"/>
   <tile gid="788"/>
   <tile gid="788"/>
   <tile gid="788"/>
   <tile gid="788"/>
   <tile gid="788"/>
   <tile gid="788"/>
   <tile gid="3221226259"/>
   <tile gid="3221226259"/>
   <tile gid="3221226259"/>
   <tile gid="788"/>
   <tile gid="788"/>
   <tile gid="788"/>
   <tile gid="788"/>
   <tile gid="788"/>
   <tile gid="788"/>
   <tile gid="788"/>
   <tile gid="788"/>
   <tile gid="788"/>
   <tile gid="788"/>
   <tile gid="788"/>
   <tile gid="788"/>
   <tile gid="788"/>
   <tile gid="788"/>
   <tile gid="788"/>
   <tile gid="788"/>
   <tile gid="788"/>
   <tile gid="788"/>
   <tile gid="788"/>
   <tile gid="788"/>
   <tile gid="788"/>
   <tile gid="788"/>
   <tile gid="788"/>
   <tile gid="788"/>
   <tile gid="788"/>
   <tile gid="788"/>
   <tile gid="788"/>
   <tile gid="788"/>
   <tile gid="788"/>
   <tile gid="788"/>
   <tile gid="788"/>
   <tile gid="788"/>
   <tile gid="788"/>
   <tile gid="788"/>
   <tile gid="788"/>
   <tile gid="788"/>
   <tile gid="788"/>
   <tile gid="788"/>
   <tile gid="788"/>
   <tile gid="788"/>
   <tile gid="788"/>
   <tile gid="788"/>
   <tile gid="788"/>
   <tile gid="788"/>
   <tile gid="788"/>
   <tile gid="788"/>
   <tile gid="788"/>
   <tile gid="788"/>
   <tile gid="788"/>
   <tile gid="788"/>
   <tile gid="788"/>
   <tile gid="788"/>
   <tile gid="788"/>
   <tile gid="788"/>
   <tile gid="788"/>
   <tile gid="788"/>
   <tile gid="788"/>
   <tile gid="788"/>
   <tile gid="788"/>
   <tile gid="788"/>
   <tile gid="788"/>
   <tile gid="788"/>
   <tile gid="788"/>
   <tile gid="788"/>
   <tile gid="788"/>
   <tile gid="788"/>
   <tile gid="788"/>
   <tile gid="788"/>
   <tile gid="788"/>
   <tile gid="788"/>
   <tile gid="788"/>
   <tile gid="788"/>
   <tile gid="788"/>
   <tile gid="788"/>
   <tile gid="788"/>
   <tile gid="788"/>
   <tile gid="788"/>
   <tile gid="788"/>
   <tile gid="788"/>
   <tile gid="788"/>
   <tile gid="788"/>
   <tile gid="788"/>
   <tile gid="788"/>
   <tile gid="788"/>
   <tile gid="788"/>
   <tile gid="788"/>
   <tile gid="788"/>
   <tile gid="788"/>
   <tile gid="788"/>
   <tile gid="788"/>
   <tile gid="788"/>
   <tile gid="788"/>
   <tile gid="788"/>
   <tile gid="788"/>
   <tile gid="788"/>
   <tile gid="788"/>
   <tile gid="788"/>
   <tile gid="788"/>
   <tile gid="788"/>
   <tile gid="788"/>
   <tile gid="788"/>
   <tile gid="788"/>
   <tile gid="788"/>
   <tile gid="788"/>
   <tile gid="788"/>
   <tile gid="788"/>
   <tile gid="788"/>
   <tile gid="788"/>
   <tile gid="788"/>
   <tile gid="788"/>
   <tile gid="788"/>
   <tile gid="788"/>
   <tile gid="788"/>
   <tile gid="788"/>
   <tile gid="788"/>
   <tile gid="788"/>
   <tile gid="788"/>
   <tile gid="788"/>
   <tile gid="788"/>
   <tile gid="788"/>
   <tile gid="788"/>
   <tile gid="788"/>
   <tile gid="788"/>
   <tile gid="788"/>
   <tile gid="788"/>
   <tile gid="788"/>
   <tile gid="788"/>
   <tile gid="788"/>
   <tile gid="788"/>
   <tile gid="788"/>
   <tile gid="788"/>
   <tile gid="788"/>
   <tile gid="788"/>
   <tile gid="788"/>
   <tile gid="788"/>
   <tile gid="788"/>
   <tile gid="788"/>
   <tile gid="788"/>
   <tile gid="788"/>
   <tile gid="788"/>
   <tile gid="788"/>
   <tile gid="788"/>
   <tile gid="788"/>
   <tile gid="788"/>
   <tile gid="788"/>
   <tile gid="788"/>
   <tile gid="788"/>
   <tile gid="788"/>
   <tile gid="788"/>
   <tile gid="788"/>
   <tile gid="788"/>
   <tile gid="788"/>
   <tile gid="788"/>
   <tile gid="788"/>
   <tile gid="788"/>
   <tile gid="788"/>
   <tile gid="788"/>
   <tile gid="788"/>
   <tile gid="788"/>
   <tile gid="788"/>
   <tile gid="788"/>
   <tile gid="788"/>
   <tile gid="788"/>
   <tile gid="788"/>
   <tile gid="788"/>
   <tile gid="788"/>
   <tile gid="788"/>
   <tile gid="788"/>
   <tile gid="788"/>
   <tile gid="788"/>
   <tile gid="788"/>
   <tile gid="788"/>
   <tile gid="788"/>
   <tile gid="788"/>
   <tile gid="788"/>
   <tile gid="788"/>
   <tile gid="788"/>
   <tile gid="788"/>
   <tile gid="788"/>
   <tile gid="788"/>
   <tile gid="788"/>
   <tile gid="788"/>
   <tile gid="788"/>
   <tile gid="788"/>
   <tile gid="788"/>
   <tile gid="788"/>
   <tile gid="788"/>
   <tile gid="788"/>
   <tile gid="788"/>
   <tile gid="788"/>
   <tile gid="788"/>
   <tile gid="788"/>
   <tile gid="788"/>
   <tile gid="788"/>
   <tile gid="788"/>
   <tile gid="788"/>
   <tile gid="788"/>
   <tile gid="788"/>
   <tile gid="788"/>
   <tile gid="788"/>
   <tile gid="788"/>
   <tile gid="788"/>
   <tile gid="788"/>
   <tile gid="788"/>
   <tile gid="788"/>
   <tile gid="788"/>
   <tile gid="788"/>
   <tile gid="788"/>
   <tile gid="788"/>
   <tile gid="788"/>
   <tile gid="788"/>
   <tile gid="788"/>
   <tile gid="788"/>
   <tile gid="788"/>
   <tile gid="788"/>
   <tile gid="788"/>
   <tile gid="788"/>
   <tile gid="788"/>
   <tile gid="788"/>
   <tile gid="788"/>
   <tile gid="788"/>
   <tile gid="788"/>
   <tile gid="788"/>
   <tile gid="788"/>
   <tile gid="788"/>
   <tile gid="788"/>
   <tile gid="788"/>
   <tile gid="788"/>
   <tile gid="788"/>
   <tile gid="788"/>
   <tile gid="788"/>
   <tile gid="788"/>
   <tile gid="788"/>
   <tile gid="788"/>
   <tile gid="788"/>
   <tile gid="788"/>
   <tile gid="788"/>
   <tile gid="788"/>
   <tile gid="788"/>
   <tile gid="788"/>
   <tile gid="788"/>
   <tile gid="788"/>
   <tile gid="788"/>
   <tile gid="788"/>
   <tile gid="788"/>
   <tile gid="788"/>
   <tile gid="788"/>
   <tile gid="788"/>
   <tile gid="788"/>
   <tile gid="788"/>
   <tile gid="788"/>
   <tile gid="788"/>
   <tile gid="788"/>
   <tile gid="788"/>
   <tile gid="788"/>
   <tile gid="788"/>
   <tile gid="788"/>
   <tile gid="788"/>
   <tile gid="788"/>
   <tile gid="788"/>
   <tile gid="788"/>
   <tile gid="788"/>
   <tile gid="788"/>
   <tile gid="788"/>
   <tile gid="788"/>
   <tile gid="788"/>
   <tile gid="788"/>
   <tile gid="788"/>
   <tile gid="788"/>
   <tile gid="788"/>
   <tile gid="788"/>
   <tile gid="788"/>
   <tile gid="788"/>
   <tile gid="788"/>
   <tile gid="788"/>
   <tile gid="788"/>
   <tile gid="788"/>
   <tile gid="3221226259"/>
   <tile gid="3221226259"/>
   <tile gid="3221226259"/>
   <tile gid="3221226259"/>
   <tile gid="3221226259"/>
   <tile gid="3221226259"/>
   <tile gid="3221226259"/>
   <tile gid="3221226259"/>
   <tile gid="3221226259"/>
   <tile gid="3221226259"/>
   <tile gid="3221226259"/>
   <tile gid="3221226259"/>
   <tile gid="3221226259"/>
   <tile gid="3221226259"/>
   <tile gid="3221226259"/>
   <tile gid="3221226259"/>
   <tile gid="3221226259"/>
   <tile gid="3221226259"/>
   <tile gid="3221226259"/>
   <tile gid="788"/>
   <tile gid="788"/>
   <tile gid="788"/>
   <tile gid="788"/>
   <tile gid="788"/>
   <tile gid="788"/>
   <tile gid="3221226259"/>
   <tile gid="3221226259"/>
   <tile gid="3221226259"/>
   <tile gid="3221226259"/>
   <tile gid="3221226259"/>
   <tile gid="3221226259"/>
   <tile gid="3221226259"/>
   <tile gid="3221226259"/>
   <tile gid="3221226259"/>
   <tile gid="3221226259"/>
   <tile gid="3221226259"/>
   <tile gid="3221226259"/>
   <tile gid="3221226259"/>
   <tile gid="3221226259"/>
   <tile gid="3221226259"/>
   <tile gid="3221226259"/>
   <tile gid="3221226259"/>
   <tile gid="3221226259"/>
   <tile gid="3221226259"/>
   <tile gid="3221226259"/>
   <tile gid="3221226259"/>
   <tile gid="3221226259"/>
   <tile gid="3221226259"/>
   <tile gid="788"/>
   <tile gid="788"/>
   <tile gid="788"/>
   <tile gid="788"/>
   <tile gid="788"/>
   <tile gid="788"/>
   <tile gid="788"/>
   <tile gid="788"/>
   <tile gid="788"/>
   <tile gid="788"/>
   <tile gid="788"/>
   <tile gid="788"/>
   <tile gid="788"/>
   <tile gid="788"/>
   <tile gid="788"/>
   <tile gid="788"/>
   <tile gid="788"/>
   <tile gid="788"/>
   <tile gid="788"/>
   <tile gid="788"/>
   <tile gid="788"/>
   <tile gid="788"/>
   <tile gid="788"/>
   <tile gid="788"/>
   <tile gid="788"/>
   <tile gid="788"/>
   <tile gid="788"/>
   <tile gid="3221226259"/>
   <tile gid="831"/>
   <tile gid="831"/>
   <tile gid="832"/>
   <tile gid="832"/>
   <tile gid="831"/>
   <tile gid="830"/>
   <tile gid="831"/>
   <tile gid="831"/>
   <tile gid="831"/>
   <tile gid="831"/>
   <tile gid="832"/>
   <tile gid="831"/>
   <tile gid="831"/>
   <tile gid="832"/>
   <tile gid="831"/>
   <tile gid="831"/>
   <tile gid="831"/>
   <tile gid="3221226259"/>
   <tile gid="788"/>
   <tile gid="788"/>
   <tile gid="788"/>
   <tile gid="788"/>
   <tile gid="788"/>
   <tile gid="788"/>
   <tile gid="3221226259"/>
   <tile gid="831"/>
   <tile gid="831"/>
   <tile gid="831"/>
   <tile gid="832"/>
   <tile gid="831"/>
   <tile gid="830"/>
   <tile gid="830"/>
   <tile gid="831"/>
   <tile gid="831"/>
   <tile gid="832"/>
   <tile gid="830"/>
   <tile gid="830"/>
   <tile gid="830"/>
   <tile gid="832"/>
   <tile gid="830"/>
   <tile gid="832"/>
   <tile gid="831"/>
   <tile gid="831"/>
   <tile gid="830"/>
   <tile gid="831"/>
   <tile gid="831"/>
   <tile gid="831"/>
   <tile gid="788"/>
   <tile gid="788"/>
   <tile gid="788"/>
   <tile gid="788"/>
   <tile gid="788"/>
   <tile gid="788"/>
   <tile gid="788"/>
   <tile gid="788"/>
   <tile gid="788"/>
   <tile gid="788"/>
   <tile gid="788"/>
   <tile gid="788"/>
   <tile gid="788"/>
   <tile gid="788"/>
   <tile gid="788"/>
   <tile gid="788"/>
   <tile gid="788"/>
   <tile gid="788"/>
   <tile gid="788"/>
   <tile gid="788"/>
   <tile gid="788"/>
   <tile gid="788"/>
   <tile gid="788"/>
   <tile gid="788"/>
   <tile gid="788"/>
   <tile gid="788"/>
   <tile gid="788"/>
   <tile gid="3221226259"/>
   <tile gid="790"/>
   <tile/>
   <tile/>
   <tile/>
   <tile/>
   <tile/>
   <tile/>
   <tile/>
   <tile/>
   <tile/>
   <tile/>
   <tile/>
   <tile/>
   <tile/>
   <tile/>
   <tile/>
   <tile gid="786"/>
   <tile gid="3221226259"/>
   <tile gid="788"/>
   <tile gid="788"/>
   <tile gid="788"/>
   <tile gid="788"/>
   <tile gid="788"/>
   <tile gid="788"/>
   <tile gid="3221226259"/>
   <tile gid="3221226259"/>
   <tile gid="790"/>
   <tile/>
   <tile/>
   <tile/>
   <tile/>
   <tile/>
   <tile/>
   <tile/>
   <tile/>
   <tile/>
   <tile/>
   <tile/>
   <tile/>
   <tile/>
   <tile/>
   <tile/>
   <tile/>
   <tile/>
   <tile gid="829"/>
   <tile gid="786"/>
   <tile gid="3221226259"/>
   <tile gid="788"/>
   <tile gid="788"/>
   <tile gid="788"/>
   <tile gid="788"/>
   <tile gid="788"/>
   <tile gid="788"/>
   <tile gid="788"/>
   <tile gid="788"/>
   <tile gid="788"/>
   <tile gid="788"/>
   <tile gid="788"/>
   <tile gid="788"/>
   <tile gid="788"/>
   <tile gid="788"/>
   <tile gid="788"/>
   <tile gid="788"/>
   <tile gid="788"/>
   <tile gid="788"/>
   <tile gid="788"/>
   <tile gid="788"/>
   <tile gid="788"/>
   <tile gid="788"/>
   <tile gid="788"/>
   <tile gid="788"/>
   <tile gid="788"/>
   <tile gid="788"/>
   <tile gid="788"/>
   <tile gid="3221226259"/>
   <tile gid="790"/>
   <tile/>
   <tile/>
   <tile/>
   <tile/>
   <tile/>
   <tile/>
   <tile/>
   <tile/>
   <tile/>
   <tile/>
   <tile/>
   <tile/>
   <tile/>
   <tile/>
   <tile/>
   <tile gid="786"/>
   <tile gid="3221226259"/>
   <tile gid="788"/>
   <tile gid="788"/>
   <tile gid="788"/>
   <tile gid="788"/>
   <tile gid="788"/>
   <tile gid="788"/>
   <tile gid="3221226259"/>
   <tile gid="3221226259"/>
   <tile gid="790"/>
   <tile/>
   <tile/>
   <tile/>
   <tile/>
   <tile/>
   <tile/>
   <tile/>
   <tile/>
   <tile/>
   <tile/>
   <tile/>
   <tile/>
   <tile/>
   <tile/>
   <tile/>
   <tile/>
   <tile/>
   <tile/>
   <tile gid="786"/>
   <tile gid="3221226259"/>
   <tile gid="788"/>
   <tile gid="788"/>
   <tile gid="788"/>
   <tile gid="788"/>
   <tile gid="788"/>
   <tile gid="788"/>
   <tile gid="788"/>
   <tile gid="788"/>
   <tile gid="788"/>
   <tile gid="788"/>
   <tile gid="788"/>
   <tile gid="788"/>
   <tile gid="788"/>
   <tile gid="788"/>
   <tile gid="788"/>
   <tile gid="788"/>
   <tile gid="788"/>
   <tile gid="788"/>
   <tile gid="788"/>
   <tile gid="788"/>
   <tile gid="788"/>
   <tile gid="788"/>
   <tile gid="788"/>
   <tile gid="788"/>
   <tile gid="788"/>
   <tile gid="788"/>
   <tile gid="788"/>
   <tile gid="3221226259"/>
   <tile gid="790"/>
   <tile/>
   <tile/>
   <tile/>
   <tile/>
   <tile/>
   <tile/>
   <tile/>
   <tile/>
   <tile/>
   <tile/>
   <tile/>
   <tile/>
   <tile/>
   <tile/>
   <tile/>
   <tile gid="786"/>
   <tile gid="3221226259"/>
   <tile gid="788"/>
   <tile gid="788"/>
   <tile gid="788"/>
   <tile gid="788"/>
   <tile gid="788"/>
   <tile gid="788"/>
   <tile gid="3221226259"/>
   <tile gid="3221226259"/>
   <tile gid="790"/>
   <tile/>
   <tile/>
   <tile/>
   <tile/>
   <tile/>
   <tile/>
   <tile/>
   <tile/>
   <tile/>
   <tile/>
   <tile gid="3"/>
   <tile/>
   <tile/>
   <tile gid="3"/>
   <tile/>
   <tile/>
   <tile/>
   <tile/>
   <tile gid="786"/>
   <tile gid="3221226259"/>
   <tile gid="788"/>
   <tile gid="788"/>
   <tile gid="788"/>
   <tile gid="788"/>
   <tile gid="788"/>
   <tile gid="788"/>
   <tile gid="788"/>
   <tile gid="788"/>
   <tile gid="788"/>
   <tile gid="788"/>
   <tile gid="788"/>
   <tile gid="788"/>
   <tile gid="788"/>
   <tile gid="788"/>
   <tile gid="788"/>
   <tile gid="788"/>
   <tile gid="788"/>
   <tile gid="788"/>
   <tile gid="788"/>
   <tile gid="788"/>
   <tile gid="788"/>
   <tile gid="788"/>
   <tile gid="788"/>
   <tile gid="788"/>
   <tile gid="788"/>
   <tile gid="788"/>
   <tile gid="788"/>
   <tile gid="3221226259"/>
   <tile gid="790"/>
   <tile/>
   <tile/>
   <tile/>
   <tile/>
   <tile/>
   <tile/>
   <tile/>
   <tile/>
   <tile/>
   <tile/>
   <tile/>
   <tile/>
   <tile/>
   <tile/>
   <tile/>
   <tile gid="786"/>
   <tile gid="3221226259"/>
   <tile gid="788"/>
   <tile gid="788"/>
   <tile gid="788"/>
   <tile gid="788"/>
   <tile gid="788"/>
   <tile gid="788"/>
   <tile gid="3221226259"/>
   <tile gid="3221226259"/>
   <tile gid="790"/>
   <tile/>
   <tile/>
   <tile/>
   <tile/>
   <tile/>
   <tile/>
   <tile/>
   <tile/>
   <tile/>
   <tile/>
   <tile gid="3"/>
   <tile/>
   <tile/>
   <tile gid="3"/>
   <tile/>
   <tile/>
   <tile/>
   <tile/>
   <tile gid="786"/>
   <tile gid="3221226259"/>
   <tile gid="788"/>
   <tile gid="788"/>
   <tile gid="788"/>
   <tile gid="788"/>
   <tile gid="788"/>
   <tile gid="788"/>
   <tile gid="788"/>
   <tile gid="788"/>
   <tile gid="788"/>
   <tile gid="788"/>
   <tile gid="788"/>
   <tile gid="788"/>
   <tile gid="788"/>
   <tile gid="788"/>
   <tile gid="788"/>
   <tile gid="788"/>
   <tile gid="788"/>
   <tile gid="788"/>
   <tile gid="788"/>
   <tile gid="788"/>
   <tile gid="788"/>
   <tile gid="788"/>
   <tile gid="788"/>
   <tile gid="788"/>
   <tile gid="788"/>
   <tile gid="788"/>
   <tile gid="788"/>
   <tile gid="3221226259"/>
   <tile gid="790"/>
   <tile/>
   <tile/>
   <tile/>
   <tile/>
   <tile/>
   <tile/>
   <tile/>
   <tile/>
   <tile/>
   <tile/>
   <tile/>
   <tile/>
   <tile/>
   <tile/>
   <tile/>
   <tile gid="786"/>
   <tile gid="3221226259"/>
   <tile gid="788"/>
   <tile gid="788"/>
   <tile gid="788"/>
   <tile gid="788"/>
   <tile gid="788"/>
   <tile gid="788"/>
   <tile gid="3221226259"/>
   <tile gid="3221226259"/>
   <tile gid="790"/>
   <tile/>
   <tile/>
   <tile/>
   <tile/>
   <tile/>
   <tile/>
   <tile/>
   <tile/>
   <tile/>
   <tile/>
   <tile gid="3"/>
   <tile gid="3"/>
   <tile gid="3"/>
   <tile gid="3"/>
   <tile/>
   <tile/>
   <tile/>
   <tile/>
   <tile gid="786"/>
   <tile gid="3221226259"/>
   <tile gid="788"/>
   <tile gid="788"/>
   <tile gid="788"/>
   <tile gid="788"/>
   <tile gid="788"/>
   <tile gid="788"/>
   <tile gid="788"/>
   <tile gid="788"/>
   <tile gid="788"/>
   <tile gid="788"/>
   <tile gid="788"/>
   <tile gid="788"/>
   <tile gid="788"/>
   <tile gid="788"/>
   <tile gid="788"/>
   <tile gid="788"/>
   <tile gid="788"/>
   <tile gid="788"/>
   <tile gid="788"/>
   <tile gid="788"/>
   <tile gid="788"/>
   <tile gid="788"/>
   <tile gid="788"/>
   <tile gid="788"/>
   <tile gid="788"/>
   <tile gid="788"/>
   <tile gid="788"/>
   <tile gid="3221226259"/>
   <tile gid="790"/>
   <tile/>
   <tile/>
   <tile/>
   <tile/>
   <tile/>
   <tile/>
   <tile/>
   <tile/>
   <tile/>
   <tile/>
   <tile/>
   <tile/>
   <tile/>
   <tile/>
   <tile/>
   <tile gid="786"/>
   <tile gid="3221226259"/>
   <tile gid="788"/>
   <tile gid="788"/>
   <tile gid="788"/>
   <tile gid="788"/>
   <tile gid="788"/>
   <tile gid="788"/>
   <tile gid="3221226259"/>
   <tile gid="3221226259"/>
   <tile gid="790"/>
   <tile/>
   <tile/>
   <tile/>
   <tile/>
   <tile/>
   <tile/>
   <tile/>
   <tile/>
   <tile/>
   <tile/>
   <tile gid="3"/>
   <tile/>
   <tile/>
   <tile gid="3"/>
   <tile/>
   <tile/>
   <tile/>
   <tile/>
   <tile gid="786"/>
   <tile gid="3221226259"/>
   <tile gid="788"/>
   <tile gid="788"/>
   <tile gid="788"/>
   <tile gid="788"/>
   <tile gid="788"/>
   <tile gid="788"/>
   <tile gid="788"/>
   <tile gid="788"/>
   <tile gid="788"/>
   <tile gid="788"/>
   <tile gid="788"/>
   <tile gid="788"/>
   <tile gid="788"/>
   <tile gid="788"/>
   <tile gid="788"/>
   <tile gid="788"/>
   <tile gid="788"/>
   <tile gid="788"/>
   <tile gid="788"/>
   <tile gid="788"/>
   <tile gid="788"/>
   <tile gid="788"/>
   <tile gid="788"/>
   <tile gid="788"/>
   <tile gid="788"/>
   <tile gid="788"/>
   <tile gid="788"/>
   <tile gid="3221226259"/>
   <tile gid="790"/>
   <tile/>
   <tile/>
   <tile/>
   <tile/>
   <tile/>
   <tile/>
   <tile/>
   <tile/>
   <tile/>
   <tile/>
   <tile/>
   <tile/>
   <tile/>
   <tile/>
   <tile/>
   <tile gid="786"/>
   <tile gid="3221226259"/>
   <tile gid="788"/>
   <tile gid="788"/>
   <tile gid="788"/>
   <tile gid="788"/>
   <tile gid="788"/>
   <tile gid="788"/>
   <tile gid="3221226259"/>
   <tile gid="3221226259"/>
   <tile gid="790"/>
   <tile/>
   <tile/>
   <tile/>
   <tile/>
   <tile/>
   <tile/>
   <tile/>
   <tile/>
   <tile/>
   <tile/>
   <tile/>
   <tile/>
   <tile/>
   <tile/>
   <tile/>
   <tile/>
   <tile/>
   <tile/>
   <tile gid="786"/>
   <tile gid="3221226259"/>
   <tile gid="788"/>
   <tile gid="788"/>
   <tile gid="788"/>
   <tile gid="788"/>
   <tile gid="788"/>
   <tile gid="788"/>
   <tile gid="788"/>
   <tile gid="788"/>
   <tile gid="788"/>
   <tile gid="788"/>
   <tile gid="788"/>
   <tile gid="788"/>
   <tile gid="788"/>
   <tile gid="788"/>
   <tile gid="788"/>
   <tile gid="788"/>
   <tile gid="788"/>
   <tile gid="788"/>
   <tile gid="788"/>
   <tile gid="788"/>
   <tile gid="788"/>
   <tile gid="788"/>
   <tile gid="788"/>
   <tile gid="788"/>
   <tile gid="788"/>
   <tile gid="788"/>
   <tile gid="788"/>
   <tile gid="3221226259"/>
   <tile gid="790"/>
   <tile/>
   <tile/>
   <tile/>
   <tile/>
   <tile/>
   <tile/>
   <tile/>
   <tile/>
   <tile/>
   <tile/>
   <tile/>
   <tile/>
   <tile/>
   <tile/>
   <tile/>
   <tile gid="786"/>
   <tile gid="3221226259"/>
   <tile gid="788"/>
   <tile gid="788"/>
   <tile gid="788"/>
   <tile gid="788"/>
   <tile gid="788"/>
   <tile gid="788"/>
   <tile gid="3221226259"/>
   <tile gid="3221226259"/>
   <tile gid="790"/>
   <tile/>
   <tile/>
   <tile/>
   <tile/>
   <tile/>
   <tile/>
   <tile/>
   <tile/>
   <tile/>
   <tile/>
   <tile/>
   <tile/>
   <tile/>
   <tile/>
   <tile/>
   <tile/>
   <tile/>
   <tile/>
   <tile gid="786"/>
   <tile gid="3221226259"/>
   <tile gid="788"/>
   <tile gid="788"/>
   <tile gid="788"/>
   <tile gid="788"/>
   <tile gid="788"/>
   <tile gid="788"/>
   <tile gid="788"/>
   <tile gid="788"/>
   <tile gid="788"/>
   <tile gid="788"/>
   <tile gid="788"/>
   <tile gid="788"/>
   <tile gid="788"/>
   <tile gid="788"/>
   <tile gid="788"/>
   <tile gid="788"/>
   <tile gid="788"/>
   <tile gid="788"/>
   <tile gid="788"/>
   <tile gid="788"/>
   <tile gid="788"/>
   <tile gid="788"/>
   <tile gid="788"/>
   <tile gid="788"/>
   <tile gid="788"/>
   <tile gid="788"/>
   <tile gid="788"/>
   <tile gid="3221226259"/>
   <tile gid="790"/>
   <tile/>
   <tile/>
   <tile/>
   <tile/>
   <tile/>
   <tile/>
   <tile/>
   <tile/>
   <tile/>
   <tile/>
   <tile/>
   <tile/>
   <tile/>
   <tile/>
   <tile/>
   <tile gid="786"/>
   <tile gid="3221226259"/>
   <tile gid="788"/>
   <tile gid="788"/>
   <tile gid="788"/>
   <tile gid="788"/>
   <tile gid="788"/>
   <tile gid="788"/>
   <tile gid="3221226259"/>
   <tile gid="745"/>
   <tile gid="745"/>
   <tile gid="745"/>
   <tile gid="744"/>
   <tile gid="744"/>
   <tile gid="744"/>
   <tile gid="745"/>
   <tile gid="744"/>
   <tile gid="744"/>
   <tile gid="744"/>
   <tile gid="744"/>
   <tile gid="745"/>
   <tile gid="747"/>
   <tile/>
   <tile/>
   <tile/>
   <tile/>
   <tile/>
   <tile/>
   <tile/>
   <tile gid="786"/>
   <tile gid="3221226259"/>
   <tile gid="788"/>
   <tile gid="788"/>
   <tile gid="788"/>
   <tile gid="788"/>
   <tile gid="788"/>
   <tile gid="788"/>
   <tile gid="788"/>
   <tile gid="788"/>
   <tile gid="788"/>
   <tile gid="788"/>
   <tile gid="788"/>
   <tile gid="788"/>
   <tile gid="788"/>
   <tile gid="788"/>
   <tile gid="788"/>
   <tile gid="788"/>
   <tile gid="788"/>
   <tile gid="788"/>
   <tile gid="788"/>
   <tile gid="788"/>
   <tile gid="788"/>
   <tile gid="788"/>
   <tile gid="788"/>
   <tile gid="788"/>
   <tile gid="788"/>
   <tile gid="788"/>
   <tile gid="788"/>
   <tile gid="3221226259"/>
   <tile gid="790"/>
   <tile/>
   <tile/>
   <tile/>
   <tile/>
   <tile/>
   <tile/>
   <tile/>
   <tile/>
   <tile/>
   <tile/>
   <tile/>
   <tile/>
   <tile/>
   <tile/>
   <tile/>
   <tile gid="786"/>
   <tile gid="3221226259"/>
   <tile gid="788"/>
   <tile gid="788"/>
   <tile gid="788"/>
   <tile gid="788"/>
   <tile gid="788"/>
   <tile gid="788"/>
   <tile gid="3221226259"/>
   <tile gid="3221226259"/>
   <tile gid="3221226259"/>
   <tile gid="3221226259"/>
   <tile gid="3221226259"/>
   <tile gid="3221226259"/>
   <tile gid="3221226259"/>
   <tile gid="3221226259"/>
   <tile gid="3221226259"/>
   <tile gid="3221226259"/>
   <tile gid="3221226259"/>
   <tile gid="3221226259"/>
   <tile gid="3221226259"/>
   <tile gid="790"/>
   <tile/>
   <tile/>
   <tile/>
   <tile/>
   <tile/>
   <tile/>
   <tile/>
   <tile gid="786"/>
   <tile gid="3221226259"/>
   <tile gid="788"/>
   <tile gid="788"/>
   <tile gid="788"/>
   <tile gid="788"/>
   <tile gid="788"/>
   <tile gid="788"/>
   <tile gid="788"/>
   <tile gid="788"/>
   <tile gid="788"/>
   <tile gid="788"/>
   <tile gid="788"/>
   <tile gid="788"/>
   <tile gid="788"/>
   <tile gid="788"/>
   <tile gid="788"/>
   <tile gid="788"/>
   <tile gid="788"/>
   <tile gid="788"/>
   <tile gid="788"/>
   <tile gid="788"/>
   <tile gid="788"/>
   <tile gid="788"/>
   <tile gid="788"/>
   <tile gid="788"/>
   <tile gid="788"/>
   <tile gid="788"/>
   <tile gid="788"/>
   <tile gid="3221226259"/>
   <tile gid="790"/>
   <tile/>
   <tile/>
   <tile/>
   <tile/>
   <tile/>
   <tile/>
   <tile/>
   <tile/>
   <tile/>
   <tile/>
   <tile/>
   <tile/>
   <tile/>
   <tile/>
   <tile/>
   <tile gid="786"/>
   <tile gid="3221226259"/>
   <tile gid="788"/>
   <tile gid="788"/>
   <tile gid="788"/>
   <tile gid="788"/>
   <tile gid="788"/>
   <tile gid="788"/>
   <tile gid="788"/>
   <tile gid="788"/>
   <tile gid="788"/>
   <tile gid="788"/>
   <tile gid="788"/>
   <tile gid="788"/>
   <tile gid="788"/>
   <tile gid="788"/>
   <tile gid="788"/>
   <tile gid="788"/>
   <tile gid="788"/>
   <tile gid="788"/>
   <tile gid="3221226259"/>
   <tile gid="790"/>
   <tile/>
   <tile/>
   <tile/>
   <tile/>
   <tile/>
   <tile/>
   <tile/>
   <tile gid="786"/>
   <tile gid="3221226259"/>
   <tile gid="788"/>
   <tile gid="788"/>
   <tile gid="788"/>
   <tile gid="788"/>
   <tile gid="788"/>
   <tile gid="788"/>
   <tile gid="788"/>
   <tile gid="788"/>
   <tile gid="788"/>
   <tile gid="788"/>
   <tile gid="788"/>
   <tile gid="788"/>
   <tile gid="788"/>
   <tile gid="788"/>
   <tile gid="788"/>
   <tile gid="788"/>
   <tile gid="788"/>
   <tile gid="788"/>
   <tile gid="788"/>
   <tile gid="788"/>
   <tile gid="788"/>
   <tile gid="788"/>
   <tile gid="788"/>
   <tile gid="788"/>
   <tile gid="788"/>
   <tile gid="788"/>
   <tile gid="788"/>
   <tile gid="3221226259"/>
   <tile gid="790"/>
   <tile/>
   <tile/>
   <tile/>
   <tile/>
   <tile/>
   <tile/>
   <tile/>
   <tile/>
   <tile/>
   <tile/>
   <tile/>
   <tile/>
   <tile/>
   <tile/>
   <tile/>
   <tile gid="786"/>
   <tile gid="3221226259"/>
   <tile gid="788"/>
   <tile gid="788"/>
   <tile gid="788"/>
   <tile gid="788"/>
   <tile gid="788"/>
   <tile gid="788"/>
   <tile gid="788"/>
   <tile gid="788"/>
   <tile gid="788"/>
   <tile gid="788"/>
   <tile gid="788"/>
   <tile gid="788"/>
   <tile gid="788"/>
   <tile gid="788"/>
   <tile gid="788"/>
   <tile gid="788"/>
   <tile gid="788"/>
   <tile gid="788"/>
   <tile gid="3221226259"/>
   <tile gid="790"/>
   <tile/>
   <tile/>
   <tile/>
   <tile/>
   <tile/>
   <tile/>
   <tile/>
   <tile gid="786"/>
   <tile gid="3221226259"/>
   <tile gid="3221226259"/>
   <tile gid="3221226259"/>
   <tile gid="3221226259"/>
   <tile gid="3221226259"/>
   <tile gid="3221226259"/>
   <tile gid="3221226259"/>
   <tile gid="3221226259"/>
   <tile gid="3221226259"/>
   <tile gid="3221226259"/>
   <tile gid="3221226259"/>
   <tile gid="3221226259"/>
   <tile gid="3221226259"/>
   <tile gid="3221226259"/>
   <tile gid="3221226259"/>
   <tile gid="3221226259"/>
   <tile gid="788"/>
   <tile gid="788"/>
   <tile gid="788"/>
   <tile gid="788"/>
   <tile gid="788"/>
   <tile gid="788"/>
   <tile gid="788"/>
   <tile gid="788"/>
   <tile gid="788"/>
   <tile gid="788"/>
   <tile gid="788"/>
   <tile gid="788"/>
   <tile gid="3221226259"/>
   <tile gid="790"/>
   <tile/>
   <tile/>
   <tile/>
   <tile/>
   <tile/>
   <tile/>
   <tile/>
   <tile/>
   <tile/>
   <tile/>
   <tile/>
   <tile/>
   <tile/>
   <tile/>
   <tile/>
   <tile gid="786"/>
   <tile gid="3221226259"/>
   <tile gid="788"/>
   <tile gid="788"/>
   <tile gid="788"/>
   <tile gid="788"/>
   <tile gid="788"/>
   <tile gid="788"/>
   <tile gid="788"/>
   <tile gid="788"/>
   <tile gid="788"/>
   <tile gid="788"/>
   <tile gid="788"/>
   <tile gid="788"/>
   <tile gid="788"/>
   <tile gid="788"/>
   <tile gid="788"/>
   <tile gid="788"/>
   <tile gid="788"/>
   <tile gid="788"/>
   <tile gid="3221226259"/>
   <tile gid="790"/>
   <tile/>
   <tile/>
   <tile/>
   <tile/>
   <tile/>
   <tile/>
   <tile/>
   <tile gid="829"/>
   <tile gid="832"/>
   <tile gid="831"/>
   <tile gid="830"/>
   <tile gid="830"/>
   <tile gid="831"/>
   <tile gid="832"/>
   <tile gid="832"/>
   <tile gid="830"/>
   <tile gid="831"/>
   <tile gid="830"/>
   <tile gid="832"/>
   <tile gid="830"/>
   <tile gid="830"/>
   <tile gid="832"/>
   <tile gid="830"/>
   <tile gid="831"/>
   <tile gid="788"/>
   <tile gid="788"/>
   <tile gid="788"/>
   <tile gid="788"/>
   <tile gid="788"/>
   <tile gid="788"/>
   <tile gid="788"/>
   <tile gid="788"/>
   <tile gid="788"/>
   <tile gid="788"/>
   <tile gid="788"/>
   <tile gid="788"/>
   <tile gid="3221226259"/>
   <tile gid="790"/>
   <tile/>
   <tile/>
   <tile/>
   <tile/>
   <tile/>
   <tile/>
   <tile/>
   <tile/>
   <tile/>
   <tile/>
   <tile/>
   <tile/>
   <tile/>
   <tile/>
   <tile/>
   <tile gid="786"/>
   <tile gid="3221226259"/>
   <tile gid="788"/>
   <tile gid="788"/>
   <tile gid="788"/>
   <tile gid="788"/>
   <tile gid="788"/>
   <tile gid="788"/>
   <tile gid="788"/>
   <tile gid="788"/>
   <tile gid="788"/>
   <tile gid="788"/>
   <tile gid="788"/>
   <tile gid="788"/>
   <tile gid="788"/>
   <tile gid="788"/>
   <tile gid="788"/>
   <tile gid="788"/>
   <tile gid="788"/>
   <tile gid="788"/>
   <tile gid="3221226259"/>
   <tile gid="790"/>
   <tile/>
   <tile/>
   <tile/>
   <tile/>
   <tile/>
   <tile/>
   <tile/>
   <tile/>
   <tile/>
   <tile/>
   <tile/>
   <tile/>
   <tile/>
   <tile/>
   <tile/>
   <tile/>
   <tile/>
   <tile/>
   <tile/>
   <tile/>
   <tile/>
   <tile/>
   <tile/>
   <tile/>
   <tile gid="788"/>
   <tile gid="788"/>
   <tile gid="788"/>
   <tile gid="788"/>
   <tile gid="788"/>
   <tile gid="788"/>
   <tile gid="788"/>
   <tile gid="788"/>
   <tile gid="788"/>
   <tile gid="788"/>
   <tile gid="788"/>
   <tile gid="788"/>
   <tile gid="3221226259"/>
   <tile gid="790"/>
   <tile/>
   <tile/>
   <tile/>
   <tile/>
   <tile/>
   <tile/>
   <tile/>
   <tile/>
   <tile/>
   <tile/>
   <tile/>
   <tile/>
   <tile/>
   <tile/>
   <tile/>
   <tile gid="786"/>
   <tile gid="3221226259"/>
   <tile gid="788"/>
   <tile gid="788"/>
   <tile gid="788"/>
   <tile gid="788"/>
   <tile gid="788"/>
   <tile gid="788"/>
   <tile gid="788"/>
   <tile gid="788"/>
   <tile gid="788"/>
   <tile gid="788"/>
   <tile gid="788"/>
   <tile gid="788"/>
   <tile gid="788"/>
   <tile gid="788"/>
   <tile gid="788"/>
   <tile gid="788"/>
   <tile gid="788"/>
   <tile gid="788"/>
   <tile gid="3221226259"/>
   <tile gid="790"/>
   <tile/>
   <tile/>
   <tile/>
   <tile/>
   <tile/>
   <tile/>
   <tile/>
   <tile/>
   <tile/>
   <tile/>
   <tile/>
   <tile/>
   <tile/>
   <tile/>
   <tile/>
   <tile/>
   <tile/>
   <tile/>
   <tile/>
   <tile/>
   <tile/>
   <tile/>
   <tile/>
   <tile/>
   <tile gid="3221226259"/>
   <tile gid="3221226259"/>
   <tile gid="3221226259"/>
   <tile gid="3221226259"/>
   <tile gid="3221226259"/>
   <tile gid="3221226259"/>
   <tile gid="3221226259"/>
   <tile gid="3221226259"/>
   <tile gid="3221226259"/>
   <tile gid="3221226259"/>
   <tile gid="3221226259"/>
   <tile gid="3221226259"/>
   <tile gid="3221226259"/>
   <tile gid="790"/>
   <tile/>
   <tile/>
   <tile/>
   <tile/>
   <tile/>
   <tile/>
   <tile/>
   <tile/>
   <tile/>
   <tile/>
   <tile/>
   <tile/>
   <tile/>
   <tile/>
   <tile/>
   <tile gid="786"/>
   <tile gid="3221226259"/>
   <tile gid="3221226259"/>
   <tile gid="3221226259"/>
   <tile gid="3221226259"/>
   <tile gid="3221226259"/>
   <tile gid="3221226259"/>
   <tile gid="3221226259"/>
   <tile gid="3221226259"/>
   <tile gid="3221226259"/>
   <tile gid="3221226259"/>
   <tile gid="3221226259"/>
   <tile gid="3221226259"/>
   <tile gid="3221226259"/>
   <tile gid="3221226259"/>
   <tile gid="3221226259"/>
   <tile gid="3221226259"/>
   <tile gid="3221226259"/>
   <tile gid="3221226259"/>
   <tile gid="3221226259"/>
   <tile gid="3221226259"/>
   <tile gid="790"/>
   <tile/>
   <tile/>
   <tile/>
   <tile/>
   <tile/>
   <tile/>
   <tile/>
   <tile/>
   <tile/>
   <tile/>
   <tile/>
   <tile/>
   <tile/>
   <tile/>
   <tile/>
   <tile/>
   <tile/>
   <tile/>
   <tile/>
   <tile/>
   <tile/>
   <tile/>
   <tile/>
   <tile/>
   <tile gid="831"/>
   <tile gid="831"/>
   <tile gid="832"/>
   <tile gid="831"/>
   <tile gid="831"/>
   <tile gid="832"/>
   <tile gid="831"/>
   <tile gid="831"/>
   <tile gid="831"/>
   <tile gid="830"/>
   <tile gid="832"/>
   <tile gid="830"/>
   <tile gid="831"/>
   <tile gid="2147484477"/>
   <tile/>
   <tile/>
   <tile/>
   <tile/>
   <tile/>
   <tile/>
   <tile/>
   <tile/>
   <tile/>
   <tile/>
   <tile/>
   <tile/>
   <tile/>
   <tile/>
   <tile/>
   <tile gid="829"/>
   <tile gid="832"/>
   <tile gid="832"/>
   <tile gid="830"/>
   <tile gid="830"/>
   <tile gid="832"/>
   <tile gid="832"/>
   <tile gid="830"/>
   <tile gid="832"/>
   <tile gid="831"/>
   <tile gid="830"/>
   <tile gid="831"/>
   <tile gid="832"/>
   <tile gid="830"/>
   <tile gid="831"/>
   <tile gid="831"/>
   <tile gid="831"/>
   <tile gid="830"/>
   <tile gid="830"/>
   <tile gid="832"/>
   <tile gid="830"/>
   <tile gid="790"/>
   <tile/>
   <tile/>
   <tile/>
   <tile/>
   <tile/>
   <tile/>
   <tile/>
   <tile/>
   <tile/>
   <tile/>
   <tile/>
   <tile/>
   <tile/>
   <tile/>
   <tile/>
   <tile/>
   <tile/>
   <tile/>
   <tile/>
   <tile/>
   <tile/>
   <tile/>
   <tile/>
   <tile/>
   <tile gid="790"/>
   <tile/>
   <tile/>
   <tile/>
   <tile/>
   <tile/>
   <tile/>
   <tile/>
   <tile/>
   <tile/>
   <tile/>
   <tile/>
   <tile/>
   <tile gid="2"/>
   <tile/>
   <tile/>
   <tile/>
   <tile/>
   <tile/>
   <tile/>
   <tile/>
   <tile/>
   <tile/>
   <tile/>
   <tile/>
   <tile/>
   <tile/>
   <tile/>
   <tile/>
   <tile/>
   <tile/>
   <tile/>
   <tile/>
   <tile/>
   <tile/>
   <tile/>
   <tile/>
   <tile/>
   <tile/>
   <tile/>
   <tile/>
   <tile/>
   <tile/>
   <tile/>
   <tile/>
   <tile/>
   <tile/>
   <tile/>
   <tile/>
   <tile gid="829"/>
   <tile gid="790"/>
   <tile/>
   <tile/>
   <tile/>
   <tile/>
   <tile/>
   <tile/>
   <tile/>
   <tile/>
   <tile/>
   <tile/>
   <tile/>
   <tile/>
   <tile/>
   <tile/>
   <tile/>
   <tile/>
   <tile/>
   <tile/>
   <tile/>
   <tile/>
   <tile/>
   <tile/>
   <tile/>
   <tile/>
   <tile gid="790"/>
   <tile/>
   <tile/>
   <tile/>
   <tile/>
   <tile/>
   <tile/>
   <tile/>
   <tile/>
   <tile/>
   <tile/>
   <tile/>
   <tile/>
   <tile gid="2"/>
   <tile/>
   <tile/>
   <tile/>
   <tile/>
   <tile/>
   <tile/>
   <tile/>
   <tile/>
   <tile/>
   <tile/>
   <tile/>
   <tile/>
   <tile/>
   <tile/>
   <tile/>
   <tile/>
   <tile/>
   <tile/>
   <tile/>
   <tile/>
   <tile/>
   <tile/>
   <tile/>
   <tile/>
   <tile/>
   <tile/>
   <tile/>
   <tile/>
   <tile/>
   <tile/>
   <tile/>
   <tile/>
   <tile/>
   <tile/>
   <tile/>
   <tile/>
   <tile gid="786"/>
   <tile gid="744"/>
   <tile gid="744"/>
   <tile gid="744"/>
   <tile gid="744"/>
   <tile gid="746"/>
   <tile gid="744"/>
   <tile gid="744"/>
   <tile gid="745"/>
   <tile gid="746"/>
   <tile gid="744"/>
   <tile gid="744"/>
   <tile gid="744"/>
   <tile gid="746"/>
   <tile gid="746"/>
   <tile gid="744"/>
   <tile gid="745"/>
   <tile gid="744"/>
   <tile gid="744"/>
   <tile gid="746"/>
   <tile gid="746"/>
   <tile gid="746"/>
   <tile gid="746"/>
   <tile gid="744"/>
   <tile gid="744"/>
   <tile gid="790"/>
   <tile/>
   <tile/>
   <tile/>
   <tile/>
   <tile/>
   <tile/>
   <tile/>
   <tile/>
   <tile/>
   <tile/>
   <tile/>
   <tile/>
   <tile gid="2"/>
   <tile/>
   <tile/>
   <tile/>
   <tile/>
   <tile/>
   <tile/>
   <tile/>
   <tile/>
   <tile/>
   <tile/>
   <tile/>
   <tile/>
   <tile/>
   <tile/>
   <tile/>
   <tile/>
   <tile/>
   <tile/>
   <tile/>
   <tile/>
   <tile/>
   <tile/>
   <tile/>
   <tile/>
   <tile/>
   <tile/>
   <tile/>
   <tile/>
   <tile/>
   <tile/>
   <tile/>
   <tile/>
   <tile/>
   <tile/>
   <tile/>
   <tile/>
   <tile gid="786"/>
   <tile gid="3221226259"/>
   <tile gid="3221226259"/>
   <tile gid="3221226259"/>
   <tile gid="3221226259"/>
   <tile gid="3221226259"/>
   <tile gid="3221226259"/>
   <tile gid="3221226259"/>
   <tile gid="3221226259"/>
   <tile gid="3221226259"/>
   <tile gid="3221226259"/>
   <tile gid="3221226259"/>
   <tile gid="3221226259"/>
   <tile gid="3221226259"/>
   <tile gid="3221226259"/>
   <tile gid="3221226259"/>
   <tile gid="3221226259"/>
   <tile gid="3221226259"/>
   <tile gid="3221226259"/>
   <tile gid="3221226259"/>
   <tile gid="3221226259"/>
   <tile gid="3221226259"/>
   <tile gid="3221226259"/>
   <tile gid="3221226259"/>
   <tile gid="3221226259"/>
   <tile gid="790"/>
   <tile/>
   <tile/>
   <tile/>
   <tile/>
   <tile/>
   <tile/>
   <tile/>
   <tile/>
   <tile/>
   <tile/>
   <tile/>
   <tile/>
   <tile gid="2"/>
   <tile/>
   <tile/>
   <tile/>
   <tile/>
   <tile/>
   <tile/>
   <tile/>
   <tile/>
   <tile/>
   <tile/>
   <tile/>
   <tile/>
   <tile/>
   <tile/>
   <tile/>
   <tile/>
   <tile/>
   <tile/>
   <tile/>
   <tile/>
   <tile/>
   <tile/>
   <tile/>
   <tile/>
   <tile/>
   <tile/>
   <tile/>
   <tile/>
   <tile/>
   <tile/>
   <tile/>
   <tile/>
   <tile/>
   <tile/>
   <tile/>
   <tile/>
   <tile gid="786"/>
   <tile gid="3221226259"/>
   <tile gid="3221226260"/>
   <tile gid="3221226260"/>
   <tile gid="3221226260"/>
   <tile gid="3221226260"/>
   <tile gid="3221226260"/>
   <tile gid="3221226260"/>
   <tile gid="3221226260"/>
   <tile gid="3221226260"/>
   <tile gid="3221226260"/>
   <tile gid="3221226260"/>
   <tile gid="3221226260"/>
   <tile gid="3221226260"/>
   <tile gid="3221226260"/>
   <tile gid="3221226260"/>
   <tile gid="3221226260"/>
   <tile gid="3221226260"/>
   <tile gid="3221226260"/>
   <tile gid="3221226260"/>
   <tile gid="3221226260"/>
   <tile gid="3221226260"/>
   <tile gid="3221226260"/>
   <tile gid="3221226260"/>
   <tile gid="3221226260"/>
   <tile gid="790"/>
   <tile/>
   <tile/>
   <tile/>
   <tile/>
   <tile/>
   <tile/>
   <tile/>
   <tile/>
   <tile/>
   <tile/>
   <tile/>
   <tile/>
   <tile gid="2"/>
   <tile/>
   <tile/>
   <tile/>
   <tile/>
   <tile/>
   <tile/>
   <tile/>
   <tile/>
   <tile/>
   <tile/>
   <tile/>
   <tile/>
   <tile/>
   <tile/>
   <tile/>
   <tile/>
   <tile/>
   <tile/>
   <tile/>
   <tile/>
   <tile/>
   <tile/>
   <tile/>
   <tile/>
   <tile/>
   <tile/>
   <tile/>
   <tile/>
   <tile/>
   <tile/>
   <tile/>
   <tile/>
   <tile/>
   <tile/>
   <tile/>
   <tile/>
   <tile gid="2147484438"/>
   <tile gid="3221226259"/>
   <tile gid="3221226260"/>
   <tile gid="3221226260"/>
   <tile gid="3221226260"/>
   <tile gid="3221226260"/>
   <tile gid="3221226260"/>
   <tile gid="3221226260"/>
   <tile gid="3221226260"/>
   <tile gid="3221226260"/>
   <tile gid="3221226260"/>
   <tile gid="3221226260"/>
   <tile gid="3221226260"/>
   <tile gid="3221226260"/>
   <tile gid="3221226260"/>
   <tile gid="3221226260"/>
   <tile gid="3221226260"/>
   <tile gid="3221226260"/>
   <tile gid="3221226260"/>
   <tile gid="3221226260"/>
   <tile gid="3221226260"/>
   <tile gid="3221226260"/>
   <tile gid="3221226260"/>
   <tile gid="3221226260"/>
   <tile gid="3221226260"/>
   <tile gid="790"/>
   <tile/>
   <tile/>
   <tile/>
   <tile/>
   <tile/>
   <tile/>
   <tile/>
   <tile/>
   <tile/>
   <tile/>
   <tile/>
   <tile/>
   <tile gid="2"/>
   <tile/>
   <tile/>
   <tile/>
   <tile/>
   <tile/>
   <tile/>
   <tile/>
   <tile/>
   <tile/>
   <tile/>
   <tile/>
   <tile/>
   <tile/>
   <tile/>
   <tile/>
   <tile/>
   <tile/>
   <tile/>
   <tile/>
   <tile/>
   <tile/>
   <tile/>
   <tile/>
   <tile/>
   <tile/>
   <tile/>
   <tile/>
   <tile/>
   <tile/>
   <tile/>
   <tile/>
   <tile/>
   <tile/>
   <tile/>
   <tile/>
   <tile/>
   <tile gid="2147484438"/>
   <tile gid="3221226260"/>
   <tile gid="3221226260"/>
   <tile gid="3221226260"/>
   <tile gid="3221226260"/>
   <tile gid="3221226260"/>
   <tile gid="3221226260"/>
   <tile gid="3221226260"/>
   <tile gid="3221226260"/>
   <tile gid="3221226260"/>
   <tile gid="3221226260"/>
   <tile gid="3221226260"/>
   <tile gid="3221226260"/>
   <tile gid="3221226260"/>
   <tile gid="3221226260"/>
   <tile gid="3221226260"/>
   <tile gid="3221226260"/>
   <tile gid="3221226260"/>
   <tile gid="3221226260"/>
   <tile gid="3221226260"/>
   <tile gid="3221226260"/>
   <tile gid="3221226260"/>
   <tile gid="3221226260"/>
   <tile gid="3221226260"/>
   <tile gid="3221226260"/>
   <tile gid="790"/>
   <tile/>
   <tile/>
   <tile/>
   <tile/>
   <tile/>
   <tile/>
   <tile/>
   <tile/>
   <tile gid="829"/>
   <tile gid="745"/>
   <tile gid="744"/>
   <tile gid="745"/>
   <tile gid="745"/>
   <tile gid="745"/>
   <tile gid="745"/>
   <tile gid="744"/>
   <tile gid="746"/>
   <tile gid="746"/>
   <tile gid="744"/>
   <tile gid="745"/>
   <tile gid="746"/>
   <tile gid="745"/>
   <tile gid="745"/>
   <tile gid="745"/>
   <tile gid="745"/>
   <tile gid="745"/>
   <tile gid="744"/>
   <tile gid="744"/>
   <tile gid="744"/>
   <tile gid="746"/>
   <tile gid="746"/>
   <tile gid="745"/>
   <tile gid="745"/>
   <tile gid="746"/>
   <tile gid="747"/>
   <tile/>
   <tile/>
   <tile/>
   <tile/>
   <tile/>
   <tile/>
   <tile/>
   <tile/>
   <tile/>
   <tile/>
   <tile/>
   <tile/>
   <tile/>
   <tile/>
   <tile gid="2147484438"/>
   <tile gid="787"/>
   <tile gid="788"/>
   <tile gid="788"/>
   <tile gid="788"/>
   <tile gid="788"/>
   <tile gid="788"/>
   <tile gid="788"/>
   <tile gid="788"/>
   <tile gid="788"/>
   <tile gid="788"/>
   <tile gid="788"/>
   <tile gid="788"/>
   <tile gid="788"/>
   <tile gid="788"/>
   <tile gid="788"/>
   <tile gid="788"/>
   <tile gid="788"/>
   <tile gid="788"/>
   <tile gid="788"/>
   <tile gid="788"/>
   <tile gid="788"/>
   <tile gid="788"/>
   <tile gid="788"/>
   <tile gid="788"/>
   <tile gid="790"/>
   <tile/>
   <tile/>
   <tile/>
   <tile/>
   <tile/>
   <tile/>
   <tile/>
   <tile/>
   <tile/>
   <tile/>
   <tile/>
   <tile/>
   <tile/>
   <tile/>
   <tile/>
   <tile/>
   <tile/>
   <tile/>
   <tile/>
   <tile/>
   <tile/>
   <tile/>
   <tile/>
   <tile/>
   <tile/>
   <tile/>
   <tile/>
   <tile/>
   <tile/>
   <tile/>
   <tile/>
   <tile/>
   <tile/>
   <tile/>
   <tile gid="2147484438"/>
   <tile/>
   <tile/>
   <tile/>
   <tile/>
   <tile/>
   <tile/>
   <tile/>
   <tile/>
   <tile/>
   <tile/>
   <tile/>
   <tile/>
   <tile/>
   <tile/>
   <tile gid="2147484438"/>
   <tile gid="787"/>
   <tile gid="787"/>
   <tile gid="787"/>
   <tile gid="787"/>
   <tile gid="787"/>
   <tile gid="787"/>
   <tile gid="787"/>
   <tile gid="787"/>
   <tile gid="787"/>
   <tile gid="787"/>
   <tile gid="787"/>
   <tile gid="787"/>
   <tile gid="787"/>
   <tile gid="787"/>
   <tile gid="787"/>
   <tile gid="787"/>
   <tile gid="787"/>
   <tile gid="787"/>
   <tile gid="788"/>
   <tile gid="788"/>
   <tile gid="788"/>
   <tile gid="788"/>
   <tile gid="788"/>
   <tile gid="788"/>
   <tile gid="790"/>
   <tile/>
   <tile/>
   <tile/>
   <tile/>
   <tile/>
   <tile/>
   <tile/>
   <tile/>
   <tile/>
   <tile/>
   <tile/>
   <tile/>
   <tile/>
   <tile/>
   <tile/>
   <tile/>
   <tile/>
   <tile/>
   <tile/>
   <tile/>
   <tile/>
   <tile/>
   <tile/>
   <tile/>
   <tile/>
   <tile/>
   <tile/>
   <tile/>
   <tile/>
   <tile/>
   <tile/>
   <tile/>
   <tile/>
   <tile/>
   <tile gid="2147484438"/>
   <tile/>
   <tile/>
   <tile/>
   <tile/>
   <tile/>
   <tile/>
   <tile/>
   <tile/>
   <tile/>
   <tile/>
   <tile/>
   <tile/>
   <tile/>
   <tile/>
   <tile gid="829"/>
   <tile gid="831"/>
   <tile gid="830"/>
   <tile gid="830"/>
   <tile gid="831"/>
   <tile gid="831"/>
   <tile gid="830"/>
   <tile gid="832"/>
   <tile gid="831"/>
   <tile gid="830"/>
   <tile gid="832"/>
   <tile gid="832"/>
   <tile gid="832"/>
   <tile gid="831"/>
   <tile gid="830"/>
   <tile gid="830"/>
   <tile gid="830"/>
   <tile gid="830"/>
   <tile gid="832"/>
   <tile gid="832"/>
   <tile gid="788"/>
   <tile gid="788"/>
   <tile gid="788"/>
   <tile gid="788"/>
   <tile gid="788"/>
   <tile gid="790"/>
   <tile/>
   <tile/>
   <tile/>
   <tile/>
   <tile/>
   <tile/>
   <tile/>
   <tile/>
   <tile/>
   <tile/>
   <tile/>
   <tile/>
   <tile/>
   <tile/>
   <tile/>
   <tile/>
   <tile/>
   <tile/>
   <tile/>
   <tile/>
   <tile/>
   <tile/>
   <tile/>
   <tile/>
   <tile/>
   <tile/>
   <tile/>
   <tile/>
   <tile/>
   <tile/>
   <tile/>
   <tile/>
   <tile/>
   <tile/>
   <tile gid="2147484438"/>
   <tile/>
   <tile/>
   <tile/>
   <tile/>
   <tile/>
   <tile/>
   <tile/>
   <tile/>
   <tile/>
   <tile/>
   <tile/>
   <tile/>
   <tile/>
   <tile/>
   <tile/>
   <tile/>
   <tile/>
   <tile/>
   <tile/>
   <tile/>
   <tile/>
   <tile/>
   <tile/>
   <tile/>
   <tile/>
   <tile/>
   <tile/>
   <tile/>
   <tile/>
   <tile/>
   <tile/>
   <tile/>
   <tile/>
   <tile gid="829"/>
   <tile gid="832"/>
   <tile gid="787"/>
   <tile gid="787"/>
   <tile gid="787"/>
   <tile gid="787"/>
   <tile gid="746"/>
   <tile gid="745"/>
   <tile gid="744"/>
   <tile gid="747"/>
   <tile/>
   <tile/>
   <tile/>
   <tile/>
   <tile/>
   <tile/>
   <tile/>
   <tile/>
   <tile/>
   <tile/>
   <tile/>
   <tile/>
   <tile/>
   <tile/>
   <tile/>
   <tile/>
   <tile/>
   <tile/>
   <tile/>
   <tile/>
   <tile/>
   <tile/>
   <tile/>
   <tile/>
   <tile/>
   <tile/>
   <tile/>
   <tile/>
   <tile/>
   <tile/>
   <tile/>
   <tile gid="2147484438"/>
   <tile/>
   <tile/>
   <tile/>
   <tile/>
   <tile/>
   <tile/>
   <tile/>
   <tile/>
   <tile/>
   <tile/>
   <tile/>
   <tile/>
   <tile/>
   <tile/>
   <tile/>
   <tile/>
   <tile/>
   <tile/>
   <tile/>
   <tile/>
   <tile/>
   <tile/>
   <tile/>
   <tile/>
   <tile/>
   <tile/>
   <tile/>
   <tile/>
   <tile/>
   <tile/>
   <tile/>
   <tile/>
   <tile/>
   <tile/>
   <tile gid="829"/>
   <tile gid="832"/>
   <tile gid="830"/>
   <tile gid="830"/>
   <tile gid="832"/>
   <tile gid="789"/>
   <tile gid="789"/>
   <tile gid="789"/>
   <tile gid="790"/>
   <tile/>
   <tile/>
   <tile/>
   <tile/>
   <tile/>
   <tile/>
   <tile/>
   <tile/>
   <tile/>
   <tile/>
   <tile/>
   <tile/>
   <tile/>
   <tile/>
   <tile/>
   <tile/>
   <tile/>
   <tile/>
   <tile/>
   <tile/>
   <tile/>
   <tile/>
   <tile/>
   <tile/>
   <tile/>
   <tile/>
   <tile/>
   <tile/>
   <tile/>
   <tile/>
   <tile/>
   <tile gid="2147484438"/>
   <tile/>
   <tile/>
   <tile/>
   <tile/>
   <tile/>
   <tile/>
   <tile/>
   <tile/>
   <tile/>
   <tile/>
   <tile/>
   <tile/>
   <tile/>
   <tile/>
   <tile/>
   <tile/>
   <tile/>
   <tile/>
   <tile/>
   <tile/>
   <tile/>
   <tile/>
   <tile/>
   <tile/>
   <tile/>
   <tile/>
   <tile/>
   <tile/>
   <tile/>
   <tile/>
   <tile/>
   <tile/>
   <tile/>
   <tile/>
   <tile/>
   <tile/>
   <tile/>
   <tile/>
   <tile/>
   <tile gid="789"/>
   <tile gid="789"/>
   <tile gid="789"/>
   <tile gid="790"/>
   <tile/>
   <tile/>
   <tile/>
   <tile/>
   <tile/>
   <tile/>
   <tile/>
   <tile/>
   <tile/>
   <tile/>
   <tile/>
   <tile/>
   <tile/>
   <tile/>
   <tile/>
   <tile/>
   <tile/>
   <tile/>
   <tile/>
   <tile/>
   <tile/>
   <tile/>
   <tile/>
   <tile/>
   <tile/>
   <tile/>
   <tile/>
   <tile/>
   <tile/>
   <tile/>
   <tile/>
   <tile gid="2147484438"/>
   <tile/>
   <tile/>
   <tile/>
   <tile/>
   <tile/>
   <tile/>
   <tile/>
   <tile/>
   <tile/>
   <tile/>
   <tile/>
   <tile/>
   <tile/>
   <tile/>
   <tile/>
   <tile/>
   <tile/>
   <tile/>
   <tile/>
   <tile/>
   <tile/>
   <tile/>
   <tile/>
   <tile/>
   <tile/>
   <tile/>
   <tile/>
   <tile/>
   <tile/>
   <tile/>
   <tile/>
   <tile/>
   <tile/>
   <tile/>
   <tile/>
   <tile/>
   <tile/>
   <tile/>
   <tile/>
   <tile gid="745"/>
   <tile gid="745"/>
   <tile gid="745"/>
   <tile gid="745"/>
   <tile gid="745"/>
   <tile gid="745"/>
   <tile gid="745"/>
   <tile gid="746"/>
   <tile gid="744"/>
   <tile gid="745"/>
   <tile gid="746"/>
   <tile gid="745"/>
   <tile gid="746"/>
   <tile gid="745"/>
   <tile gid="746"/>
   <tile gid="744"/>
   <tile gid="744"/>
   <tile gid="745"/>
   <tile gid="745"/>
   <tile gid="746"/>
   <tile gid="746"/>
   <tile gid="746"/>
   <tile gid="746"/>
   <tile gid="745"/>
   <tile gid="747"/>
   <tile/>
   <tile/>
   <tile/>
   <tile/>
   <tile/>
   <tile/>
   <tile/>
   <tile/>
   <tile/>
   <tile/>
   <tile gid="2147484438"/>
   <tile/>
   <tile/>
   <tile/>
   <tile/>
   <tile/>
   <tile/>
   <tile/>
   <tile/>
   <tile/>
   <tile/>
   <tile/>
   <tile/>
   <tile/>
   <tile/>
   <tile/>
   <tile/>
   <tile/>
   <tile/>
   <tile/>
   <tile/>
   <tile/>
   <tile/>
   <tile/>
   <tile/>
   <tile/>
   <tile/>
   <tile/>
   <tile/>
   <tile/>
   <tile/>
   <tile/>
   <tile/>
   <tile/>
   <tile/>
   <tile/>
   <tile/>
   <tile/>
   <tile/>
   <tile/>
   <tile gid="790"/>
   <tile/>
   <tile/>
   <tile/>
   <tile/>
   <tile/>
   <tile/>
   <tile/>
   <tile/>
   <tile/>
   <tile/>
   <tile/>
   <tile/>
   <tile/>
   <tile/>
   <tile/>
   <tile/>
   <tile/>
   <tile/>
   <tile/>
   <tile/>
   <tile/>
   <tile/>
   <tile/>
   <tile gid="2147484438"/>
   <tile/>
   <tile/>
   <tile/>
   <tile/>
   <tile/>
   <tile/>
   <tile/>
   <tile/>
   <tile/>
   <tile/>
   <tile gid="2147484438"/>
   <tile/>
   <tile/>
   <tile/>
   <tile/>
   <tile/>
   <tile/>
   <tile/>
   <tile/>
   <tile/>
   <tile/>
   <tile/>
   <tile/>
   <tile/>
   <tile/>
   <tile/>
   <tile/>
   <tile/>
   <tile/>
   <tile/>
   <tile/>
   <tile/>
   <tile/>
   <tile/>
   <tile/>
   <tile/>
   <tile/>
   <tile/>
   <tile/>
   <tile/>
   <tile/>
   <tile/>
   <tile/>
   <tile/>
   <tile/>
   <tile/>
   <tile/>
   <tile/>
   <tile/>
   <tile/>
   <tile gid="790"/>
   <tile/>
   <tile/>
   <tile gid="3"/>
   <tile gid="3"/>
   <tile/>
   <tile/>
   <tile/>
   <tile/>
   <tile/>
   <tile/>
   <tile/>
   <tile/>
   <tile/>
   <tile/>
   <tile/>
   <tile/>
   <tile/>
   <tile/>
   <tile/>
   <tile/>
   <tile/>
   <tile/>
   <tile/>
   <tile gid="2147484438"/>
   <tile/>
   <tile/>
   <tile/>
   <tile/>
   <tile/>
   <tile/>
   <tile/>
   <tile/>
   <tile/>
   <tile/>
   <tile gid="2147484438"/>
   <tile/>
   <tile/>
   <tile/>
   <tile/>
   <tile/>
   <tile/>
   <tile/>
   <tile/>
   <tile/>
   <tile/>
   <tile/>
   <tile/>
   <tile/>
   <tile/>
   <tile/>
   <tile/>
   <tile/>
   <tile/>
   <tile/>
   <tile/>
   <tile/>
   <tile/>
   <tile/>
   <tile/>
   <tile/>
   <tile/>
   <tile/>
   <tile/>
   <tile/>
   <tile/>
   <tile/>
   <tile/>
   <tile/>
   <tile/>
   <tile/>
   <tile/>
   <tile/>
   <tile/>
   <tile/>
   <tile gid="790"/>
   <tile/>
   <tile/>
   <tile gid="3"/>
   <tile gid="3"/>
   <tile/>
   <tile/>
   <tile/>
   <tile/>
   <tile/>
   <tile/>
   <tile/>
   <tile/>
   <tile/>
   <tile/>
   <tile/>
   <tile/>
   <tile/>
   <tile/>
   <tile/>
   <tile/>
   <tile/>
   <tile/>
   <tile/>
   <tile gid="2147484438"/>
   <tile/>
   <tile/>
   <tile/>
   <tile/>
   <tile/>
   <tile/>
   <tile/>
   <tile/>
   <tile/>
   <tile/>
   <tile gid="2147484438"/>
   <tile/>
   <tile/>
   <tile/>
   <tile/>
   <tile/>
   <tile/>
   <tile/>
   <tile/>
   <tile/>
   <tile/>
   <tile/>
   <tile/>
   <tile/>
   <tile/>
   <tile/>
   <tile/>
   <tile/>
   <tile/>
   <tile/>
   <tile/>
   <tile/>
   <tile/>
   <tile/>
   <tile/>
   <tile/>
   <tile/>
   <tile/>
   <tile/>
   <tile/>
   <tile/>
   <tile/>
   <tile/>
   <tile/>
   <tile/>
   <tile/>
   <tile/>
   <tile/>
   <tile/>
   <tile/>
   <tile gid="790"/>
   <tile/>
   <tile/>
   <tile gid="3"/>
   <tile gid="3"/>
   <tile/>
   <tile/>
   <tile/>
   <tile/>
   <tile/>
   <tile/>
   <tile/>
   <tile/>
   <tile/>
   <tile/>
   <tile/>
   <tile/>
   <tile/>
   <tile/>
   <tile/>
   <tile/>
   <tile/>
   <tile/>
   <tile/>
   <tile gid="2147484438"/>
   <tile/>
   <tile/>
   <tile/>
   <tile/>
   <tile/>
   <tile/>
   <tile/>
   <tile/>
   <tile/>
   <tile/>
   <tile gid="2147484438"/>
   <tile/>
   <tile/>
   <tile/>
   <tile/>
   <tile gid="829"/>
   <tile gid="746"/>
   <tile gid="744"/>
   <tile gid="744"/>
   <tile gid="744"/>
   <tile gid="744"/>
   <tile gid="746"/>
   <tile gid="746"/>
   <tile gid="744"/>
   <tile gid="745"/>
   <tile gid="744"/>
   <tile gid="745"/>
   <tile gid="746"/>
   <tile gid="745"/>
   <tile gid="744"/>
   <tile gid="745"/>
   <tile gid="746"/>
   <tile gid="746"/>
   <tile gid="744"/>
   <tile gid="746"/>
   <tile gid="744"/>
   <tile gid="744"/>
   <tile gid="746"/>
   <tile gid="746"/>
   <tile gid="744"/>
   <tile gid="744"/>
   <tile gid="745"/>
   <tile gid="744"/>
   <tile gid="745"/>
   <tile gid="746"/>
   <tile gid="745"/>
   <tile gid="745"/>
   <tile gid="744"/>
   <tile gid="746"/>
   <tile gid="745"/>
   <tile gid="790"/>
   <tile/>
   <tile/>
   <tile/>
   <tile/>
   <tile/>
   <tile/>
   <tile/>
   <tile/>
   <tile/>
   <tile/>
   <tile/>
   <tile/>
   <tile/>
   <tile/>
   <tile/>
   <tile/>
   <tile/>
   <tile/>
   <tile/>
   <tile/>
   <tile/>
   <tile/>
   <tile/>
   <tile gid="2147484438"/>
   <tile/>
   <tile/>
   <tile/>
   <tile/>
   <tile/>
   <tile/>
   <tile/>
   <tile/>
   <tile/>
   <tile/>
   <tile gid="2147484438"/>
   <tile/>
   <tile/>
   <tile/>
   <tile/>
   <tile/>
   <tile/>
   <tile/>
   <tile/>
   <tile/>
   <tile/>
   <tile/>
   <tile/>
   <tile/>
   <tile/>
   <tile gid="2147484438"/>
   <tile gid="787"/>
   <tile gid="787"/>
   <tile gid="787"/>
   <tile gid="787"/>
   <tile gid="787"/>
   <tile gid="787"/>
   <tile gid="787"/>
   <tile gid="787"/>
   <tile gid="787"/>
   <tile gid="787"/>
   <tile gid="787"/>
   <tile gid="787"/>
   <tile gid="787"/>
   <tile gid="787"/>
   <tile gid="787"/>
   <tile gid="787"/>
   <tile gid="787"/>
   <tile gid="787"/>
   <tile gid="787"/>
   <tile gid="787"/>
   <tile gid="787"/>
   <tile gid="787"/>
   <tile gid="787"/>
   <tile gid="787"/>
   <tile gid="744"/>
   <tile gid="746"/>
   <tile gid="744"/>
   <tile gid="744"/>
   <tile gid="744"/>
   <tile gid="745"/>
   <tile gid="744"/>
   <tile gid="745"/>
   <tile gid="745"/>
   <tile gid="744"/>
   <tile gid="745"/>
   <tile gid="833"/>
   <tile/>
   <tile/>
   <tile/>
   <tile/>
   <tile/>
   <tile/>
   <tile/>
   <tile/>
   <tile/>
   <tile/>
   <tile/>
   <tile/>
   <tile gid="2147484438"/>
   <tile/>
   <tile/>
   <tile/>
   <tile/>
   <tile/>
   <tile/>
   <tile/>
   <tile/>
   <tile/>
   <tile/>
   <tile gid="2147484438"/>
   <tile/>
   <tile/>
   <tile/>
   <tile/>
   <tile/>
   <tile/>
   <tile/>
   <tile/>
   <tile/>
   <tile/>
   <tile/>
   <tile/>
   <tile/>
   <tile/>
   <tile gid="2147484438"/>
   <tile gid="787"/>
   <tile gid="788"/>
   <tile gid="788"/>
   <tile gid="788"/>
   <tile gid="788"/>
   <tile gid="788"/>
   <tile gid="788"/>
   <tile gid="788"/>
   <tile gid="788"/>
   <tile gid="788"/>
   <tile gid="788"/>
   <tile gid="788"/>
   <tile gid="788"/>
   <tile gid="788"/>
   <tile gid="788"/>
   <tile gid="788"/>
   <tile gid="788"/>
   <tile gid="788"/>
   <tile gid="788"/>
   <tile gid="788"/>
   <tile gid="788"/>
   <tile gid="788"/>
   <tile gid="788"/>
   <tile gid="788"/>
   <tile gid="789"/>
   <tile gid="789"/>
   <tile gid="789"/>
   <tile gid="789"/>
   <tile gid="789"/>
   <tile gid="789"/>
   <tile gid="789"/>
   <tile gid="789"/>
   <tile gid="790"/>
   <tile/>
   <tile/>
   <tile/>
   <tile/>
   <tile/>
   <tile/>
   <tile/>
   <tile/>
   <tile/>
   <tile/>
   <tile/>
   <tile/>
   <tile/>
   <tile/>
   <tile/>
   <tile gid="2147484438"/>
   <tile/>
   <tile/>
   <tile/>
   <tile/>
   <tile/>
   <tile/>
   <tile/>
   <tile/>
   <tile/>
   <tile/>
   <tile gid="2147484438"/>
   <tile/>
   <tile/>
   <tile/>
   <tile/>
   <tile/>
   <tile/>
   <tile/>
   <tile/>
   <tile/>
   <tile/>
   <tile/>
   <tile/>
   <tile/>
   <tile/>
   <tile gid="2147484438"/>
   <tile gid="787"/>
   <tile gid="788"/>
   <tile gid="788"/>
   <tile gid="788"/>
   <tile gid="788"/>
   <tile gid="788"/>
   <tile gid="788"/>
   <tile gid="788"/>
   <tile gid="788"/>
   <tile gid="788"/>
   <tile gid="788"/>
   <tile gid="788"/>
   <tile gid="788"/>
   <tile gid="788"/>
   <tile gid="788"/>
   <tile gid="788"/>
   <tile gid="788"/>
   <tile gid="788"/>
   <tile gid="788"/>
   <tile gid="788"/>
   <tile gid="788"/>
   <tile gid="788"/>
   <tile gid="788"/>
   <tile gid="788"/>
   <tile gid="788"/>
   <tile gid="788"/>
   <tile gid="788"/>
   <tile gid="788"/>
   <tile gid="788"/>
   <tile gid="788"/>
   <tile gid="788"/>
   <tile gid="789"/>
   <tile gid="790"/>
   <tile/>
   <tile/>
   <tile/>
   <tile/>
   <tile/>
   <tile/>
   <tile/>
   <tile/>
   <tile/>
   <tile/>
   <tile/>
   <tile/>
   <tile/>
   <tile/>
   <tile/>
   <tile gid="2147484438"/>
   <tile/>
   <tile/>
   <tile/>
   <tile/>
   <tile/>
   <tile/>
   <tile/>
   <tile/>
   <tile/>
   <tile/>
   <tile gid="2147484438"/>
   <tile/>
   <tile/>
   <tile/>
   <tile/>
   <tile/>
   <tile/>
   <tile/>
   <tile/>
   <tile/>
   <tile/>
   <tile/>
   <tile/>
   <tile/>
   <tile/>
   <tile gid="2147484438"/>
   <tile gid="787"/>
   <tile gid="788"/>
   <tile gid="788"/>
   <tile gid="788"/>
   <tile gid="788"/>
   <tile gid="788"/>
   <tile gid="788"/>
   <tile gid="788"/>
   <tile gid="788"/>
   <tile gid="788"/>
   <tile gid="788"/>
   <tile gid="788"/>
   <tile gid="788"/>
   <tile gid="788"/>
   <tile gid="788"/>
   <tile gid="788"/>
   <tile gid="788"/>
   <tile gid="788"/>
   <tile gid="788"/>
   <tile gid="788"/>
   <tile gid="788"/>
   <tile gid="788"/>
   <tile gid="788"/>
   <tile gid="788"/>
   <tile gid="788"/>
   <tile gid="788"/>
   <tile gid="788"/>
   <tile gid="788"/>
   <tile gid="788"/>
   <tile gid="788"/>
   <tile gid="788"/>
   <tile gid="789"/>
   <tile gid="790"/>
   <tile/>
   <tile/>
   <tile/>
   <tile/>
   <tile/>
   <tile/>
   <tile/>
   <tile/>
   <tile/>
   <tile/>
   <tile/>
   <tile/>
   <tile/>
   <tile/>
   <tile/>
   <tile gid="2147484438"/>
   <tile/>
   <tile/>
   <tile/>
   <tile/>
   <tile/>
   <tile/>
   <tile/>
   <tile/>
   <tile/>
   <tile/>
   <tile gid="2147484438"/>
   <tile/>
   <tile/>
   <tile/>
   <tile/>
   <tile/>
   <tile/>
   <tile/>
   <tile/>
   <tile/>
   <tile/>
   <tile/>
   <tile/>
   <tile/>
   <tile/>
   <tile gid="2147484438"/>
   <tile gid="787"/>
   <tile gid="787"/>
   <tile gid="787"/>
   <tile gid="787"/>
   <tile gid="787"/>
   <tile gid="787"/>
   <tile gid="787"/>
   <tile gid="787"/>
   <tile gid="787"/>
   <tile gid="787"/>
   <tile gid="787"/>
   <tile gid="787"/>
   <tile gid="787"/>
   <tile gid="787"/>
   <tile gid="787"/>
   <tile gid="787"/>
   <tile gid="787"/>
   <tile gid="787"/>
   <tile gid="787"/>
   <tile gid="788"/>
   <tile gid="788"/>
   <tile gid="788"/>
   <tile gid="788"/>
   <tile gid="788"/>
   <tile gid="789"/>
   <tile gid="789"/>
   <tile gid="789"/>
   <tile gid="789"/>
   <tile gid="789"/>
   <tile gid="789"/>
   <tile gid="789"/>
   <tile gid="789"/>
   <tile gid="790"/>
   <tile/>
   <tile/>
   <tile/>
   <tile/>
   <tile/>
   <tile/>
   <tile/>
   <tile/>
   <tile/>
   <tile/>
   <tile/>
   <tile/>
   <tile/>
   <tile/>
   <tile/>
   <tile gid="2147484438"/>
   <tile/>
   <tile/>
   <tile/>
   <tile/>
   <tile/>
   <tile/>
   <tile/>
   <tile/>
   <tile gid="743"/>
   <tile gid="745"/>
   <tile gid="2147484438"/>
   <tile/>
   <tile/>
   <tile/>
   <tile/>
   <tile/>
   <tile/>
   <tile/>
   <tile/>
   <tile/>
   <tile/>
   <tile/>
   <tile/>
   <tile/>
   <tile/>
   <tile gid="829"/>
   <tile gid="831"/>
   <tile gid="830"/>
   <tile gid="830"/>
   <tile gid="831"/>
   <tile gid="831"/>
   <tile gid="830"/>
   <tile gid="832"/>
   <tile gid="831"/>
   <tile gid="830"/>
   <tile gid="832"/>
   <tile gid="832"/>
   <tile gid="830"/>
   <tile gid="831"/>
   <tile gid="830"/>
   <tile gid="830"/>
   <tile gid="832"/>
   <tile gid="830"/>
   <tile gid="832"/>
   <tile gid="832"/>
   <tile gid="787"/>
   <tile gid="787"/>
   <tile gid="787"/>
   <tile gid="788"/>
   <tile gid="788"/>
   <tile gid="832"/>
   <tile gid="832"/>
   <tile gid="831"/>
   <tile gid="831"/>
   <tile gid="831"/>
   <tile gid="831"/>
   <tile gid="832"/>
   <tile gid="832"/>
   <tile gid="833"/>
   <tile/>
   <tile/>
   <tile/>
   <tile/>
   <tile/>
   <tile/>
   <tile/>
   <tile/>
   <tile/>
   <tile gid="829"/>
   <tile gid="745"/>
   <tile gid="745"/>
   <tile gid="745"/>
   <tile gid="744"/>
   <tile gid="745"/>
   <tile gid="833"/>
   <tile/>
   <tile/>
   <tile/>
   <tile/>
   <tile/>
   <tile gid="829"/>
   <tile gid="746"/>
   <tile gid="745"/>
   <tile gid="746"/>
   <tile gid="745"/>
   <tile gid="745"/>
   <tile gid="744"/>
   <tile gid="746"/>
   <tile gid="744"/>
   <tile gid="746"/>
   <tile gid="746"/>
   <tile gid="745"/>
   <tile gid="745"/>
   <tile gid="746"/>
   <tile gid="745"/>
   <tile gid="747"/>
   <tile/>
   <tile/>
   <tile/>
   <tile/>
   <tile/>
   <tile/>
   <tile/>
   <tile/>
   <tile/>
   <tile/>
   <tile/>
   <tile/>
   <tile/>
   <tile/>
   <tile/>
   <tile/>
   <tile/>
   <tile/>
   <tile/>
   <tile/>
   <tile/>
   <tile/>
   <tile/>
   <tile gid="829"/>
   <tile gid="832"/>
   <tile gid="832"/>
   <tile gid="2147484438"/>
   <tile gid="788"/>
   <tile gid="788"/>
   <tile gid="790"/>
   <tile/>
   <tile/>
   <tile/>
   <tile/>
   <tile/>
   <tile/>
   <tile/>
   <tile/>
   <tile/>
   <tile/>
   <tile/>
   <tile/>
   <tile/>
   <tile/>
   <tile/>
   <tile/>
   <tile/>
   <tile/>
   <tile/>
   <tile/>
   <tile/>
   <tile/>
   <tile/>
   <tile/>
   <tile/>
   <tile/>
   <tile/>
   <tile/>
   <tile/>
   <tile/>
   <tile/>
   <tile/>
   <tile/>
   <tile/>
   <tile/>
   <tile/>
   <tile/>
   <tile/>
   <tile/>
   <tile/>
   <tile/>
   <tile/>
   <tile/>
   <tile/>
   <tile gid="2147484438"/>
   <tile/>
   <tile/>
   <tile/>
   <tile/>
   <tile/>
   <tile/>
   <tile/>
   <tile/>
   <tile/>
   <tile/>
   <tile/>
   <tile/>
   <tile/>
   <tile/>
   <tile/>
   <tile/>
   <tile/>
   <tile/>
   <tile/>
   <tile/>
   <tile/>
   <tile/>
   <tile/>
   <tile/>
   <tile/>
   <tile/>
   <tile gid="829"/>
   <tile gid="2147484438"/>
   <tile gid="787"/>
   <tile gid="790"/>
   <tile/>
   <tile/>
   <tile/>
   <tile/>
   <tile/>
   <tile/>
   <tile/>
   <tile/>
   <tile/>
   <tile/>
   <tile/>
   <tile/>
   <tile/>
   <tile/>
   <tile/>
   <tile/>
   <tile/>
   <tile/>
   <tile/>
   <tile/>
   <tile/>
   <tile/>
   <tile/>
   <tile/>
   <tile/>
   <tile/>
   <tile/>
   <tile/>
   <tile/>
   <tile/>
   <tile/>
   <tile/>
   <tile/>
   <tile/>
   <tile/>
   <tile/>
   <tile/>
   <tile/>
   <tile/>
   <tile/>
   <tile/>
   <tile/>
   <tile/>
   <tile/>
   <tile gid="2147484438"/>
   <tile/>
   <tile/>
   <tile/>
   <tile/>
   <tile/>
   <tile/>
   <tile/>
   <tile/>
   <tile/>
   <tile/>
   <tile/>
   <tile/>
   <tile/>
   <tile/>
   <tile/>
   <tile/>
   <tile/>
   <tile/>
   <tile/>
   <tile/>
   <tile/>
   <tile/>
   <tile/>
   <tile/>
   <tile/>
   <tile/>
   <tile/>
   <tile gid="2147484438"/>
   <tile gid="787"/>
   <tile gid="790"/>
   <tile/>
   <tile/>
   <tile/>
   <tile/>
   <tile/>
   <tile/>
   <tile/>
   <tile/>
   <tile/>
   <tile/>
   <tile/>
   <tile/>
   <tile/>
   <tile/>
   <tile/>
   <tile/>
   <tile/>
   <tile/>
   <tile/>
   <tile/>
   <tile/>
   <tile/>
   <tile/>
   <tile/>
   <tile/>
   <tile/>
   <tile/>
   <tile/>
   <tile/>
   <tile/>
   <tile/>
   <tile/>
   <tile/>
   <tile/>
   <tile/>
   <tile/>
   <tile/>
   <tile/>
   <tile/>
   <tile/>
   <tile/>
   <tile/>
   <tile/>
   <tile/>
   <tile gid="2147484438"/>
   <tile/>
   <tile/>
   <tile/>
   <tile/>
   <tile/>
   <tile/>
   <tile/>
   <tile/>
   <tile/>
   <tile/>
   <tile/>
   <tile/>
   <tile/>
   <tile/>
   <tile/>
   <tile/>
   <tile/>
   <tile/>
   <tile/>
   <tile/>
   <tile/>
   <tile/>
   <tile/>
   <tile/>
   <tile/>
   <tile/>
   <tile/>
   <tile gid="829"/>
   <tile gid="787"/>
   <tile gid="790"/>
   <tile/>
   <tile/>
   <tile/>
   <tile/>
   <tile/>
   <tile/>
   <tile/>
   <tile/>
   <tile/>
   <tile/>
   <tile/>
   <tile/>
   <tile/>
   <tile/>
   <tile/>
   <tile/>
   <tile/>
   <tile/>
   <tile/>
   <tile/>
   <tile/>
   <tile/>
   <tile/>
   <tile/>
   <tile/>
   <tile/>
   <tile/>
   <tile/>
   <tile/>
   <tile/>
   <tile/>
   <tile/>
   <tile/>
   <tile/>
   <tile/>
   <tile/>
   <tile/>
   <tile/>
   <tile/>
   <tile/>
   <tile/>
   <tile/>
   <tile/>
   <tile/>
   <tile gid="2147484438"/>
   <tile/>
   <tile/>
   <tile/>
   <tile/>
   <tile/>
   <tile/>
   <tile/>
   <tile/>
   <tile/>
   <tile/>
   <tile/>
   <tile/>
   <tile/>
   <tile/>
   <tile/>
   <tile/>
   <tile/>
   <tile/>
   <tile/>
   <tile/>
   <tile/>
   <tile/>
   <tile/>
   <tile/>
   <tile/>
   <tile/>
   <tile/>
   <tile/>
   <tile gid="2147484438"/>
   <tile gid="790"/>
   <tile/>
   <tile/>
   <tile/>
   <tile/>
   <tile/>
   <tile/>
   <tile/>
   <tile/>
   <tile/>
   <tile/>
   <tile/>
   <tile/>
   <tile/>
   <tile/>
   <tile/>
   <tile/>
   <tile/>
   <tile/>
   <tile/>
   <tile/>
   <tile/>
   <tile/>
   <tile/>
   <tile/>
   <tile/>
   <tile/>
   <tile/>
   <tile/>
   <tile/>
   <tile/>
   <tile/>
   <tile/>
   <tile/>
   <tile/>
   <tile/>
   <tile/>
   <tile/>
   <tile/>
   <tile/>
   <tile/>
   <tile/>
   <tile/>
   <tile/>
   <tile/>
   <tile gid="2147484438"/>
   <tile/>
   <tile/>
   <tile/>
   <tile/>
   <tile/>
   <tile/>
   <tile/>
   <tile/>
   <tile/>
   <tile/>
   <tile/>
   <tile/>
   <tile/>
   <tile/>
   <tile/>
   <tile/>
   <tile/>
   <tile/>
   <tile/>
   <tile/>
   <tile/>
   <tile/>
   <tile/>
   <tile/>
   <tile/>
   <tile/>
   <tile/>
   <tile/>
   <tile gid="2147484438"/>
   <tile gid="790"/>
   <tile/>
   <tile/>
   <tile/>
   <tile/>
   <tile/>
   <tile/>
   <tile/>
   <tile/>
   <tile/>
   <tile/>
   <tile/>
   <tile/>
   <tile/>
   <tile/>
   <tile/>
   <tile/>
   <tile/>
   <tile/>
   <tile/>
   <tile/>
   <tile/>
   <tile/>
   <tile/>
   <tile/>
   <tile/>
   <tile/>
   <tile/>
   <tile/>
   <tile/>
   <tile/>
   <tile/>
   <tile/>
   <tile/>
   <tile/>
   <tile/>
   <tile/>
   <tile/>
   <tile/>
   <tile/>
   <tile/>
   <tile/>
   <tile/>
   <tile/>
   <tile/>
   <tile gid="2147484438"/>
   <tile/>
   <tile/>
   <tile/>
   <tile/>
   <tile/>
   <tile/>
   <tile/>
   <tile/>
   <tile/>
   <tile/>
   <tile/>
   <tile/>
   <tile/>
   <tile/>
   <tile/>
   <tile/>
   <tile/>
   <tile/>
   <tile/>
   <tile/>
   <tile/>
   <tile/>
   <tile/>
   <tile/>
   <tile/>
   <tile/>
   <tile/>
   <tile/>
   <tile gid="829"/>
   <tile gid="790"/>
   <tile/>
   <tile/>
   <tile/>
   <tile/>
   <tile/>
   <tile/>
   <tile/>
   <tile/>
   <tile/>
   <tile/>
   <tile/>
   <tile gid="829"/>
   <tile gid="831"/>
   <tile gid="830"/>
   <tile gid="832"/>
   <tile gid="832"/>
   <tile gid="832"/>
   <tile gid="832"/>
   <tile gid="830"/>
   <tile gid="830"/>
   <tile gid="832"/>
   <tile gid="832"/>
   <tile gid="832"/>
   <tile gid="830"/>
   <tile gid="832"/>
   <tile gid="830"/>
   <tile gid="832"/>
   <tile gid="832"/>
   <tile gid="832"/>
   <tile gid="831"/>
   <tile gid="831"/>
   <tile gid="832"/>
   <tile gid="830"/>
   <tile gid="831"/>
   <tile gid="832"/>
   <tile gid="830"/>
   <tile gid="832"/>
   <tile gid="830"/>
   <tile gid="832"/>
   <tile gid="831"/>
   <tile gid="830"/>
   <tile gid="830"/>
   <tile gid="830"/>
   <tile gid="832"/>
   <tile gid="2147484477"/>
   <tile/>
   <tile/>
   <tile/>
   <tile/>
   <tile/>
   <tile/>
   <tile/>
   <tile/>
   <tile/>
   <tile/>
   <tile/>
   <tile/>
   <tile/>
   <tile/>
   <tile/>
   <tile/>
   <tile/>
   <tile/>
   <tile/>
   <tile/>
   <tile/>
   <tile/>
   <tile/>
   <tile/>
   <tile/>
   <tile/>
   <tile/>
   <tile/>
   <tile/>
   <tile gid="790"/>
   <tile/>
   <tile/>
   <tile/>
   <tile/>
   <tile/>
   <tile/>
   <tile/>
   <tile/>
   <tile/>
   <tile/>
   <tile/>
   <tile/>
   <tile/>
   <tile/>
   <tile/>
   <tile/>
   <tile/>
   <tile/>
   <tile/>
   <tile/>
   <tile/>
   <tile/>
   <tile/>
   <tile/>
   <tile/>
   <tile/>
   <tile/>
   <tile/>
   <tile/>
   <tile/>
   <tile/>
   <tile gid="2"/>
   <tile gid="2"/>
   <tile/>
   <tile/>
   <tile/>
   <tile gid="2"/>
   <tile gid="2"/>
   <tile/>
   <tile/>
   <tile/>
   <tile gid="2"/>
   <tile gid="2"/>
   <tile/>
   <tile/>
   <tile/>
   <tile/>
   <tile/>
   <tile/>
   <tile/>
   <tile/>
   <tile/>
   <tile/>
   <tile/>
   <tile/>
   <tile/>
   <tile/>
   <tile/>
   <tile/>
   <tile/>
   <tile/>
   <tile/>
   <tile/>
   <tile/>
   <tile/>
   <tile/>
   <tile/>
   <tile/>
   <tile/>
   <tile/>
   <tile/>
   <tile/>
   <tile/>
   <tile/>
   <tile gid="790"/>
   <tile/>
   <tile/>
   <tile/>
   <tile/>
   <tile/>
   <tile/>
   <tile/>
   <tile/>
   <tile/>
   <tile/>
   <tile/>
   <tile/>
   <tile/>
   <tile/>
   <tile/>
   <tile/>
   <tile/>
   <tile/>
   <tile/>
   <tile/>
   <tile/>
   <tile/>
   <tile/>
   <tile/>
   <tile/>
   <tile/>
   <tile/>
   <tile/>
   <tile/>
   <tile/>
   <tile/>
   <tile gid="2"/>
   <tile gid="2"/>
   <tile/>
   <tile/>
   <tile/>
   <tile gid="2"/>
   <tile gid="2"/>
   <tile/>
   <tile/>
   <tile/>
   <tile gid="2"/>
   <tile gid="2"/>
   <tile/>
   <tile/>
   <tile/>
   <tile/>
   <tile/>
   <tile/>
   <tile/>
   <tile/>
   <tile/>
   <tile/>
   <tile/>
   <tile/>
   <tile/>
   <tile/>
   <tile/>
   <tile/>
   <tile/>
   <tile/>
   <tile/>
   <tile/>
   <tile/>
   <tile/>
   <tile/>
   <tile/>
   <tile/>
   <tile/>
   <tile/>
   <tile/>
   <tile/>
   <tile/>
   <tile/>
   <tile gid="790"/>
   <tile/>
   <tile/>
   <tile gid="829"/>
   <tile gid="745"/>
   <tile gid="833"/>
   <tile/>
   <tile/>
   <tile/>
   <tile/>
   <tile/>
   <tile/>
   <tile/>
   <tile/>
   <tile/>
   <tile/>
   <tile/>
   <tile/>
   <tile/>
   <tile/>
   <tile/>
   <tile/>
   <tile/>
   <tile/>
   <tile/>
   <tile/>
   <tile/>
   <tile/>
   <tile/>
   <tile/>
   <tile/>
   <tile/>
   <tile gid="2"/>
   <tile gid="2"/>
   <tile/>
   <tile/>
   <tile/>
   <tile gid="2"/>
   <tile gid="2"/>
   <tile/>
   <tile/>
   <tile/>
   <tile gid="2"/>
   <tile gid="2"/>
   <tile/>
   <tile/>
   <tile/>
   <tile/>
   <tile/>
   <tile/>
   <tile/>
   <tile/>
   <tile/>
   <tile/>
   <tile/>
   <tile/>
   <tile/>
   <tile/>
   <tile/>
   <tile/>
   <tile/>
   <tile/>
   <tile/>
   <tile/>
   <tile/>
   <tile/>
   <tile/>
   <tile/>
   <tile/>
   <tile/>
   <tile/>
   <tile/>
   <tile/>
   <tile/>
   <tile/>
   <tile gid="790"/>
   <tile/>
   <tile/>
   <tile/>
   <tile/>
   <tile/>
   <tile/>
   <tile/>
   <tile/>
   <tile/>
   <tile/>
   <tile/>
   <tile/>
   <tile/>
   <tile/>
   <tile/>
   <tile/>
   <tile/>
   <tile/>
   <tile/>
   <tile/>
   <tile/>
   <tile/>
   <tile/>
   <tile/>
   <tile/>
   <tile/>
   <tile/>
   <tile/>
   <tile/>
   <tile/>
   <tile/>
   <tile gid="2"/>
   <tile gid="2"/>
   <tile/>
   <tile/>
   <tile/>
   <tile gid="2"/>
   <tile gid="2"/>
   <tile/>
   <tile/>
   <tile/>
   <tile gid="2"/>
   <tile gid="2"/>
   <tile/>
   <tile/>
   <tile/>
   <tile/>
   <tile/>
   <tile/>
   <tile/>
   <tile/>
   <tile/>
   <tile/>
   <tile/>
   <tile/>
   <tile/>
   <tile/>
   <tile/>
   <tile/>
   <tile/>
   <tile/>
   <tile/>
   <tile/>
   <tile/>
   <tile/>
   <tile/>
   <tile/>
   <tile/>
   <tile/>
   <tile/>
   <tile/>
   <tile/>
   <tile/>
   <tile/>
   <tile gid="790"/>
   <tile/>
   <tile/>
   <tile/>
   <tile/>
   <tile/>
   <tile/>
   <tile/>
   <tile/>
   <tile/>
   <tile/>
   <tile/>
   <tile/>
   <tile/>
   <tile/>
   <tile/>
   <tile/>
   <tile/>
   <tile/>
   <tile/>
   <tile/>
   <tile/>
   <tile/>
   <tile/>
   <tile/>
   <tile/>
   <tile/>
   <tile/>
   <tile/>
   <tile/>
   <tile/>
   <tile/>
   <tile gid="2"/>
   <tile gid="2"/>
   <tile/>
   <tile/>
   <tile/>
   <tile gid="2"/>
   <tile gid="2"/>
   <tile/>
   <tile/>
   <tile/>
   <tile gid="2"/>
   <tile gid="2"/>
   <tile/>
   <tile/>
   <tile/>
   <tile/>
   <tile/>
   <tile/>
   <tile/>
   <tile/>
   <tile/>
   <tile/>
   <tile/>
   <tile/>
   <tile/>
   <tile/>
   <tile/>
   <tile/>
   <tile/>
   <tile/>
   <tile/>
   <tile/>
   <tile/>
   <tile/>
   <tile/>
   <tile/>
   <tile/>
   <tile/>
   <tile/>
   <tile/>
   <tile/>
   <tile/>
   <tile/>
   <tile gid="790"/>
   <tile/>
   <tile/>
   <tile/>
   <tile/>
   <tile/>
   <tile/>
   <tile/>
   <tile/>
   <tile/>
   <tile/>
   <tile/>
   <tile/>
   <tile/>
   <tile/>
   <tile/>
   <tile/>
   <tile/>
   <tile/>
   <tile/>
   <tile/>
   <tile/>
   <tile/>
   <tile/>
   <tile/>
   <tile/>
   <tile/>
   <tile/>
   <tile/>
   <tile/>
   <tile/>
   <tile/>
   <tile gid="2"/>
   <tile gid="2"/>
   <tile/>
   <tile/>
   <tile/>
   <tile gid="2"/>
   <tile gid="2"/>
   <tile/>
   <tile/>
   <tile/>
   <tile gid="2"/>
   <tile gid="2"/>
   <tile/>
   <tile/>
   <tile/>
   <tile/>
   <tile/>
   <tile/>
   <tile/>
   <tile/>
   <tile/>
   <tile/>
   <tile/>
   <tile/>
   <tile/>
   <tile/>
   <tile/>
   <tile/>
   <tile/>
   <tile/>
   <tile/>
   <tile/>
   <tile/>
   <tile/>
   <tile/>
   <tile/>
   <tile/>
   <tile/>
   <tile/>
   <tile/>
   <tile/>
   <tile/>
   <tile/>
   <tile gid="790"/>
   <tile/>
   <tile/>
   <tile/>
   <tile/>
   <tile/>
   <tile/>
   <tile/>
   <tile/>
   <tile/>
   <tile/>
   <tile/>
   <tile/>
   <tile/>
   <tile/>
   <tile/>
   <tile/>
   <tile/>
   <tile/>
   <tile/>
   <tile/>
   <tile/>
   <tile/>
   <tile/>
   <tile/>
   <tile/>
   <tile/>
   <tile/>
   <tile/>
   <tile/>
   <tile/>
   <tile/>
   <tile gid="2"/>
   <tile gid="2"/>
   <tile/>
   <tile/>
   <tile/>
   <tile gid="2"/>
   <tile gid="2"/>
   <tile/>
   <tile/>
   <tile/>
   <tile gid="2"/>
   <tile gid="2"/>
   <tile/>
   <tile/>
   <tile/>
   <tile/>
   <tile/>
   <tile/>
   <tile/>
   <tile/>
   <tile/>
   <tile/>
   <tile/>
   <tile/>
   <tile/>
   <tile/>
   <tile/>
   <tile/>
   <tile/>
   <tile/>
   <tile/>
   <tile/>
   <tile/>
   <tile/>
   <tile/>
   <tile/>
   <tile/>
   <tile/>
   <tile/>
   <tile/>
   <tile/>
   <tile/>
   <tile/>
   <tile gid="745"/>
   <tile gid="745"/>
   <tile gid="746"/>
   <tile gid="745"/>
   <tile gid="746"/>
   <tile gid="744"/>
   <tile gid="744"/>
   <tile gid="746"/>
   <tile gid="744"/>
   <tile gid="746"/>
   <tile gid="745"/>
   <tile gid="744"/>
   <tile gid="744"/>
   <tile gid="744"/>
   <tile gid="746"/>
   <tile gid="746"/>
   <tile gid="746"/>
   <tile gid="746"/>
   <tile gid="746"/>
   <tile gid="746"/>
   <tile gid="746"/>
   <tile gid="745"/>
   <tile gid="745"/>
   <tile gid="744"/>
   <tile gid="745"/>
   <tile gid="746"/>
   <tile gid="744"/>
   <tile gid="744"/>
   <tile gid="746"/>
   <tile gid="746"/>
   <tile gid="745"/>
   <tile gid="746"/>
   <tile gid="746"/>
   <tile gid="744"/>
   <tile gid="745"/>
   <tile gid="745"/>
   <tile gid="745"/>
   <tile gid="745"/>
   <tile gid="746"/>
   <tile gid="744"/>
   <tile gid="746"/>
   <tile gid="746"/>
   <tile gid="746"/>
   <tile gid="746"/>
   <tile gid="746"/>
   <tile gid="745"/>
   <tile gid="745"/>
   <tile gid="745"/>
   <tile gid="745"/>
   <tile gid="746"/>
   <tile gid="744"/>
   <tile gid="745"/>
   <tile gid="745"/>
   <tile gid="745"/>
   <tile gid="746"/>
   <tile gid="744"/>
   <tile gid="744"/>
   <tile gid="744"/>
   <tile gid="744"/>
   <tile gid="746"/>
   <tile gid="744"/>
   <tile gid="745"/>
   <tile gid="744"/>
   <tile gid="744"/>
   <tile gid="746"/>
   <tile gid="746"/>
   <tile gid="745"/>
   <tile gid="745"/>
   <tile gid="745"/>
   <tile gid="746"/>
   <tile gid="744"/>
   <tile gid="746"/>
   <tile gid="746"/>
   <tile gid="746"/>
   <tile gid="744"/>
   <tile gid="789"/>
   <tile gid="789"/>
   <tile gid="787"/>
   <tile gid="789"/>
   <tile gid="789"/>
   <tile gid="789"/>
   <tile gid="787"/>
   <tile gid="787"/>
   <tile gid="787"/>
   <tile gid="789"/>
   <tile gid="787"/>
   <tile gid="787"/>
   <tile gid="789"/>
   <tile gid="789"/>
   <tile gid="787"/>
   <tile gid="787"/>
   <tile gid="787"/>
   <tile gid="789"/>
   <tile gid="787"/>
   <tile gid="789"/>
   <tile gid="787"/>
   <tile gid="787"/>
   <tile gid="787"/>
   <tile gid="789"/>
   <tile gid="789"/>
   <tile gid="787"/>
   <tile gid="787"/>
   <tile gid="789"/>
   <tile gid="789"/>
   <tile gid="787"/>
   <tile gid="789"/>
   <tile gid="787"/>
   <tile gid="789"/>
   <tile gid="789"/>
   <tile gid="787"/>
   <tile gid="789"/>
   <tile gid="787"/>
   <tile gid="789"/>
   <tile gid="787"/>
   <tile gid="789"/>
   <tile gid="787"/>
   <tile gid="789"/>
   <tile gid="787"/>
   <tile gid="789"/>
   <tile gid="789"/>
   <tile gid="787"/>
   <tile gid="789"/>
   <tile gid="789"/>
   <tile gid="787"/>
   <tile gid="787"/>
   <tile gid="787"/>
   <tile gid="787"/>
   <tile gid="789"/>
   <tile gid="787"/>
   <tile gid="789"/>
   <tile gid="787"/>
   <tile gid="789"/>
   <tile gid="789"/>
   <tile gid="787"/>
   <tile gid="789"/>
   <tile gid="787"/>
   <tile gid="787"/>
   <tile gid="787"/>
   <tile gid="787"/>
   <tile gid="789"/>
   <tile gid="789"/>
   <tile gid="787"/>
   <tile gid="787"/>
   <tile gid="787"/>
   <tile gid="787"/>
   <tile gid="789"/>
   <tile gid="787"/>
   <tile gid="787"/>
   <tile gid="787"/>
   <tile gid="787"/>
  </data>
 </layer>
 <objectgroup id="17" name="Items"/>
 <objectgroup id="18" name="Checkpoint"/>
 <objectgroup id="11" name="Doors"/>
 <objectgroup id="7" name="Floor">
  <object id="359" x="128" y="7936" width="9472" height="128"/>
  <object id="361" x="384" y="7296" width="384" height="128"/>
  <object id="362" x="1536" y="6912" width="4224" height="128"/>
  <object id="363" x="128" y="5376" width="1408" height="128"/>
  <object id="364" x="2304" y="6016" width="768" height="128"/>
  <object id="365" x="3840" y="6016" width="384" height="128"/>
  <object id="366" x="4224" y="5888" width="256" height="128"/>
  <object id="367" x="512" y="4608" width="2688" height="128"/>
  <object id="368" x="128" y="4224" width="384" height="128"/>
  <object id="369" x="1152" y="3712" width="3456" height="128"/>
  <object id="370" x="5120" y="1792" width="1408" height="128"/>
  <object id="371" x="6528" y="3072" width="3072" height="128"/>
  <object id="372" x="5120" y="5120" width="4480" height="128"/>
  <object id="373" x="4608" y="6016" width="1280" height="128"/>
 </objectgroup>
 <objectgroup id="19" name="spikes"/>
 <objectgroup id="9" name="Walls">
  <object id="374" x="6400" y="5248" width="128" height="768"/>
  <object id="375" x="5760" y="6144" width="128" height="896"/>
  <object id="376" x="4224" y="6016" width="384" height="128"/>
  <object id="377" x="3072" y="4736" width="128" height="1408"/>
  <object id="379" x="384" y="4352" width="128" height="256"/>
  <object id="380" x="128" y="4608" width="384" height="128"/>
  <object id="381" x="0" y="4736" width="128" height="640"/>
  <object id="382" x="1024" y="5504" width="128" height="640"/>
  <object id="383" x="128" y="6016" width="896" height="128"/>
  <object id="384" x="0" y="6144" width="128" height="1792"/>
  <object id="385" x="0" y="2944" width="128" height="1280"/>
  <object id="386" x="128" y="2816" width="1664" height="128"/>
  <object id="387" x="3712" y="2816" width="2688" height="128"/>
  <object id="388" x="6400" y="1920" width="128" height="2176"/>
  <object id="389" x="4992" y="768" width="128" height="1024"/>
  <object id="390" x="5120" y="640" width="2304" height="128"/>
  <object id="391" x="7424" y="768" width="128" height="1664"/>
  <object id="393" x="4480" y="3840" width="128" height="2176"/>
  <object id="395" x="6528" y="3968" width="2304" height="128"/>
  <object id="396" x="8832" y="4096" width="128" height="128"/>
  <object id="397" x="8960" y="4224" width="640" height="128"/>
  <object id="398" x="6528" y="5888" width="2304" height="128"/>
  <object id="399" x="8832" y="6016" width="384" height="128"/>
  <object id="400" x="9216" y="6144" width="128" height="128"/>
  <object id="401" x="9344" y="6272" width="128" height="256"/>
  <object id="402" x="9472" y="6528" width="128" height="384"/>
  <object id="404" x="1664" y="768" width="128" height="2048"/>
  <object id="405" x="3712" y="768" width="128" height="2048"/>
  <object id="406" x="1792" y="640" width="1920" height="128"/>
  <object id="407" x="7552" y="2304" width="2048" height="128"/>
  <object id="408" x="12016" y="1696"/>
 </objectgroup>
 <objectgroup id="8" name="Entities">
  <object id="409" name="Player" type="Player" x="5955.76" y="4819.76">
   <point/>
  </object>
 </objectgroup>
 <layer id="21" name="Moho" width="75" height="64">
  <data>
   <tile/>
   <tile/>
   <tile/>
   <tile/>
   <tile/>
   <tile/>
   <tile/>
   <tile/>
   <tile/>
   <tile/>
   <tile/>
   <tile/>
   <tile/>
   <tile/>
   <tile/>
   <tile/>
   <tile/>
   <tile/>
   <tile/>
   <tile/>
   <tile/>
   <tile/>
   <tile/>
   <tile/>
   <tile/>
   <tile/>
   <tile/>
   <tile/>
   <tile/>
   <tile/>
   <tile/>
   <tile/>
   <tile/>
   <tile/>
   <tile/>
   <tile/>
   <tile/>
   <tile/>
   <tile/>
   <tile/>
   <tile/>
   <tile/>
   <tile/>
   <tile/>
   <tile/>
   <tile/>
   <tile/>
   <tile/>
   <tile/>
   <tile/>
   <tile/>
   <tile/>
   <tile/>
   <tile/>
   <tile/>
   <tile/>
   <tile/>
   <tile/>
   <tile/>
   <tile/>
   <tile/>
   <tile/>
   <tile/>
   <tile/>
   <tile/>
   <tile/>
   <tile/>
   <tile/>
   <tile/>
   <tile/>
   <tile/>
   <tile/>
   <tile/>
   <tile/>
   <tile/>
   <tile/>
   <tile/>
   <tile/>
   <tile/>
   <tile/>
   <tile/>
   <tile/>
   <tile/>
   <tile/>
   <tile/>
   <tile/>
   <tile/>
   <tile/>
   <tile/>
   <tile/>
   <tile/>
   <tile/>
   <tile/>
   <tile/>
   <tile/>
   <tile/>
   <tile/>
   <tile/>
   <tile/>
   <tile/>
   <tile/>
   <tile/>
   <tile/>
   <tile/>
   <tile/>
   <tile/>
   <tile/>
   <tile/>
   <tile/>
   <tile/>
   <tile/>
   <tile/>
   <tile/>
   <tile/>
   <tile/>
   <tile/>
   <tile/>
   <tile/>
   <tile/>
   <tile/>
   <tile/>
   <tile/>
   <tile/>
   <tile/>
   <tile/>
   <tile/>
   <tile/>
   <tile/>
   <tile/>
   <tile/>
   <tile/>
   <tile/>
   <tile/>
   <tile/>
   <tile/>
   <tile/>
   <tile/>
   <tile/>
   <tile/>
   <tile/>
   <tile/>
   <tile/>
   <tile/>
   <tile/>
   <tile/>
   <tile/>
   <tile/>
   <tile/>
   <tile/>
   <tile/>
   <tile/>
   <tile/>
   <tile/>
   <tile/>
   <tile/>
   <tile/>
   <tile/>
   <tile/>
   <tile/>
   <tile/>
   <tile/>
   <tile/>
   <tile/>
   <tile/>
   <tile/>
   <tile/>
   <tile/>
   <tile/>
   <tile/>
   <tile/>
   <tile/>
   <tile/>
   <tile/>
   <tile/>
   <tile/>
   <tile/>
   <tile/>
   <tile/>
   <tile/>
   <tile/>
   <tile/>
   <tile/>
   <tile/>
   <tile/>
   <tile/>
   <tile/>
   <tile/>
   <tile/>
   <tile/>
   <tile/>
   <tile/>
   <tile/>
   <tile/>
   <tile/>
   <tile/>
   <tile/>
   <tile/>
   <tile/>
   <tile/>
   <tile/>
   <tile/>
   <tile/>
   <tile/>
   <tile/>
   <tile/>
   <tile/>
   <tile/>
   <tile/>
   <tile/>
   <tile/>
   <tile/>
   <tile/>
   <tile/>
   <tile/>
   <tile/>
   <tile/>
   <tile/>
   <tile/>
   <tile/>
   <tile/>
   <tile/>
   <tile/>
   <tile/>
   <tile/>
   <tile/>
   <tile/>
   <tile/>
   <tile/>
   <tile/>
   <tile/>
   <tile/>
   <tile/>
   <tile/>
   <tile/>
   <tile/>
   <tile/>
   <tile/>
   <tile/>
   <tile/>
   <tile/>
   <tile/>
   <tile/>
   <tile/>
   <tile/>
   <tile/>
   <tile/>
   <tile/>
   <tile/>
   <tile/>
   <tile/>
   <tile/>
   <tile/>
   <tile/>
   <tile/>
   <tile/>
   <tile/>
   <tile/>
   <tile/>
   <tile/>
   <tile/>
   <tile/>
   <tile/>
   <tile/>
   <tile/>
   <tile/>
   <tile/>
   <tile/>
   <tile/>
   <tile/>
   <tile/>
   <tile/>
   <tile/>
   <tile/>
   <tile/>
   <tile/>
   <tile/>
   <tile/>
   <tile/>
   <tile/>
   <tile/>
   <tile/>
   <tile/>
   <tile/>
   <tile/>
   <tile/>
   <tile/>
   <tile/>
   <tile/>
   <tile/>
   <tile/>
   <tile/>
   <tile/>
   <tile/>
   <tile/>
   <tile/>
   <tile/>
   <tile/>
   <tile/>
   <tile/>
   <tile/>
   <tile/>
   <tile/>
   <tile/>
   <tile/>
   <tile/>
   <tile/>
   <tile/>
   <tile/>
   <tile/>
   <tile/>
   <tile/>
   <tile/>
   <tile/>
   <tile/>
   <tile/>
   <tile/>
   <tile/>
   <tile/>
   <tile/>
   <tile/>
   <tile/>
   <tile/>
   <tile/>
   <tile/>
   <tile/>
   <tile/>
   <tile/>
   <tile/>
   <tile/>
   <tile/>
   <tile/>
   <tile/>
   <tile/>
   <tile/>
   <tile/>
   <tile/>
   <tile/>
   <tile/>
   <tile/>
   <tile/>
   <tile/>
   <tile/>
   <tile/>
   <tile/>
   <tile/>
   <tile/>
   <tile/>
   <tile/>
   <tile/>
   <tile/>
   <tile/>
   <tile/>
   <tile/>
   <tile/>
   <tile/>
   <tile/>
   <tile/>
   <tile/>
   <tile/>
   <tile/>
   <tile/>
   <tile/>
   <tile/>
   <tile/>
   <tile/>
   <tile/>
   <tile/>
   <tile/>
   <tile/>
   <tile/>
   <tile/>
   <tile/>
   <tile/>
   <tile/>
   <tile/>
   <tile/>
   <tile/>
   <tile/>
   <tile/>
   <tile/>
   <tile/>
   <tile/>
   <tile/>
   <tile/>
   <tile/>
   <tile/>
   <tile/>
   <tile/>
   <tile/>
   <tile/>
   <tile/>
   <tile/>
   <tile/>
   <tile/>
   <tile/>
   <tile/>
   <tile/>
   <tile/>
   <tile/>
   <tile/>
   <tile/>
   <tile/>
   <tile/>
   <tile/>
   <tile/>
   <tile/>
   <tile/>
   <tile/>
   <tile/>
   <tile/>
   <tile/>
   <tile/>
   <tile/>
   <tile/>
   <tile/>
   <tile/>
   <tile/>
   <tile/>
   <tile/>
   <tile/>
   <tile/>
   <tile/>
   <tile/>
   <tile/>
   <tile/>
   <tile/>
   <tile/>
   <tile/>
   <tile/>
   <tile/>
   <tile/>
   <tile/>
   <tile/>
   <tile/>
   <tile/>
   <tile/>
   <tile/>
   <tile/>
   <tile/>
   <tile/>
   <tile/>
   <tile/>
   <tile/>
   <tile/>
   <tile/>
   <tile/>
   <tile/>
   <tile/>
   <tile/>
   <tile/>
   <tile/>
   <tile/>
   <tile/>
   <tile/>
   <tile/>
   <tile/>
   <tile/>
   <tile/>
   <tile/>
   <tile/>
   <tile/>
   <tile/>
   <tile/>
   <tile/>
   <tile/>
   <tile/>
   <tile/>
   <tile/>
   <tile/>
   <tile/>
   <tile/>
   <tile/>
   <tile/>
   <tile/>
   <tile/>
   <tile/>
   <tile/>
   <tile/>
   <tile/>
   <tile/>
   <tile/>
   <tile/>
   <tile/>
   <tile/>
   <tile/>
   <tile/>
   <tile/>
   <tile/>
   <tile/>
   <tile/>
   <tile/>
   <tile/>
   <tile/>
   <tile/>
   <tile/>
   <tile/>
   <tile/>
   <tile/>
   <tile/>
   <tile/>
   <tile/>
   <tile/>
   <tile/>
   <tile/>
   <tile/>
   <tile/>
   <tile/>
   <tile/>
   <tile/>
   <tile/>
   <tile/>
   <tile/>
   <tile/>
   <tile/>
   <tile/>
   <tile/>
   <tile/>
   <tile/>
   <tile/>
   <tile/>
   <tile/>
   <tile/>
   <tile/>
   <tile/>
   <tile/>
   <tile/>
   <tile/>
   <tile/>
   <tile/>
   <tile/>
   <tile/>
   <tile/>
   <tile/>
   <tile/>
   <tile/>
   <tile/>
   <tile/>
   <tile/>
   <tile/>
   <tile/>
   <tile/>
   <tile/>
   <tile/>
   <tile/>
   <tile/>
   <tile/>
   <tile/>
   <tile/>
   <tile/>
   <tile/>
   <tile/>
   <tile/>
   <tile/>
   <tile/>
   <tile/>
   <tile/>
   <tile/>
   <tile/>
   <tile/>
   <tile/>
   <tile/>
   <tile/>
   <tile/>
   <tile/>
   <tile/>
   <tile/>
   <tile/>
   <tile/>
   <tile/>
   <tile/>
   <tile/>
   <tile/>
   <tile/>
   <tile/>
   <tile/>
   <tile/>
   <tile/>
   <tile/>
   <tile/>
   <tile/>
   <tile/>
   <tile/>
   <tile/>
   <tile/>
   <tile/>
   <tile/>
   <tile/>
   <tile/>
   <tile/>
   <tile/>
   <tile/>
   <tile/>
   <tile/>
   <tile/>
   <tile/>
   <tile/>
   <tile/>
   <tile/>
   <tile/>
   <tile/>
   <tile/>
   <tile/>
   <tile/>
   <tile/>
   <tile/>
   <tile/>
   <tile/>
   <tile/>
   <tile/>
   <tile/>
   <tile/>
   <tile/>
   <tile/>
   <tile/>
   <tile/>
   <tile/>
   <tile/>
   <tile/>
   <tile/>
   <tile/>
   <tile/>
   <tile/>
   <tile/>
   <tile/>
   <tile/>
   <tile/>
   <tile/>
   <tile/>
   <tile/>
   <tile/>
   <tile/>
   <tile/>
   <tile/>
   <tile/>
   <tile/>
   <tile/>
   <tile/>
   <tile/>
   <tile/>
   <tile/>
   <tile/>
   <tile/>
   <tile/>
   <tile/>
   <tile/>
   <tile/>
   <tile/>
   <tile/>
   <tile/>
   <tile/>
   <tile/>
   <tile/>
   <tile/>
   <tile/>
   <tile/>
   <tile/>
   <tile/>
   <tile/>
   <tile/>
   <tile/>
   <tile/>
   <tile/>
   <tile/>
   <tile/>
   <tile/>
   <tile/>
   <tile/>
   <tile/>
   <tile/>
   <tile/>
   <tile/>
   <tile/>
   <tile/>
   <tile/>
   <tile/>
   <tile/>
   <tile/>
   <tile/>
   <tile/>
   <tile/>
   <tile/>
   <tile/>
   <tile/>
   <tile/>
   <tile/>
   <tile/>
   <tile/>
   <tile/>
   <tile/>
   <tile/>
   <tile/>
   <tile/>
   <tile/>
   <tile/>
   <tile/>
   <tile/>
   <tile/>
   <tile/>
   <tile/>
   <tile/>
   <tile/>
   <tile/>
   <tile/>
   <tile/>
   <tile/>
   <tile/>
   <tile/>
   <tile/>
   <tile/>
   <tile/>
   <tile/>
   <tile/>
   <tile/>
   <tile/>
   <tile/>
   <tile/>
   <tile/>
   <tile/>
   <tile/>
   <tile/>
   <tile/>
   <tile/>
   <tile/>
   <tile/>
   <tile/>
   <tile/>
   <tile/>
   <tile/>
   <tile/>
   <tile/>
   <tile/>
   <tile/>
   <tile/>
   <tile/>
   <tile/>
   <tile/>
   <tile/>
   <tile/>
   <tile/>
   <tile/>
   <tile/>
   <tile/>
   <tile/>
   <tile/>
   <tile/>
   <tile/>
   <tile/>
   <tile/>
   <tile/>
   <tile/>
   <tile/>
   <tile/>
   <tile/>
   <tile/>
   <tile/>
   <tile/>
   <tile/>
   <tile/>
   <tile/>
   <tile/>
   <tile/>
   <tile/>
   <tile/>
   <tile/>
   <tile/>
   <tile/>
   <tile/>
   <tile/>
   <tile/>
   <tile/>
   <tile/>
   <tile/>
   <tile/>
   <tile/>
   <tile/>
   <tile/>
   <tile/>
   <tile/>
   <tile/>
   <tile/>
   <tile/>
   <tile/>
   <tile/>
   <tile/>
   <tile/>
   <tile/>
   <tile/>
   <tile/>
   <tile/>
   <tile/>
   <tile/>
   <tile/>
   <tile/>
   <tile/>
   <tile/>
   <tile/>
   <tile/>
   <tile/>
   <tile/>
   <tile/>
   <tile/>
   <tile/>
   <tile/>
   <tile/>
   <tile/>
   <tile/>
   <tile/>
   <tile/>
   <tile/>
   <tile/>
   <tile/>
   <tile/>
   <tile/>
   <tile/>
   <tile/>
   <tile/>
   <tile/>
   <tile/>
   <tile/>
   <tile/>
   <tile/>
   <tile/>
   <tile/>
   <tile/>
   <tile/>
   <tile/>
   <tile/>
   <tile/>
   <tile/>
   <tile/>
   <tile/>
   <tile/>
   <tile/>
   <tile/>
   <tile/>
   <tile/>
   <tile/>
   <tile/>
   <tile/>
   <tile/>
   <tile/>
   <tile/>
   <tile/>
   <tile/>
   <tile/>
   <tile/>
   <tile/>
   <tile/>
   <tile/>
   <tile/>
   <tile/>
   <tile/>
   <tile/>
   <tile/>
   <tile/>
   <tile/>
   <tile/>
   <tile/>
   <tile/>
   <tile/>
   <tile/>
   <tile/>
   <tile/>
   <tile/>
   <tile/>
   <tile/>
   <tile/>
   <tile/>
   <tile/>
   <tile/>
   <tile/>
   <tile/>
   <tile/>
   <tile/>
   <tile/>
   <tile/>
   <tile/>
   <tile/>
   <tile/>
   <tile/>
   <tile/>
   <tile/>
   <tile/>
   <tile/>
   <tile/>
   <tile/>
   <tile/>
   <tile/>
   <tile/>
   <tile/>
   <tile/>
   <tile/>
   <tile/>
   <tile/>
   <tile/>
   <tile/>
   <tile/>
   <tile/>
   <tile/>
   <tile/>
   <tile/>
   <tile/>
   <tile/>
   <tile/>
   <tile/>
   <tile/>
   <tile/>
   <tile/>
   <tile/>
   <tile/>
   <tile/>
   <tile/>
   <tile/>
   <tile/>
   <tile/>
   <tile/>
   <tile/>
   <tile/>
   <tile/>
   <tile/>
   <tile/>
   <tile/>
   <tile/>
   <tile/>
   <tile/>
   <tile/>
   <tile/>
   <tile/>
   <tile/>
   <tile/>
   <tile/>
   <tile/>
   <tile/>
   <tile/>
   <tile/>
   <tile/>
   <tile/>
   <tile/>
   <tile/>
   <tile/>
   <tile/>
   <tile/>
   <tile/>
   <tile/>
   <tile/>
   <tile/>
   <tile/>
   <tile/>
   <tile/>
   <tile/>
   <tile/>
   <tile/>
   <tile/>
   <tile/>
   <tile/>
   <tile/>
   <tile/>
   <tile/>
   <tile/>
   <tile/>
   <tile/>
   <tile/>
   <tile/>
   <tile/>
   <tile/>
   <tile/>
   <tile/>
   <tile/>
   <tile/>
   <tile/>
   <tile/>
   <tile/>
   <tile/>
   <tile/>
   <tile/>
   <tile/>
   <tile/>
   <tile/>
   <tile/>
   <tile/>
   <tile/>
   <tile/>
   <tile/>
   <tile/>
   <tile/>
   <tile/>
   <tile/>
   <tile/>
   <tile/>
   <tile/>
   <tile/>
   <tile/>
   <tile/>
   <tile/>
   <tile/>
   <tile/>
   <tile/>
   <tile/>
   <tile/>
   <tile/>
   <tile/>
   <tile/>
   <tile/>
   <tile/>
   <tile/>
   <tile/>
   <tile/>
   <tile/>
   <tile/>
   <tile/>
   <tile/>
   <tile/>
   <tile/>
   <tile/>
   <tile/>
   <tile/>
   <tile/>
   <tile/>
   <tile/>
   <tile/>
   <tile/>
   <tile/>
   <tile/>
   <tile/>
   <tile/>
   <tile/>
   <tile/>
   <tile/>
   <tile/>
   <tile/>
   <tile/>
   <tile/>
   <tile/>
   <tile/>
   <tile/>
   <tile/>
   <tile/>
   <tile/>
   <tile/>
   <tile/>
   <tile/>
   <tile/>
   <tile/>
   <tile/>
   <tile/>
   <tile/>
   <tile/>
   <tile/>
   <tile/>
   <tile/>
   <tile/>
   <tile/>
   <tile/>
   <tile/>
   <tile/>
   <tile/>
   <tile/>
   <tile/>
   <tile/>
   <tile/>
   <tile/>
   <tile/>
   <tile/>
   <tile/>
   <tile/>
   <tile/>
   <tile/>
   <tile/>
   <tile/>
   <tile/>
   <tile/>
   <tile/>
   <tile/>
   <tile/>
   <tile/>
   <tile/>
   <tile/>
   <tile/>
   <tile/>
   <tile/>
   <tile/>
   <tile/>
   <tile/>
   <tile/>
   <tile/>
   <tile/>
   <tile/>
   <tile/>
   <tile/>
   <tile/>
   <tile/>
   <tile/>
   <tile/>
   <tile/>
   <tile/>
   <tile/>
   <tile/>
   <tile/>
   <tile/>
   <tile/>
   <tile/>
   <tile/>
   <tile/>
   <tile/>
   <tile/>
   <tile/>
   <tile/>
   <tile/>
   <tile/>
   <tile/>
   <tile/>
   <tile/>
   <tile/>
   <tile/>
   <tile/>
   <tile/>
   <tile/>
   <tile/>
   <tile/>
   <tile/>
   <tile/>
   <tile/>
   <tile/>
   <tile/>
   <tile/>
   <tile/>
   <tile/>
   <tile/>
   <tile/>
   <tile/>
   <tile/>
   <tile/>
   <tile/>
   <tile/>
   <tile/>
   <tile/>
   <tile/>
   <tile/>
   <tile/>
   <tile/>
   <tile/>
   <tile/>
   <tile/>
   <tile/>
   <tile/>
   <tile/>
   <tile/>
   <tile/>
   <tile/>
   <tile/>
   <tile/>
   <tile/>
   <tile/>
   <tile/>
   <tile/>
   <tile/>
   <tile/>
   <tile/>
   <tile/>
   <tile/>
   <tile/>
   <tile/>
   <tile/>
   <tile/>
   <tile/>
   <tile/>
   <tile/>
   <tile/>
   <tile/>
   <tile/>
   <tile/>
   <tile/>
   <tile/>
   <tile/>
   <tile/>
   <tile/>
   <tile/>
   <tile/>
   <tile/>
   <tile/>
   <tile/>
   <tile/>
   <tile/>
   <tile/>
   <tile/>
   <tile/>
   <tile/>
   <tile/>
   <tile/>
   <tile/>
   <tile/>
   <tile/>
   <tile/>
   <tile/>
   <tile/>
   <tile/>
   <tile/>
   <tile/>
   <tile/>
   <tile/>
   <tile/>
   <tile/>
   <tile/>
   <tile/>
   <tile/>
   <tile/>
   <tile/>
   <tile/>
   <tile/>
   <tile/>
   <tile/>
   <tile/>
   <tile/>
   <tile/>
   <tile/>
   <tile/>
   <tile/>
   <tile/>
   <tile/>
   <tile/>
   <tile/>
   <tile/>
   <tile/>
   <tile/>
   <tile/>
   <tile/>
   <tile/>
   <tile/>
   <tile/>
   <tile/>
   <tile/>
   <tile/>
   <tile/>
   <tile/>
   <tile/>
   <tile/>
   <tile/>
   <tile/>
   <tile/>
   <tile/>
   <tile/>
   <tile/>
   <tile/>
   <tile/>
   <tile/>
   <tile/>
   <tile/>
   <tile/>
   <tile/>
   <tile/>
   <tile/>
   <tile/>
   <tile/>
   <tile/>
   <tile/>
   <tile/>
   <tile/>
   <tile/>
   <tile/>
   <tile/>
   <tile/>
   <tile/>
   <tile/>
   <tile/>
   <tile/>
   <tile/>
   <tile/>
   <tile/>
   <tile/>
   <tile/>
   <tile/>
   <tile/>
   <tile/>
   <tile/>
   <tile/>
   <tile/>
   <tile/>
   <tile/>
   <tile/>
   <tile/>
   <tile/>
   <tile/>
   <tile/>
   <tile/>
   <tile/>
   <tile/>
   <tile/>
   <tile/>
   <tile/>
   <tile/>
   <tile/>
   <tile/>
   <tile/>
   <tile/>
   <tile/>
   <tile/>
   <tile/>
   <tile/>
   <tile/>
   <tile/>
   <tile/>
   <tile/>
   <tile/>
   <tile/>
   <tile/>
   <tile/>
   <tile/>
   <tile/>
   <tile/>
   <tile/>
   <tile/>
   <tile/>
   <tile/>
   <tile/>
   <tile/>
   <tile/>
   <tile/>
   <tile/>
   <tile/>
   <tile/>
   <tile/>
   <tile/>
   <tile/>
   <tile/>
   <tile/>
   <tile/>
   <tile/>
   <tile/>
   <tile/>
   <tile/>
   <tile/>
   <tile/>
   <tile/>
   <tile/>
   <tile/>
   <tile/>
   <tile/>
   <tile/>
   <tile/>
   <tile/>
   <tile/>
   <tile/>
   <tile/>
   <tile/>
   <tile/>
   <tile/>
   <tile/>
   <tile/>
   <tile/>
   <tile/>
   <tile/>
   <tile/>
   <tile/>
   <tile/>
   <tile/>
   <tile/>
   <tile/>
   <tile/>
   <tile/>
   <tile/>
   <tile/>
   <tile/>
   <tile/>
   <tile/>
   <tile/>
   <tile/>
   <tile/>
   <tile/>
   <tile/>
   <tile/>
   <tile/>
   <tile/>
   <tile/>
   <tile/>
   <tile/>
   <tile/>
   <tile/>
   <tile/>
   <tile/>
   <tile/>
   <tile/>
   <tile/>
   <tile/>
   <tile/>
   <tile/>
   <tile/>
   <tile/>
   <tile/>
   <tile/>
   <tile/>
   <tile/>
   <tile/>
   <tile/>
   <tile/>
   <tile/>
   <tile/>
   <tile/>
   <tile/>
   <tile/>
   <tile/>
   <tile/>
   <tile/>
   <tile/>
   <tile/>
   <tile/>
   <tile/>
   <tile/>
   <tile/>
   <tile/>
   <tile/>
   <tile/>
   <tile/>
   <tile/>
   <tile/>
   <tile/>
   <tile/>
   <tile/>
   <tile/>
   <tile/>
   <tile/>
   <tile/>
   <tile/>
   <tile/>
   <tile/>
   <tile/>
   <tile/>
   <tile/>
   <tile/>
   <tile/>
   <tile/>
   <tile/>
   <tile/>
   <tile/>
   <tile/>
   <tile/>
   <tile/>
   <tile/>
   <tile/>
   <tile/>
   <tile/>
   <tile/>
   <tile/>
   <tile/>
   <tile/>
   <tile/>
   <tile/>
   <tile/>
   <tile/>
   <tile/>
   <tile/>
   <tile/>
   <tile/>
   <tile/>
   <tile/>
   <tile/>
   <tile/>
   <tile/>
   <tile/>
   <tile/>
   <tile/>
   <tile/>
   <tile/>
   <tile/>
   <tile/>
   <tile/>
   <tile/>
   <tile/>
   <tile/>
   <tile/>
   <tile/>
   <tile/>
   <tile/>
   <tile/>
   <tile/>
   <tile/>
   <tile/>
   <tile/>
   <tile/>
   <tile/>
   <tile/>
   <tile/>
   <tile/>
   <tile/>
   <tile/>
   <tile/>
   <tile/>
   <tile/>
   <tile/>
   <tile/>
   <tile/>
   <tile/>
   <tile/>
   <tile/>
   <tile/>
   <tile/>
   <tile/>
   <tile/>
   <tile/>
   <tile/>
   <tile/>
   <tile/>
   <tile/>
   <tile/>
   <tile/>
   <tile/>
   <tile/>
   <tile/>
   <tile/>
   <tile/>
   <tile/>
   <tile/>
   <tile/>
   <tile/>
   <tile/>
   <tile/>
   <tile/>
   <tile/>
   <tile/>
   <tile/>
   <tile/>
   <tile/>
   <tile/>
   <tile/>
   <tile/>
   <tile/>
   <tile/>
   <tile/>
   <tile/>
   <tile/>
   <tile/>
   <tile/>
   <tile/>
   <tile/>
   <tile/>
   <tile/>
   <tile/>
   <tile/>
   <tile/>
   <tile/>
   <tile/>
   <tile/>
   <tile/>
   <tile/>
   <tile/>
   <tile/>
   <tile/>
   <tile/>
   <tile/>
   <tile/>
   <tile/>
   <tile/>
   <tile/>
   <tile/>
   <tile/>
   <tile/>
   <tile/>
   <tile/>
   <tile/>
   <tile/>
   <tile/>
   <tile/>
   <tile/>
   <tile/>
   <tile/>
   <tile/>
   <tile/>
   <tile/>
   <tile/>
   <tile/>
   <tile/>
   <tile/>
   <tile/>
   <tile/>
   <tile/>
   <tile/>
   <tile/>
   <tile/>
   <tile/>
   <tile/>
   <tile/>
   <tile/>
   <tile/>
   <tile/>
   <tile/>
   <tile/>
   <tile/>
   <tile/>
   <tile/>
   <tile/>
   <tile/>
   <tile/>
   <tile/>
   <tile/>
   <tile/>
   <tile/>
   <tile/>
   <tile/>
   <tile/>
   <tile/>
   <tile/>
   <tile/>
   <tile/>
   <tile/>
   <tile/>
   <tile/>
   <tile/>
   <tile/>
   <tile/>
   <tile/>
   <tile/>
   <tile/>
   <tile/>
   <tile/>
   <tile/>
   <tile/>
   <tile/>
   <tile/>
   <tile/>
   <tile/>
   <tile/>
   <tile/>
   <tile/>
   <tile/>
   <tile/>
   <tile/>
   <tile/>
   <tile/>
   <tile/>
   <tile/>
   <tile/>
   <tile/>
   <tile/>
   <tile/>
   <tile/>
   <tile/>
   <tile/>
   <tile/>
   <tile/>
   <tile/>
   <tile/>
   <tile/>
   <tile/>
   <tile/>
   <tile/>
   <tile/>
   <tile/>
   <tile/>
   <tile/>
   <tile/>
   <tile/>
   <tile/>
   <tile/>
   <tile/>
   <tile/>
   <tile/>
   <tile/>
   <tile/>
   <tile/>
   <tile/>
   <tile/>
   <tile/>
   <tile/>
   <tile/>
   <tile/>
   <tile/>
   <tile/>
   <tile/>
   <tile/>
   <tile/>
   <tile/>
   <tile/>
   <tile/>
   <tile/>
   <tile/>
   <tile/>
   <tile/>
   <tile/>
   <tile/>
   <tile/>
   <tile/>
   <tile/>
   <tile/>
   <tile/>
   <tile/>
   <tile/>
   <tile/>
   <tile/>
   <tile/>
   <tile/>
   <tile/>
   <tile/>
   <tile/>
   <tile/>
   <tile/>
   <tile/>
   <tile/>
   <tile/>
   <tile/>
   <tile/>
   <tile/>
   <tile/>
   <tile/>
   <tile/>
   <tile/>
   <tile/>
   <tile/>
   <tile/>
   <tile/>
   <tile/>
   <tile/>
   <tile/>
   <tile/>
   <tile/>
   <tile/>
   <tile/>
   <tile/>
   <tile/>
   <tile/>
   <tile/>
   <tile/>
   <tile/>
   <tile/>
   <tile/>
   <tile/>
   <tile/>
   <tile/>
   <tile/>
   <tile/>
   <tile/>
   <tile/>
   <tile/>
   <tile/>
   <tile/>
   <tile/>
   <tile/>
   <tile/>
   <tile/>
   <tile/>
   <tile/>
   <tile/>
   <tile/>
   <tile/>
   <tile/>
   <tile/>
   <tile/>
   <tile/>
   <tile/>
   <tile/>
   <tile/>
   <tile/>
   <tile/>
   <tile/>
   <tile/>
   <tile/>
   <tile/>
   <tile/>
   <tile/>
   <tile/>
   <tile/>
   <tile/>
   <tile/>
   <tile/>
   <tile/>
   <tile/>
   <tile/>
   <tile/>
   <tile/>
   <tile/>
   <tile/>
   <tile/>
   <tile/>
   <tile/>
   <tile/>
   <tile/>
   <tile/>
   <tile/>
   <tile/>
   <tile/>
   <tile/>
   <tile/>
   <tile/>
   <tile/>
   <tile/>
   <tile/>
   <tile/>
   <tile/>
   <tile/>
   <tile/>
   <tile/>
   <tile/>
   <tile/>
   <tile/>
   <tile/>
   <tile/>
   <tile/>
   <tile/>
   <tile/>
   <tile/>
   <tile/>
   <tile/>
   <tile/>
   <tile/>
   <tile/>
   <tile/>
   <tile/>
   <tile/>
   <tile/>
   <tile/>
   <tile/>
   <tile/>
   <tile/>
   <tile/>
   <tile/>
   <tile/>
   <tile/>
   <tile/>
   <tile/>
   <tile/>
   <tile/>
   <tile/>
   <tile/>
   <tile/>
   <tile/>
   <tile/>
   <tile/>
   <tile/>
   <tile/>
   <tile/>
   <tile/>
   <tile/>
   <tile/>
   <tile/>
   <tile/>
   <tile/>
   <tile/>
   <tile/>
   <tile/>
   <tile/>
   <tile/>
   <tile/>
   <tile/>
   <tile/>
   <tile/>
   <tile/>
   <tile/>
   <tile/>
   <tile/>
   <tile/>
   <tile/>
   <tile/>
   <tile/>
   <tile/>
   <tile/>
   <tile/>
   <tile/>
   <tile/>
   <tile/>
   <tile/>
   <tile/>
   <tile/>
   <tile/>
   <tile/>
   <tile/>
   <tile/>
   <tile/>
   <tile/>
   <tile/>
   <tile/>
   <tile/>
   <tile/>
   <tile/>
   <tile/>
   <tile/>
   <tile/>
   <tile/>
   <tile/>
   <tile/>
   <tile/>
   <tile/>
   <tile/>
   <tile/>
   <tile/>
   <tile/>
   <tile/>
   <tile/>
   <tile/>
   <tile/>
   <tile/>
   <tile/>
   <tile/>
   <tile/>
   <tile/>
   <tile/>
   <tile/>
   <tile/>
   <tile/>
   <tile/>
   <tile/>
   <tile/>
   <tile/>
   <tile/>
   <tile/>
   <tile/>
   <tile/>
   <tile/>
   <tile/>
   <tile/>
   <tile/>
   <tile/>
   <tile/>
   <tile/>
   <tile/>
   <tile/>
   <tile/>
   <tile/>
   <tile/>
   <tile/>
   <tile/>
   <tile/>
   <tile/>
   <tile/>
   <tile/>
   <tile/>
   <tile/>
   <tile/>
   <tile/>
   <tile/>
   <tile/>
   <tile/>
   <tile/>
   <tile/>
   <tile/>
   <tile/>
   <tile/>
   <tile/>
   <tile/>
   <tile/>
   <tile/>
   <tile/>
   <tile/>
   <tile/>
   <tile/>
   <tile/>
   <tile/>
   <tile/>
   <tile/>
   <tile/>
   <tile/>
   <tile/>
   <tile/>
   <tile/>
   <tile/>
   <tile/>
   <tile/>
   <tile/>
   <tile/>
   <tile/>
   <tile/>
   <tile/>
   <tile/>
   <tile/>
   <tile/>
   <tile/>
   <tile/>
   <tile/>
   <tile/>
   <tile/>
   <tile/>
   <tile/>
   <tile/>
   <tile/>
   <tile/>
   <tile/>
   <tile/>
   <tile/>
   <tile/>
   <tile/>
   <tile/>
   <tile/>
   <tile/>
   <tile/>
   <tile/>
   <tile/>
   <tile/>
   <tile/>
   <tile/>
   <tile/>
   <tile/>
   <tile/>
   <tile/>
   <tile/>
   <tile/>
   <tile/>
   <tile/>
   <tile/>
   <tile/>
   <tile/>
   <tile/>
   <tile/>
   <tile/>
   <tile/>
   <tile/>
   <tile/>
   <tile/>
   <tile/>
   <tile/>
   <tile/>
   <tile/>
   <tile/>
   <tile/>
   <tile/>
   <tile/>
   <tile/>
   <tile/>
   <tile/>
   <tile/>
   <tile/>
   <tile/>
   <tile/>
   <tile/>
   <tile/>
   <tile/>
   <tile/>
   <tile/>
   <tile/>
   <tile/>
   <tile/>
   <tile/>
   <tile/>
   <tile/>
   <tile/>
   <tile/>
   <tile/>
   <tile/>
   <tile/>
   <tile/>
   <tile/>
   <tile/>
   <tile/>
   <tile/>
   <tile/>
   <tile/>
   <tile/>
   <tile/>
   <tile/>
   <tile/>
   <tile/>
   <tile/>
   <tile/>
   <tile/>
   <tile/>
   <tile/>
   <tile/>
   <tile/>
   <tile/>
   <tile/>
   <tile/>
   <tile/>
   <tile/>
   <tile/>
   <tile/>
   <tile/>
   <tile/>
   <tile/>
   <tile/>
   <tile/>
   <tile/>
   <tile/>
   <tile/>
   <tile/>
   <tile/>
   <tile/>
   <tile/>
   <tile/>
   <tile/>
   <tile/>
   <tile/>
   <tile/>
   <tile/>
   <tile/>
   <tile/>
   <tile/>
   <tile/>
   <tile/>
   <tile/>
   <tile/>
   <tile/>
   <tile/>
   <tile/>
   <tile/>
   <tile/>
   <tile/>
   <tile/>
   <tile/>
   <tile/>
   <tile/>
   <tile/>
   <tile/>
   <tile/>
   <tile/>
   <tile/>
   <tile/>
   <tile/>
   <tile/>
   <tile/>
   <tile/>
   <tile/>
   <tile/>
   <tile/>
   <tile/>
   <tile/>
   <tile/>
   <tile/>
   <tile/>
   <tile/>
   <tile/>
   <tile/>
   <tile/>
   <tile/>
   <tile/>
   <tile/>
   <tile/>
   <tile/>
   <tile/>
   <tile/>
   <tile/>
   <tile/>
   <tile/>
   <tile/>
   <tile/>
   <tile/>
   <tile/>
   <tile/>
   <tile/>
   <tile/>
   <tile/>
   <tile/>
   <tile/>
   <tile/>
   <tile/>
   <tile/>
   <tile/>
   <tile/>
   <tile/>
   <tile/>
   <tile/>
   <tile/>
   <tile/>
   <tile/>
   <tile/>
   <tile/>
   <tile/>
   <tile/>
   <tile/>
   <tile/>
   <tile/>
   <tile/>
   <tile/>
   <tile/>
   <tile/>
   <tile/>
   <tile/>
   <tile/>
   <tile/>
   <tile/>
   <tile/>
   <tile/>
   <tile/>
   <tile/>
   <tile/>
   <tile/>
   <tile/>
   <tile/>
   <tile/>
   <tile/>
   <tile/>
   <tile/>
   <tile/>
   <tile/>
   <tile/>
   <tile/>
   <tile/>
   <tile/>
   <tile/>
   <tile/>
   <tile/>
   <tile/>
   <tile/>
   <tile/>
   <tile/>
   <tile/>
   <tile/>
   <tile/>
   <tile/>
   <tile/>
   <tile/>
   <tile/>
   <tile/>
   <tile/>
   <tile/>
   <tile/>
   <tile/>
   <tile/>
   <tile/>
   <tile/>
   <tile/>
   <tile/>
   <tile/>
   <tile/>
   <tile/>
   <tile/>
   <tile/>
   <tile/>
   <tile/>
   <tile/>
   <tile/>
   <tile/>
   <tile/>
   <tile/>
   <tile/>
   <tile/>
   <tile/>
   <tile/>
   <tile/>
   <tile/>
   <tile/>
   <tile/>
   <tile/>
   <tile/>
   <tile/>
   <tile/>
   <tile/>
   <tile/>
   <tile/>
   <tile/>
   <tile/>
   <tile/>
   <tile/>
   <tile/>
   <tile/>
   <tile/>
   <tile/>
   <tile/>
   <tile/>
   <tile/>
   <tile/>
   <tile/>
   <tile/>
   <tile/>
   <tile/>
   <tile/>
   <tile/>
   <tile/>
   <tile/>
   <tile/>
   <tile/>
   <tile/>
   <tile/>
   <tile/>
   <tile/>
   <tile/>
   <tile/>
   <tile/>
   <tile/>
   <tile/>
   <tile/>
   <tile/>
   <tile/>
   <tile/>
   <tile/>
   <tile/>
   <tile/>
   <tile/>
   <tile/>
   <tile/>
   <tile/>
   <tile/>
   <tile/>
   <tile/>
   <tile/>
   <tile/>
   <tile/>
   <tile/>
   <tile/>
   <tile/>
   <tile gid="917"/>
   <tile gid="918"/>
   <tile/>
   <tile/>
   <tile/>
   <tile/>
   <tile/>
   <tile/>
   <tile/>
   <tile/>
   <tile/>
   <tile/>
   <tile/>
   <tile/>
   <tile/>
   <tile/>
   <tile/>
   <tile/>
   <tile/>
   <tile/>
   <tile/>
   <tile/>
   <tile/>
   <tile/>
   <tile/>
   <tile/>
   <tile/>
   <tile/>
   <tile/>
   <tile/>
   <tile/>
   <tile/>
   <tile/>
   <tile/>
   <tile/>
   <tile/>
   <tile/>
   <tile/>
   <tile/>
   <tile/>
   <tile/>
   <tile/>
   <tile/>
   <tile/>
   <tile/>
   <tile/>
   <tile/>
   <tile/>
   <tile/>
   <tile/>
   <tile/>
   <tile/>
   <tile/>
   <tile/>
   <tile/>
   <tile/>
   <tile/>
   <tile/>
   <tile/>
   <tile/>
   <tile/>
   <tile/>
   <tile/>
   <tile/>
   <tile/>
   <tile/>
   <tile/>
   <tile/>
   <tile/>
   <tile/>
   <tile/>
   <tile/>
   <tile/>
   <tile/>
   <tile/>
   <tile gid="960"/>
   <tile gid="961"/>
   <tile/>
   <tile/>
   <tile/>
   <tile/>
   <tile/>
   <tile/>
   <tile/>
   <tile/>
   <tile/>
   <tile/>
   <tile/>
   <tile/>
   <tile/>
   <tile/>
   <tile/>
   <tile/>
   <tile/>
   <tile/>
   <tile/>
   <tile/>
   <tile/>
   <tile/>
   <tile/>
   <tile/>
   <tile/>
   <tile/>
   <tile/>
   <tile/>
   <tile/>
   <tile/>
   <tile/>
   <tile/>
   <tile/>
   <tile/>
   <tile/>
   <tile/>
   <tile/>
   <tile/>
   <tile/>
   <tile/>
   <tile/>
   <tile/>
   <tile/>
   <tile/>
   <tile/>
   <tile/>
   <tile/>
   <tile/>
   <tile/>
   <tile/>
   <tile/>
   <tile/>
   <tile/>
   <tile/>
   <tile/>
   <tile/>
   <tile/>
   <tile/>
   <tile/>
   <tile/>
   <tile/>
   <tile/>
   <tile/>
   <tile/>
   <tile/>
   <tile/>
   <tile/>
   <tile/>
   <tile/>
   <tile/>
   <tile/>
   <tile/>
   <tile/>
   <tile gid="1003"/>
   <tile gid="1004"/>
   <tile/>
   <tile/>
   <tile/>
   <tile/>
   <tile/>
   <tile/>
   <tile/>
   <tile/>
   <tile/>
   <tile/>
   <tile/>
   <tile/>
   <tile/>
   <tile/>
   <tile/>
   <tile/>
   <tile/>
   <tile/>
   <tile/>
   <tile/>
   <tile/>
   <tile/>
   <tile/>
   <tile/>
   <tile/>
   <tile/>
   <tile/>
   <tile/>
   <tile/>
   <tile/>
   <tile/>
   <tile/>
   <tile/>
   <tile/>
   <tile/>
   <tile/>
   <tile/>
   <tile/>
   <tile/>
   <tile/>
   <tile/>
   <tile/>
   <tile/>
   <tile/>
   <tile/>
   <tile/>
   <tile/>
   <tile/>
   <tile/>
   <tile/>
   <tile/>
   <tile/>
   <tile/>
   <tile/>
   <tile/>
   <tile/>
   <tile/>
   <tile/>
   <tile/>
   <tile/>
   <tile/>
   <tile/>
   <tile/>
   <tile/>
   <tile/>
   <tile/>
   <tile/>
   <tile/>
   <tile/>
   <tile/>
   <tile/>
   <tile/>
   <tile/>
   <tile gid="960"/>
   <tile gid="961"/>
   <tile/>
   <tile/>
   <tile/>
   <tile/>
   <tile/>
   <tile/>
   <tile/>
   <tile/>
   <tile/>
   <tile/>
   <tile/>
   <tile/>
   <tile/>
   <tile/>
   <tile/>
   <tile/>
   <tile/>
   <tile/>
   <tile/>
   <tile/>
   <tile/>
   <tile/>
   <tile/>
   <tile/>
   <tile/>
   <tile/>
   <tile/>
   <tile/>
   <tile/>
   <tile/>
   <tile/>
   <tile/>
   <tile/>
   <tile/>
   <tile/>
   <tile/>
   <tile/>
   <tile/>
   <tile/>
   <tile/>
   <tile/>
   <tile/>
   <tile/>
   <tile/>
   <tile/>
   <tile/>
   <tile/>
   <tile/>
   <tile/>
   <tile/>
   <tile/>
   <tile/>
   <tile/>
   <tile/>
   <tile/>
   <tile/>
   <tile/>
   <tile/>
   <tile/>
   <tile/>
   <tile/>
   <tile/>
   <tile/>
   <tile/>
   <tile/>
   <tile/>
   <tile/>
   <tile/>
   <tile/>
   <tile/>
   <tile/>
   <tile/>
   <tile/>
   <tile gid="960"/>
   <tile gid="961"/>
   <tile/>
   <tile/>
   <tile/>
   <tile/>
   <tile/>
   <tile/>
   <tile/>
   <tile/>
   <tile/>
   <tile/>
   <tile/>
   <tile/>
   <tile/>
   <tile/>
   <tile/>
   <tile/>
   <tile/>
   <tile/>
   <tile/>
   <tile/>
   <tile/>
   <tile/>
   <tile/>
   <tile/>
   <tile/>
   <tile/>
   <tile/>
   <tile/>
   <tile/>
   <tile/>
   <tile/>
   <tile/>
   <tile/>
   <tile/>
   <tile/>
   <tile/>
   <tile/>
   <tile/>
   <tile/>
   <tile/>
   <tile/>
   <tile/>
   <tile/>
   <tile/>
   <tile/>
   <tile/>
   <tile/>
   <tile/>
   <tile/>
   <tile/>
   <tile/>
   <tile/>
   <tile/>
   <tile/>
   <tile/>
   <tile/>
   <tile/>
   <tile/>
   <tile/>
   <tile/>
   <tile/>
   <tile/>
   <tile/>
   <tile/>
   <tile/>
   <tile/>
   <tile/>
   <tile/>
   <tile/>
   <tile/>
   <tile/>
   <tile/>
   <tile/>
   <tile gid="960"/>
   <tile gid="961"/>
   <tile/>
   <tile/>
   <tile/>
   <tile/>
   <tile/>
   <tile/>
   <tile/>
   <tile/>
   <tile/>
   <tile/>
   <tile/>
   <tile/>
   <tile/>
   <tile/>
   <tile/>
   <tile/>
   <tile/>
   <tile/>
   <tile/>
   <tile/>
   <tile/>
   <tile/>
   <tile/>
   <tile/>
   <tile/>
   <tile/>
   <tile/>
   <tile/>
   <tile/>
   <tile/>
   <tile/>
   <tile/>
   <tile/>
   <tile/>
   <tile/>
   <tile/>
   <tile/>
   <tile/>
   <tile/>
   <tile/>
   <tile/>
   <tile/>
   <tile/>
   <tile/>
   <tile/>
   <tile/>
   <tile/>
   <tile/>
   <tile/>
   <tile/>
   <tile/>
   <tile/>
   <tile/>
   <tile/>
   <tile/>
   <tile/>
   <tile/>
   <tile/>
   <tile/>
   <tile/>
   <tile/>
   <tile/>
   <tile gid="917"/>
   <tile gid="918"/>
   <tile/>
   <tile/>
   <tile/>
   <tile/>
   <tile/>
   <tile/>
   <tile/>
   <tile/>
   <tile/>
   <tile gid="1003"/>
   <tile gid="1004"/>
   <tile/>
   <tile/>
   <tile/>
   <tile/>
   <tile/>
   <tile/>
   <tile/>
   <tile/>
   <tile/>
   <tile/>
   <tile/>
   <tile/>
   <tile/>
   <tile/>
   <tile/>
   <tile/>
   <tile/>
   <tile/>
   <tile/>
   <tile/>
   <tile/>
   <tile/>
   <tile/>
   <tile/>
   <tile/>
   <tile/>
   <tile/>
   <tile/>
   <tile/>
   <tile/>
   <tile/>
   <tile/>
   <tile/>
   <tile/>
   <tile/>
   <tile/>
   <tile/>
   <tile/>
   <tile/>
   <tile/>
   <tile/>
   <tile/>
   <tile/>
   <tile/>
   <tile/>
   <tile/>
   <tile/>
   <tile/>
   <tile/>
   <tile/>
   <tile/>
   <tile/>
   <tile/>
   <tile/>
   <tile/>
   <tile/>
   <tile/>
   <tile/>
   <tile/>
   <tile/>
   <tile/>
   <tile/>
   <tile gid="960"/>
   <tile gid="961"/>
   <tile/>
   <tile/>
   <tile/>
   <tile/>
   <tile/>
   <tile/>
   <tile/>
   <tile/>
   <tile/>
   <tile gid="960"/>
   <tile gid="961"/>
   <tile/>
   <tile/>
   <tile/>
   <tile/>
   <tile/>
   <tile/>
   <tile/>
   <tile/>
   <tile/>
   <tile/>
   <tile/>
   <tile/>
   <tile/>
   <tile/>
   <tile/>
   <tile/>
   <tile/>
   <tile/>
   <tile/>
   <tile/>
   <tile/>
   <tile/>
   <tile/>
   <tile/>
   <tile/>
   <tile/>
   <tile/>
   <tile/>
   <tile/>
   <tile/>
   <tile/>
   <tile/>
   <tile/>
   <tile/>
   <tile/>
   <tile/>
   <tile/>
   <tile/>
   <tile/>
   <tile/>
   <tile/>
   <tile/>
   <tile/>
   <tile/>
   <tile/>
   <tile/>
   <tile/>
   <tile/>
   <tile/>
   <tile/>
   <tile/>
   <tile/>
   <tile/>
   <tile/>
   <tile/>
   <tile/>
   <tile/>
   <tile/>
   <tile/>
   <tile/>
   <tile/>
   <tile/>
   <tile gid="1003"/>
   <tile gid="1004"/>
   <tile/>
   <tile/>
   <tile/>
   <tile/>
   <tile/>
   <tile/>
   <tile/>
   <tile/>
   <tile/>
   <tile gid="1003"/>
   <tile gid="1004"/>
   <tile/>
   <tile/>
   <tile/>
   <tile/>
   <tile/>
   <tile/>
   <tile/>
   <tile/>
   <tile/>
   <tile/>
   <tile/>
   <tile/>
   <tile/>
   <tile/>
   <tile/>
   <tile/>
   <tile/>
   <tile/>
   <tile/>
   <tile/>
   <tile/>
   <tile/>
   <tile/>
   <tile/>
   <tile/>
   <tile/>
   <tile/>
   <tile/>
   <tile/>
   <tile/>
   <tile/>
   <tile/>
   <tile/>
   <tile/>
   <tile/>
   <tile/>
   <tile/>
   <tile/>
   <tile/>
   <tile/>
   <tile/>
   <tile/>
   <tile/>
   <tile/>
   <tile/>
   <tile/>
   <tile/>
   <tile/>
   <tile/>
   <tile/>
   <tile/>
   <tile/>
   <tile/>
   <tile/>
   <tile/>
   <tile/>
   <tile/>
   <tile/>
   <tile/>
   <tile/>
   <tile/>
   <tile/>
   <tile gid="960"/>
   <tile gid="961"/>
   <tile/>
   <tile/>
   <tile/>
   <tile/>
   <tile/>
   <tile/>
   <tile/>
   <tile/>
   <tile/>
   <tile gid="960"/>
   <tile gid="961"/>
   <tile/>
   <tile/>
   <tile/>
   <tile/>
   <tile/>
   <tile/>
   <tile/>
   <tile/>
   <tile/>
   <tile/>
   <tile/>
   <tile/>
   <tile/>
   <tile/>
   <tile/>
   <tile/>
   <tile/>
   <tile/>
   <tile/>
   <tile/>
   <tile/>
   <tile/>
   <tile/>
   <tile/>
   <tile/>
   <tile/>
   <tile/>
   <tile/>
   <tile/>
   <tile/>
   <tile/>
   <tile/>
   <tile/>
   <tile/>
   <tile/>
   <tile/>
   <tile/>
   <tile/>
   <tile/>
   <tile/>
   <tile/>
   <tile/>
   <tile/>
   <tile/>
   <tile/>
   <tile/>
   <tile/>
   <tile/>
   <tile/>
   <tile/>
   <tile/>
   <tile/>
   <tile/>
   <tile/>
   <tile/>
   <tile/>
   <tile/>
   <tile/>
   <tile/>
   <tile/>
   <tile/>
   <tile/>
   <tile gid="960"/>
   <tile gid="961"/>
   <tile/>
   <tile/>
   <tile/>
   <tile/>
   <tile/>
   <tile/>
   <tile/>
   <tile/>
   <tile/>
   <tile gid="960"/>
   <tile gid="961"/>
   <tile/>
   <tile/>
   <tile/>
   <tile/>
   <tile/>
   <tile/>
   <tile/>
   <tile/>
   <tile/>
   <tile/>
   <tile/>
   <tile/>
   <tile/>
   <tile/>
   <tile/>
   <tile/>
   <tile/>
   <tile/>
   <tile/>
   <tile/>
   <tile/>
   <tile/>
   <tile/>
   <tile/>
   <tile/>
   <tile/>
   <tile/>
   <tile/>
   <tile/>
   <tile/>
   <tile/>
   <tile/>
   <tile/>
   <tile/>
   <tile/>
   <tile/>
   <tile/>
   <tile/>
   <tile/>
   <tile/>
   <tile/>
   <tile/>
   <tile/>
   <tile/>
   <tile/>
   <tile/>
   <tile/>
   <tile/>
   <tile/>
   <tile/>
   <tile/>
   <tile/>
   <tile/>
   <tile/>
   <tile/>
   <tile/>
   <tile/>
   <tile/>
   <tile/>
   <tile/>
   <tile/>
   <tile/>
   <tile gid="960"/>
   <tile gid="961"/>
   <tile/>
   <tile/>
   <tile/>
   <tile/>
   <tile/>
   <tile/>
   <tile/>
   <tile/>
   <tile/>
   <tile gid="1003"/>
   <tile gid="1004"/>
   <tile/>
   <tile/>
   <tile/>
   <tile/>
   <tile/>
   <tile/>
   <tile/>
   <tile/>
   <tile/>
   <tile/>
   <tile/>
   <tile/>
   <tile/>
   <tile/>
   <tile/>
   <tile/>
   <tile/>
   <tile/>
   <tile/>
   <tile/>
   <tile/>
   <tile/>
   <tile/>
   <tile/>
   <tile/>
   <tile/>
   <tile/>
   <tile/>
   <tile/>
   <tile/>
   <tile/>
   <tile/>
   <tile/>
   <tile/>
   <tile/>
   <tile/>
   <tile/>
   <tile/>
   <tile/>
   <tile/>
   <tile/>
   <tile/>
   <tile/>
   <tile/>
   <tile/>
   <tile/>
   <tile/>
   <tile/>
   <tile/>
   <tile/>
   <tile/>
   <tile/>
   <tile/>
   <tile/>
   <tile/>
   <tile/>
   <tile/>
   <tile/>
   <tile/>
   <tile/>
   <tile/>
   <tile/>
   <tile gid="1003"/>
   <tile gid="1004"/>
   <tile/>
   <tile/>
   <tile/>
   <tile/>
   <tile/>
   <tile/>
   <tile/>
   <tile/>
   <tile/>
   <tile gid="960"/>
   <tile gid="961"/>
   <tile/>
   <tile/>
   <tile/>
   <tile/>
   <tile/>
   <tile/>
   <tile/>
   <tile/>
   <tile/>
   <tile/>
   <tile/>
   <tile/>
   <tile/>
   <tile/>
   <tile/>
   <tile/>
   <tile/>
   <tile/>
   <tile/>
   <tile/>
   <tile/>
   <tile/>
   <tile/>
   <tile/>
   <tile/>
   <tile/>
   <tile/>
   <tile/>
   <tile/>
   <tile/>
   <tile/>
   <tile/>
   <tile/>
   <tile/>
   <tile/>
   <tile/>
   <tile/>
   <tile/>
   <tile/>
   <tile/>
   <tile/>
   <tile/>
   <tile/>
   <tile/>
   <tile/>
   <tile/>
   <tile/>
   <tile/>
   <tile/>
   <tile/>
   <tile/>
   <tile/>
   <tile/>
   <tile/>
   <tile/>
   <tile/>
   <tile/>
   <tile/>
   <tile/>
   <tile/>
   <tile/>
   <tile/>
   <tile gid="960"/>
   <tile gid="961"/>
   <tile/>
   <tile/>
   <tile/>
   <tile/>
   <tile/>
   <tile/>
   <tile/>
   <tile/>
   <tile/>
   <tile gid="1003"/>
   <tile gid="1004"/>
   <tile/>
   <tile/>
   <tile/>
   <tile/>
   <tile/>
   <tile/>
   <tile/>
   <tile/>
   <tile/>
   <tile/>
   <tile/>
   <tile/>
   <tile/>
   <tile/>
   <tile/>
   <tile/>
   <tile/>
   <tile/>
   <tile/>
   <tile/>
   <tile/>
   <tile/>
   <tile/>
   <tile/>
   <tile/>
   <tile/>
   <tile/>
   <tile/>
   <tile/>
   <tile/>
   <tile/>
   <tile/>
   <tile/>
   <tile/>
   <tile/>
   <tile/>
   <tile/>
   <tile/>
   <tile/>
   <tile/>
   <tile/>
   <tile/>
   <tile/>
   <tile/>
   <tile/>
   <tile/>
   <tile/>
   <tile/>
   <tile/>
   <tile/>
   <tile/>
   <tile/>
   <tile/>
   <tile/>
   <tile/>
   <tile/>
   <tile/>
   <tile/>
   <tile/>
   <tile/>
   <tile/>
   <tile/>
   <tile gid="1003"/>
   <tile gid="1004"/>
   <tile/>
   <tile/>
   <tile/>
   <tile/>
   <tile/>
   <tile/>
   <tile/>
   <tile/>
   <tile/>
   <tile gid="960"/>
   <tile gid="961"/>
   <tile/>
   <tile/>
   <tile/>
   <tile/>
   <tile/>
   <tile/>
   <tile/>
   <tile/>
   <tile/>
   <tile/>
   <tile/>
   <tile/>
   <tile/>
   <tile/>
   <tile/>
   <tile/>
   <tile/>
   <tile/>
   <tile/>
   <tile/>
   <tile/>
   <tile/>
   <tile/>
   <tile/>
   <tile/>
   <tile/>
   <tile/>
   <tile/>
   <tile/>
   <tile/>
   <tile/>
   <tile/>
   <tile/>
   <tile/>
   <tile/>
   <tile/>
   <tile/>
   <tile/>
   <tile/>
   <tile/>
   <tile/>
   <tile/>
   <tile/>
   <tile/>
   <tile/>
   <tile/>
   <tile/>
   <tile/>
   <tile/>
   <tile/>
   <tile/>
   <tile/>
   <tile/>
   <tile/>
   <tile/>
   <tile/>
   <tile/>
   <tile/>
   <tile/>
   <tile/>
   <tile/>
   <tile/>
   <tile gid="960"/>
   <tile gid="961"/>
   <tile/>
   <tile/>
   <tile/>
   <tile/>
   <tile/>
   <tile/>
   <tile/>
   <tile/>
   <tile/>
   <tile gid="1003"/>
   <tile gid="1004"/>
   <tile/>
   <tile/>
   <tile/>
   <tile/>
   <tile/>
   <tile/>
   <tile/>
   <tile/>
   <tile/>
   <tile/>
   <tile/>
   <tile/>
   <tile/>
   <tile/>
   <tile/>
   <tile/>
   <tile/>
   <tile/>
   <tile/>
   <tile/>
   <tile/>
   <tile/>
   <tile/>
   <tile/>
   <tile/>
   <tile/>
   <tile/>
   <tile/>
   <tile/>
   <tile/>
   <tile/>
   <tile/>
   <tile/>
   <tile/>
   <tile/>
   <tile/>
   <tile/>
   <tile/>
   <tile/>
   <tile/>
   <tile/>
   <tile/>
   <tile/>
   <tile/>
   <tile/>
   <tile/>
   <tile/>
   <tile/>
   <tile/>
   <tile/>
   <tile/>
   <tile/>
   <tile/>
   <tile/>
   <tile/>
   <tile/>
   <tile/>
   <tile/>
   <tile/>
   <tile/>
   <tile/>
   <tile/>
   <tile gid="1003"/>
   <tile gid="1004"/>
   <tile/>
   <tile/>
   <tile/>
   <tile/>
   <tile/>
   <tile/>
   <tile/>
   <tile/>
   <tile/>
   <tile gid="1046"/>
   <tile gid="1047"/>
   <tile/>
   <tile/>
   <tile/>
   <tile/>
   <tile/>
   <tile/>
   <tile/>
   <tile/>
   <tile gid="874"/>
   <tile gid="875"/>
   <tile/>
   <tile/>
   <tile/>
   <tile/>
   <tile/>
   <tile/>
   <tile/>
   <tile/>
   <tile/>
   <tile/>
   <tile/>
   <tile/>
   <tile/>
   <tile/>
   <tile/>
   <tile/>
   <tile/>
   <tile/>
   <tile/>
   <tile/>
   <tile/>
   <tile/>
   <tile/>
   <tile/>
   <tile/>
   <tile/>
   <tile/>
   <tile/>
   <tile/>
   <tile/>
   <tile/>
   <tile/>
   <tile/>
   <tile/>
   <tile/>
   <tile/>
   <tile/>
   <tile/>
   <tile/>
   <tile/>
   <tile/>
   <tile/>
   <tile/>
   <tile/>
   <tile/>
   <tile/>
   <tile/>
   <tile/>
   <tile/>
   <tile/>
   <tile/>
   <tile/>
   <tile gid="1046"/>
   <tile gid="1047"/>
   <tile/>
   <tile/>
   <tile/>
   <tile/>
   <tile/>
   <tile/>
   <tile/>
   <tile/>
   <tile/>
   <tile/>
   <tile/>
   <tile/>
   <tile/>
   <tile/>
   <tile/>
   <tile/>
   <tile/>
   <tile/>
   <tile/>
   <tile gid="917"/>
   <tile gid="918"/>
   <tile/>
   <tile/>
   <tile/>
   <tile/>
   <tile/>
   <tile/>
   <tile/>
   <tile/>
   <tile/>
   <tile/>
   <tile/>
   <tile/>
   <tile/>
   <tile/>
   <tile/>
   <tile/>
   <tile/>
   <tile/>
   <tile/>
   <tile/>
   <tile/>
   <tile/>
   <tile/>
   <tile/>
   <tile/>
   <tile/>
   <tile/>
   <tile/>
   <tile/>
   <tile/>
   <tile/>
   <tile/>
   <tile/>
   <tile/>
   <tile/>
   <tile/>
   <tile/>
   <tile/>
   <tile/>
   <tile/>
   <tile/>
   <tile/>
   <tile/>
   <tile/>
   <tile/>
   <tile/>
   <tile/>
   <tile/>
   <tile/>
   <tile/>
   <tile/>
   <tile/>
   <tile/>
   <tile/>
   <tile/>
   <tile/>
   <tile/>
   <tile/>
   <tile/>
   <tile/>
   <tile/>
   <tile/>
   <tile/>
   <tile/>
   <tile/>
   <tile/>
   <tile/>
   <tile/>
   <tile/>
   <tile/>
   <tile/>
   <tile/>
   <tile/>
   <tile gid="960"/>
   <tile gid="961"/>
   <tile/>
   <tile/>
   <tile/>
   <tile/>
   <tile/>
   <tile/>
   <tile/>
   <tile/>
   <tile/>
   <tile/>
   <tile/>
   <tile/>
   <tile/>
   <tile/>
   <tile/>
   <tile/>
   <tile/>
   <tile/>
   <tile/>
   <tile/>
   <tile/>
   <tile/>
   <tile/>
   <tile/>
   <tile/>
   <tile/>
   <tile/>
   <tile/>
   <tile/>
   <tile/>
   <tile/>
   <tile/>
   <tile/>
   <tile/>
   <tile/>
   <tile/>
   <tile/>
   <tile/>
   <tile/>
   <tile/>
   <tile/>
   <tile/>
   <tile/>
   <tile/>
   <tile/>
   <tile/>
   <tile/>
   <tile/>
   <tile/>
   <tile/>
   <tile/>
   <tile/>
   <tile/>
   <tile/>
   <tile/>
   <tile/>
   <tile/>
   <tile/>
   <tile/>
   <tile/>
   <tile/>
   <tile/>
   <tile/>
   <tile/>
   <tile/>
   <tile/>
   <tile/>
   <tile/>
   <tile/>
   <tile/>
   <tile/>
   <tile/>
   <tile/>
   <tile gid="1003"/>
   <tile gid="1004"/>
   <tile/>
   <tile/>
   <tile/>
   <tile/>
   <tile/>
   <tile/>
   <tile/>
   <tile/>
   <tile/>
   <tile/>
   <tile/>
   <tile/>
   <tile/>
   <tile/>
   <tile/>
   <tile/>
   <tile/>
   <tile/>
   <tile/>
   <tile/>
   <tile/>
   <tile/>
   <tile/>
   <tile/>
   <tile/>
   <tile/>
   <tile/>
   <tile/>
   <tile/>
   <tile/>
   <tile/>
   <tile/>
   <tile/>
   <tile/>
   <tile/>
   <tile/>
   <tile/>
   <tile/>
   <tile/>
   <tile/>
   <tile/>
   <tile/>
   <tile/>
   <tile/>
   <tile/>
   <tile/>
   <tile/>
   <tile/>
   <tile/>
   <tile/>
   <tile/>
   <tile/>
   <tile/>
   <tile/>
   <tile/>
   <tile/>
   <tile/>
   <tile/>
   <tile/>
   <tile/>
   <tile/>
   <tile/>
   <tile/>
   <tile/>
   <tile/>
   <tile/>
   <tile/>
   <tile/>
   <tile/>
   <tile/>
   <tile/>
   <tile/>
   <tile/>
   <tile gid="960"/>
   <tile gid="961"/>
   <tile/>
   <tile/>
   <tile/>
   <tile/>
   <tile/>
   <tile/>
   <tile/>
   <tile/>
   <tile/>
   <tile/>
   <tile/>
   <tile/>
   <tile/>
   <tile/>
   <tile/>
   <tile/>
   <tile/>
   <tile/>
   <tile/>
   <tile/>
   <tile/>
   <tile/>
   <tile/>
   <tile/>
   <tile/>
   <tile/>
   <tile/>
   <tile/>
   <tile/>
   <tile/>
   <tile/>
   <tile/>
   <tile/>
   <tile/>
   <tile/>
   <tile/>
   <tile/>
   <tile/>
   <tile/>
   <tile/>
   <tile/>
   <tile/>
   <tile/>
   <tile/>
   <tile/>
   <tile/>
   <tile/>
   <tile/>
   <tile/>
   <tile/>
   <tile/>
   <tile/>
   <tile/>
   <tile/>
   <tile/>
   <tile/>
   <tile/>
   <tile/>
   <tile/>
   <tile/>
   <tile/>
   <tile/>
   <tile/>
   <tile/>
   <tile/>
   <tile/>
   <tile/>
   <tile/>
   <tile/>
   <tile/>
   <tile/>
   <tile/>
   <tile/>
   <tile gid="1003"/>
   <tile gid="1004"/>
   <tile/>
   <tile/>
   <tile/>
   <tile/>
   <tile/>
   <tile/>
   <tile/>
   <tile/>
   <tile/>
   <tile/>
   <tile/>
   <tile/>
   <tile/>
   <tile/>
   <tile/>
   <tile/>
   <tile/>
   <tile/>
   <tile/>
   <tile/>
   <tile/>
   <tile/>
   <tile/>
   <tile/>
   <tile/>
   <tile/>
   <tile/>
   <tile/>
   <tile/>
   <tile/>
   <tile/>
   <tile/>
   <tile/>
   <tile/>
   <tile/>
   <tile/>
   <tile/>
   <tile/>
   <tile/>
   <tile/>
   <tile/>
   <tile/>
   <tile/>
   <tile/>
   <tile/>
   <tile/>
   <tile/>
   <tile/>
   <tile/>
   <tile/>
   <tile/>
   <tile/>
   <tile/>
   <tile/>
   <tile/>
   <tile/>
   <tile/>
   <tile/>
   <tile/>
   <tile/>
   <tile/>
   <tile/>
   <tile/>
   <tile/>
   <tile/>
   <tile/>
   <tile/>
   <tile/>
   <tile/>
   <tile/>
   <tile/>
   <tile/>
   <tile/>
   <tile gid="960"/>
   <tile gid="961"/>
   <tile/>
   <tile/>
   <tile/>
   <tile/>
   <tile/>
   <tile/>
   <tile/>
   <tile/>
   <tile/>
   <tile/>
   <tile/>
   <tile/>
   <tile/>
   <tile/>
   <tile/>
   <tile/>
   <tile/>
   <tile/>
   <tile/>
   <tile/>
   <tile/>
   <tile/>
   <tile/>
   <tile/>
   <tile/>
   <tile/>
   <tile/>
   <tile/>
   <tile/>
   <tile/>
   <tile/>
   <tile/>
   <tile/>
   <tile/>
   <tile/>
   <tile/>
   <tile/>
   <tile/>
   <tile/>
   <tile/>
   <tile/>
   <tile/>
   <tile/>
   <tile/>
   <tile/>
   <tile/>
   <tile/>
   <tile/>
   <tile/>
   <tile/>
   <tile/>
   <tile/>
   <tile/>
   <tile/>
   <tile/>
   <tile/>
   <tile/>
   <tile/>
   <tile/>
   <tile/>
   <tile/>
   <tile/>
   <tile/>
   <tile/>
   <tile/>
   <tile/>
   <tile/>
   <tile/>
   <tile/>
   <tile/>
   <tile/>
   <tile/>
   <tile/>
   <tile gid="1003"/>
   <tile gid="1004"/>
   <tile/>
   <tile/>
   <tile/>
   <tile/>
   <tile/>
   <tile/>
   <tile/>
   <tile/>
   <tile/>
   <tile/>
   <tile/>
   <tile/>
   <tile/>
   <tile/>
   <tile/>
   <tile/>
   <tile/>
   <tile/>
   <tile/>
   <tile/>
   <tile/>
   <tile/>
   <tile/>
   <tile/>
   <tile/>
   <tile/>
   <tile/>
   <tile/>
   <tile/>
   <tile/>
   <tile/>
   <tile/>
   <tile/>
   <tile/>
   <tile/>
   <tile/>
   <tile/>
   <tile/>
   <tile/>
   <tile/>
   <tile/>
   <tile/>
   <tile/>
   <tile/>
   <tile/>
   <tile/>
   <tile/>
   <tile/>
   <tile/>
   <tile/>
   <tile/>
   <tile/>
   <tile/>
   <tile/>
   <tile/>
   <tile/>
   <tile/>
   <tile/>
   <tile/>
   <tile/>
   <tile/>
   <tile/>
   <tile/>
   <tile/>
   <tile/>
   <tile/>
   <tile/>
   <tile/>
   <tile/>
   <tile/>
   <tile/>
   <tile/>
   <tile/>
   <tile gid="1046"/>
   <tile gid="1047"/>
   <tile/>
   <tile/>
   <tile/>
   <tile/>
   <tile/>
   <tile/>
   <tile/>
   <tile/>
   <tile/>
   <tile/>
   <tile/>
   <tile/>
   <tile/>
   <tile/>
   <tile/>
   <tile/>
   <tile/>
   <tile/>
   <tile/>
   <tile/>
   <tile/>
   <tile/>
   <tile/>
   <tile/>
   <tile/>
   <tile/>
   <tile/>
   <tile/>
   <tile/>
   <tile/>
   <tile/>
   <tile/>
   <tile/>
   <tile/>
   <tile/>
   <tile/>
   <tile/>
   <tile/>
   <tile/>
   <tile/>
   <tile/>
   <tile/>
   <tile/>
   <tile/>
   <tile/>
   <tile/>
   <tile/>
   <tile/>
   <tile/>
   <tile/>
   <tile/>
   <tile/>
   <tile/>
   <tile/>
   <tile/>
   <tile/>
   <tile/>
   <tile/>
   <tile/>
   <tile/>
   <tile/>
   <tile/>
   <tile/>
   <tile/>
   <tile/>
   <tile/>
   <tile/>
   <tile/>
   <tile/>
   <tile/>
   <tile/>
   <tile/>
   <tile/>
   <tile/>
   <tile/>
   <tile/>
   <tile/>
   <tile/>
   <tile/>
   <tile/>
   <tile/>
   <tile/>
   <tile/>
   <tile/>
   <tile/>
   <tile/>
   <tile/>
   <tile/>
   <tile/>
   <tile/>
   <tile/>
   <tile/>
   <tile/>
   <tile/>
   <tile/>
   <tile/>
   <tile/>
   <tile/>
   <tile/>
   <tile/>
   <tile/>
   <tile/>
   <tile/>
   <tile/>
   <tile/>
   <tile/>
   <tile/>
   <tile/>
   <tile/>
   <tile/>
   <tile/>
   <tile/>
   <tile/>
   <tile/>
   <tile/>
   <tile/>
   <tile/>
   <tile/>
   <tile/>
   <tile/>
   <tile/>
   <tile/>
   <tile/>
   <tile/>
   <tile/>
   <tile/>
   <tile/>
   <tile/>
   <tile/>
   <tile/>
   <tile/>
   <tile/>
   <tile/>
   <tile/>
   <tile/>
   <tile/>
   <tile/>
   <tile/>
   <tile/>
   <tile/>
   <tile/>
   <tile/>
   <tile/>
   <tile/>
   <tile/>
   <tile/>
   <tile/>
   <tile/>
   <tile/>
   <tile/>
   <tile/>
   <tile/>
   <tile/>
   <tile/>
   <tile/>
   <tile/>
   <tile/>
   <tile/>
   <tile/>
   <tile/>
   <tile/>
   <tile/>
   <tile/>
   <tile/>
   <tile/>
   <tile/>
   <tile/>
   <tile/>
   <tile/>
   <tile/>
   <tile/>
   <tile/>
   <tile/>
   <tile/>
   <tile/>
   <tile/>
   <tile/>
   <tile/>
   <tile/>
   <tile/>
   <tile/>
   <tile/>
   <tile/>
   <tile/>
   <tile/>
   <tile/>
   <tile/>
   <tile/>
   <tile/>
   <tile/>
   <tile/>
   <tile/>
   <tile/>
   <tile/>
   <tile/>
   <tile/>
   <tile/>
   <tile/>
   <tile/>
   <tile/>
   <tile/>
   <tile/>
   <tile/>
   <tile/>
   <tile/>
   <tile/>
   <tile/>
   <tile/>
   <tile/>
   <tile/>
   <tile/>
   <tile/>
   <tile/>
   <tile/>
   <tile/>
   <tile/>
   <tile/>
   <tile/>
   <tile/>
   <tile/>
   <tile/>
   <tile/>
   <tile/>
   <tile/>
   <tile/>
   <tile/>
   <tile/>
   <tile/>
   <tile/>
   <tile/>
   <tile/>
   <tile/>
   <tile/>
   <tile/>
   <tile/>
   <tile/>
   <tile/>
   <tile/>
   <tile/>
   <tile/>
   <tile/>
   <tile/>
   <tile/>
   <tile/>
   <tile/>
   <tile/>
   <tile/>
   <tile/>
   <tile/>
   <tile/>
   <tile/>
   <tile/>
   <tile/>
   <tile/>
   <tile/>
   <tile/>
   <tile/>
   <tile/>
   <tile/>
   <tile/>
   <tile/>
   <tile/>
   <tile/>
   <tile/>
   <tile/>
   <tile/>
   <tile/>
   <tile/>
   <tile/>
   <tile/>
   <tile/>
   <tile/>
   <tile/>
   <tile/>
   <tile/>
   <tile/>
   <tile/>
   <tile/>
   <tile/>
   <tile/>
   <tile/>
   <tile/>
   <tile/>
   <tile/>
   <tile/>
   <tile/>
   <tile/>
   <tile/>
   <tile/>
   <tile/>
   <tile/>
   <tile/>
   <tile/>
   <tile/>
   <tile/>
   <tile/>
   <tile/>
   <tile/>
   <tile/>
   <tile/>
   <tile/>
   <tile/>
   <tile/>
   <tile/>
   <tile/>
   <tile/>
   <tile/>
   <tile/>
   <tile/>
   <tile/>
   <tile/>
   <tile/>
   <tile/>
   <tile/>
   <tile/>
   <tile/>
   <tile/>
   <tile/>
   <tile/>
   <tile/>
   <tile/>
   <tile/>
   <tile/>
   <tile/>
   <tile/>
   <tile/>
   <tile/>
   <tile/>
   <tile/>
   <tile/>
   <tile/>
   <tile/>
   <tile/>
   <tile/>
   <tile/>
   <tile/>
   <tile/>
   <tile/>
   <tile/>
   <tile/>
   <tile/>
   <tile/>
   <tile/>
   <tile/>
   <tile/>
   <tile/>
   <tile/>
   <tile/>
   <tile/>
   <tile/>
   <tile/>
   <tile/>
   <tile/>
   <tile/>
   <tile/>
   <tile/>
   <tile/>
   <tile/>
   <tile/>
   <tile/>
   <tile/>
   <tile/>
   <tile/>
   <tile/>
   <tile/>
   <tile/>
   <tile/>
   <tile/>
   <tile/>
   <tile/>
   <tile/>
   <tile/>
   <tile/>
   <tile/>
   <tile/>
   <tile/>
   <tile/>
   <tile/>
   <tile/>
   <tile/>
   <tile/>
   <tile/>
   <tile/>
   <tile/>
   <tile/>
   <tile/>
   <tile/>
   <tile/>
   <tile/>
   <tile/>
   <tile/>
   <tile/>
   <tile/>
   <tile/>
   <tile/>
   <tile/>
   <tile/>
   <tile/>
   <tile/>
   <tile/>
   <tile/>
   <tile/>
   <tile/>
   <tile/>
   <tile/>
   <tile/>
   <tile/>
   <tile/>
   <tile/>
   <tile/>
   <tile/>
   <tile/>
   <tile/>
   <tile/>
   <tile/>
   <tile/>
   <tile/>
   <tile/>
   <tile/>
   <tile/>
   <tile/>
   <tile/>
   <tile/>
   <tile/>
   <tile/>
   <tile/>
   <tile/>
   <tile/>
   <tile/>
   <tile/>
   <tile/>
   <tile/>
   <tile/>
   <tile/>
   <tile/>
   <tile/>
   <tile/>
   <tile/>
   <tile/>
   <tile/>
   <tile/>
   <tile/>
   <tile/>
   <tile/>
   <tile/>
   <tile/>
   <tile/>
   <tile/>
   <tile/>
   <tile/>
   <tile/>
   <tile/>
   <tile/>
   <tile/>
   <tile/>
   <tile/>
   <tile/>
   <tile/>
   <tile/>
   <tile/>
   <tile/>
   <tile/>
   <tile/>
   <tile/>
   <tile/>
   <tile/>
   <tile/>
   <tile/>
   <tile/>
   <tile/>
   <tile/>
   <tile/>
   <tile/>
   <tile/>
   <tile/>
   <tile/>
   <tile/>
   <tile/>
   <tile/>
   <tile/>
   <tile/>
   <tile/>
   <tile/>
   <tile/>
   <tile/>
   <tile/>
   <tile/>
   <tile/>
   <tile/>
   <tile/>
   <tile/>
   <tile/>
   <tile/>
   <tile/>
   <tile/>
   <tile/>
   <tile/>
   <tile/>
   <tile/>
   <tile/>
   <tile/>
   <tile/>
   <tile/>
   <tile/>
   <tile/>
   <tile/>
   <tile/>
   <tile/>
   <tile/>
   <tile/>
   <tile/>
   <tile/>
   <tile/>
   <tile/>
   <tile/>
   <tile/>
   <tile/>
   <tile/>
   <tile/>
   <tile/>
   <tile/>
   <tile/>
   <tile/>
   <tile/>
   <tile/>
   <tile/>
   <tile/>
   <tile/>
   <tile/>
   <tile/>
   <tile/>
   <tile/>
   <tile/>
   <tile/>
   <tile/>
   <tile/>
   <tile/>
   <tile/>
   <tile/>
   <tile/>
   <tile/>
   <tile/>
   <tile/>
   <tile/>
   <tile/>
   <tile/>
   <tile/>
   <tile/>
   <tile/>
   <tile/>
   <tile/>
   <tile/>
   <tile/>
   <tile/>
   <tile/>
   <tile/>
   <tile/>
   <tile/>
   <tile/>
   <tile/>
   <tile/>
   <tile/>
   <tile/>
   <tile/>
   <tile/>
   <tile/>
   <tile/>
   <tile/>
   <tile/>
   <tile/>
   <tile/>
   <tile/>
   <tile/>
   <tile/>
   <tile/>
   <tile/>
   <tile/>
   <tile/>
   <tile/>
   <tile/>
   <tile/>
   <tile/>
   <tile/>
   <tile/>
   <tile/>
   <tile/>
   <tile/>
   <tile/>
   <tile/>
   <tile/>
   <tile/>
   <tile/>
   <tile/>
   <tile/>
   <tile/>
   <tile/>
   <tile/>
   <tile/>
   <tile/>
   <tile/>
   <tile/>
   <tile/>
   <tile/>
   <tile/>
   <tile/>
   <tile/>
   <tile/>
   <tile/>
   <tile/>
   <tile/>
   <tile/>
   <tile/>
   <tile/>
   <tile/>
   <tile/>
   <tile/>
   <tile/>
   <tile/>
   <tile/>
   <tile/>
   <tile/>
   <tile/>
   <tile/>
   <tile/>
   <tile/>
   <tile/>
   <tile/>
   <tile/>
   <tile/>
   <tile/>
   <tile/>
   <tile/>
   <tile/>
   <tile/>
   <tile/>
   <tile/>
   <tile/>
   <tile/>
   <tile/>
   <tile/>
   <tile/>
   <tile/>
   <tile/>
   <tile/>
   <tile/>
   <tile/>
   <tile/>
   <tile/>
   <tile/>
   <tile/>
   <tile/>
   <tile/>
   <tile/>
   <tile/>
   <tile/>
   <tile/>
   <tile/>
   <tile/>
   <tile/>
   <tile/>
   <tile/>
   <tile/>
   <tile/>
   <tile/>
   <tile/>
   <tile/>
   <tile/>
   <tile/>
   <tile/>
   <tile/>
   <tile/>
   <tile/>
   <tile/>
   <tile/>
   <tile/>
   <tile/>
   <tile/>
   <tile/>
   <tile/>
   <tile/>
   <tile/>
   <tile/>
   <tile/>
   <tile/>
   <tile/>
   <tile/>
   <tile/>
   <tile/>
   <tile/>
   <tile/>
   <tile/>
   <tile/>
   <tile/>
   <tile/>
   <tile/>
   <tile/>
   <tile/>
   <tile/>
   <tile/>
   <tile/>
   <tile/>
   <tile/>
   <tile/>
  </data>
 </layer>
</map>
