<?xml version="1.0" encoding="UTF-8"?>
<map version="1.10" tiledversion="1.12.0" orientation="orthogonal" renderorder="right-down" width="31" height="14" tilewidth="128" tileheight="128" infinite="0" nextlayerid="7" nextobjectid="1">
 <tileset firstgid="1" source="test2_tileset.tsx"/>
 <tileset firstgid="4" source="tileset_lvl4_General_01.tsx"/>
 <layer id="2" name="Background" width="31" height="14">
  <data encoding="csv">
248,248,248,248,248,248,248,248,248,248,248,248,248,248,248,248,248,248,248,248,248,248,248,248,248,248,248,248,248,248,248,
248,248,248,248,248,248,248,248,248,248,248,248,248,248,248,248,248,248,248,248,248,248,215,248,248,248,248,248,248,248,248,
248,248,248,248,248,248,248,248,248,248,248,248,248,248,248,248,248,248,248,248,248,248,248,602,248,248,248,248,248,248,248,
248,248,215,248,248,248,248,248,248,248,248,248,248,248,248,248,248,215,248,248,248,248,642,248,248,248,248,248,248,247,248,
248,248,248,602,248,248,248,248,248,248,248,248,247,248,248,248,247,248,610,248,215,248,248,248,248,248,248,248,248,248,248,
248,248,642,248,248,248,248,248,248,247,248,248,248,248,248,248,248,248,642,248,248,215,248,248,247,248,248,247,248,248,248,
248,248,248,248,248,248,248,248,248,248,248,248,248,248,248,248,248,247,248,248,248,248,248,248,216,248,248,216,248,248,247,
248,215,248,248,247,248,248,247,248,248,248,248,247,248,248,248,248,248,248,248,248,642,248,248,248,248,248,248,247,248,248,
248,248,248,248,216,248,248,216,248,248,247,248,610,248,248,247,248,248,248,215,248,248,215,248,248,248,248,248,248,248,248,
248,248,248,248,248,248,248,248,248,248,248,248,642,248,248,216,248,248,248,248,215,248,248,602,248,248,248,248,248,248,248,
248,248,248,248,248,248,248,248,248,248,248,247,248,248,248,248,248,247,248,248,248,248,642,248,248,248,248,248,248,247,248,
248,248,825,826,827,828,829,830,831,825,826,827,828,829,830,831,832,833,834,248,825,248,248,248,248,248,248,248,248,248,248,
248,248,248,248,248,248,248,248,248,248,248,248,248,248,248,248,248,248,248,248,248,215,248,248,247,248,248,247,248,248,248,
248,248,248,248,248,248,248,248,248,248,248,248,248,248,248,248,248,248,248,248,248,248,248,248,216,248,248,216,248,248,247
</data>
 </layer>
 <layer id="6" name="Tuberias" width="31" height="14">
  <data encoding="csv">
0,0,0,0,0,0,0,0,0,0,0,0,0,0,0,0,0,0,0,0,0,0,0,0,0,0,0,0,0,0,0,
0,0,0,0,0,0,0,0,0,0,0,0,0,0,0,0,0,0,0,0,0,0,0,0,0,0,0,0,0,0,0,
0,0,0,0,0,0,0,0,0,0,0,0,0,0,0,0,0,0,0,0,0,0,0,0,0,0,0,0,0,0,0,
0,0,0,0,0,614,0,0,0,0,0,0,616,613,618,0,0,0,0,0,0,0,0,0,0,0,0,0,614,0,0,
0,0,0,0,0,619,613,613,678,613,613,613,618,0,0,0,0,0,0,0,0,0,0,0,0,0,0,0,619,613,0,
0,0,0,0,0,0,0,0,587,0,0,0,0,0,0,0,0,0,0,0,0,0,0,0,0,0,0,0,0,0,0,
0,0,0,0,0,0,0,0,0,0,0,0,0,0,0,0,0,0,0,0,0,0,0,0,0,0,0,0,616,613,0,
0,0,0,0,0,0,0,0,0,0,0,0,0,0,0,0,0,0,0,0,0,0,0,0,0,0,621,678,618,0,0,
0,0,0,0,0,0,0,0,0,0,0,0,0,0,0,0,0,0,0,0,0,0,0,0,0,0,0,680,613,617,0,
0,0,0,0,0,0,0,0,0,0,0,0,0,0,0,0,0,0,0,0,0,0,0,0,0,0,0,614,0,619,0,
0,0,0,0,0,0,0,0,0,0,0,0,0,0,0,0,0,0,0,0,0,0,0,0,0,0,0,614,0,0,0,
0,0,0,0,0,0,0,0,0,0,0,0,0,0,0,0,0,0,0,0,0,0,0,0,0,0,0,0,0,0,0,
0,0,0,0,0,0,0,0,0,0,0,0,0,0,0,0,0,0,0,0,0,0,0,0,0,0,0,0,0,0,0,
0,0,0,0,0,0,0,0,0,0,0,0,0,0,0,0,0,0,0,0,0,0,0,0,0,0,0,0,0,0,0
</data>
 </layer>
 <layer id="5" name="bg assets" width="31" height="14">
  <data encoding="csv">
0,0,0,0,0,0,0,0,0,0,0,0,0,0,0,0,0,0,0,0,0,0,0,0,0,0,0,0,0,0,0,
0,0,0,0,0,0,0,0,0,0,0,0,0,0,0,0,0,0,0,0,0,0,0,0,0,0,0,0,0,0,0,
0,0,0,0,0,0,0,0,0,0,0,0,0,0,0,0,0,0,0,0,0,0,0,0,0,0,0,0,0,0,0,
0,0,0,0,0,0,0,0,0,0,0,0,0,0,0,0,0,0,0,0,601,602,603,604,605,606,607,608,609,610,0,
0,0,0,0,0,0,0,0,0,0,0,0,0,0,0,0,0,0,0,0,633,634,635,636,637,638,639,640,641,642,0,
0,0,0,0,0,0,0,0,0,0,0,0,0,0,0,0,0,0,0,0,665,666,667,668,669,670,671,672,673,674,0,
0,0,0,0,0,0,0,0,0,0,0,0,0,0,0,0,0,0,0,0,697,698,699,700,701,702,703,704,705,706,0,
0,0,0,0,0,0,0,0,0,0,0,0,0,0,0,0,0,0,0,0,729,730,731,732,733,734,735,736,737,738,0,
0,0,0,0,0,0,0,0,0,0,0,0,0,0,0,0,0,0,0,0,761,762,763,764,765,766,767,768,769,770,0,
0,0,0,0,0,0,0,0,0,0,0,0,0,0,0,0,0,0,0,0,793,794,795,796,797,798,799,800,801,802,0,
0,0,0,0,0,0,0,0,0,0,0,0,0,0,0,0,0,0,0,0,825,826,827,828,829,830,831,832,833,834,0,
0,0,0,0,0,0,0,0,0,0,0,0,0,0,0,0,0,0,0,0,0,0,0,0,0,0,0,0,0,0,0,
0,0,0,0,0,0,0,0,0,0,0,0,0,0,0,0,0,0,0,0,0,0,0,0,0,0,0,0,0,0,0,
0,0,0,0,0,0,0,0,0,0,0,0,0,0,0,0,0,0,0,0,0,0,0,0,0,0,0,0,0,0,0
</data>
 </layer>
 <layer id="3" name="Assets" width="31" height="14">
  <data encoding="csv">
0,0,0,0,0,0,0,0,0,0,0,0,0,0,0,0,0,0,0,0,0,0,0,0,0,0,0,0,0,0,0,
0,0,0,0,0,0,0,0,0,0,0,0,0,0,0,0,0,0,0,0,0,0,0,0,0,0,0,0,0,0,0,
0,0,0,0,0,0,0,0,0,0,0,0,0,0,0,0,0,0,0,0,0,0,0,0,0,0,0,0,0,0,0,
0,0,0,0,0,0,0,614,0,0,0,0,0,0,0,0,0,0,0,0,0,0,0,0,0,0,0,0,0,0,0,
0,0,0,0,0,0,0,679,0,0,0,0,0,0,0,0,0,0,0,0,0,0,0,0,0,0,0,0,0,0,0,
0,0,0,0,0,0,0,0,0,0,0,0,0,0,0,0,0,0,0,0,0,0,0,0,0,0,0,0,0,0,0,
0,0,0,0,0,0,224,225,0,0,0,0,0,0,0,0,0,0,0,0,0,0,0,0,224,225,0,0,0,0,0,
0,0,0,0,0,255,256,257,258,0,0,0,0,0,0,0,0,0,0,0,175,176,0,255,256,257,258,0,0,0,0,
0,0,0,0,0,287,288,289,290,0,0,0,0,0,0,0,0,0,0,0,207,208,0,287,288,289,290,0,0,0,0,
0,0,0,0,0,319,320,321,322,0,0,0,0,0,0,0,0,0,0,0,239,240,0,319,320,321,322,0,0,0,0,
0,0,0,0,0,351,352,353,354,0,0,0,0,0,0,0,0,0,0,0,271,272,0,351,352,353,354,0,0,0,0,
0,0,0,0,0,0,0,0,0,0,0,0,0,0,0,0,0,0,0,0,0,0,0,0,0,0,0,0,0,0,0,
0,0,0,0,0,0,0,0,0,0,0,0,0,0,0,0,0,0,0,0,0,0,0,0,0,0,0,0,0,0,0,
0,0,0,0,0,0,0,0,0,0,0,0,0,0,0,0,0,0,0,0,0,0,0,0,0,0,0,0,0,0,0
</data>
 </layer>
 <layer id="1" name="Map" width="31" height="14">
  <data encoding="csv">
83,82,83,82,83,82,83,83,83,83,83,83,82,83,82,82,82,83,82,83,82,82,82,82,82,83,82,82,82,82,82,
84,84,82,82,82,84,84,82,84,82,84,82,84,82,84,84,84,82,84,82,82,82,84,82,84,84,82,82,84,82,82,
116,116,114,115,114,114,114,115,116,116,116,116,116,116,116,114,114,116,116,114,115,114,115,114,115,114,116,115,116,116,116,
0,0,0,0,0,0,0,0,0,0,0,0,0,0,0,0,0,0,0,0,0,0,0,0,0,0,0,0,0,0,81,
0,0,0,0,0,0,0,0,0,0,0,0,0,0,0,0,0,0,0,0,0,0,0,0,0,0,0,0,0,0,81,
0,0,0,0,0,0,0,0,0,0,0,0,0,0,0,0,0,0,0,0,0,0,0,0,0,0,0,0,0,0,81,
0,0,0,0,0,0,0,0,0,0,0,0,0,0,0,0,3,3,3,3,0,0,0,0,0,0,0,0,0,0,81,
0,0,0,0,0,0,0,0,0,0,0,0,0,0,0,0,3,3,3,3,0,0,0,0,0,0,0,0,0,0,81,
0,0,0,0,0,0,0,0,0,0,0,0,0,0,0,0,3,3,3,3,0,0,0,0,0,0,0,0,0,0,81,
0,0,0,0,0,0,0,0,0,0,0,2,0,0,0,0,3,0,0,0,0,0,0,0,0,0,0,0,0,0,81,
0,0,0,0,0,0,0,0,0,0,2,2,2,0,0,0,3,0,0,0,0,0,0,0,0,0,0,0,0,0,81,
52,51,51,51,50,52,51,52,50,50,50,51,50,50,50,50,51,52,51,50,50,51,51,50,50,52,50,52,52,51,52,
82,82,82,82,84,82,84,84,84,82,84,82,84,84,82,84,82,84,84,84,84,82,82,82,84,84,82,84,84,84,82,
83,82,83,82,82,82,83,83,82,82,83,82,82,82,82,83,83,82,83,83,82,82,83,83,83,83,83,82,83,82,82
</data>
 </layer>
</map>
