<?xml version="1.0" encoding="UTF-8"?>
<map version="1.10" tiledversion="1.11.2" orientation="orthogonal" renderorder="right-down" width="40" height="20" tilewidth="128" tileheight="128" infinite="0" nextlayerid="9" nextobjectid="5">
 <tileset firstgid="1" source="test2_tileset.tsx"/>
 <tileset firstgid="4" source="tileset_lvl4_General_01.tsx"/>
 <tileset firstgid="932" source="hab reina foreground cortinas.tsx"/>
 <tileset firstgid="933" source="habitacion reina.tsx"/>
 <objectgroup id="7" name="Background" parallaxx="0.9">
  <object id="2" gid="933" x="128" y="2455" width="4188" height="2094"/>
 </objectgroup>
 <layer id="3" name="Bg Assets" width="40" height="20">
  <data encoding="csv">
0,0,0,0,0,0,0,0,0,0,0,0,0,0,0,0,0,0,0,0,0,0,0,0,0,0,0,0,0,0,0,0,0,0,0,0,0,0,0,0,
0,0,0,0,0,0,0,0,0,0,0,0,0,0,0,0,0,0,0,0,0,0,0,0,0,0,0,0,0,0,0,0,0,0,0,0,0,0,0,0,
0,0,0,0,0,0,0,0,0,0,0,0,0,0,0,0,0,0,0,0,0,0,0,0,0,0,0,0,0,0,0,0,0,0,0,0,0,0,0,0,
0,0,0,0,0,0,0,0,0,0,0,0,0,0,0,0,0,0,0,0,0,0,0,0,0,0,0,0,0,0,0,0,0,0,0,0,0,0,0,0,
0,0,0,0,0,0,0,0,0,0,0,0,0,0,0,0,0,0,0,0,0,0,0,0,0,0,0,0,0,0,0,0,0,0,0,0,0,0,0,0,
0,0,0,0,0,0,0,0,0,0,0,0,0,0,0,0,0,0,0,0,0,0,0,0,0,0,0,0,0,0,0,0,0,0,0,0,0,0,0,0,
0,0,0,0,0,0,0,0,0,0,0,0,0,0,0,0,0,0,0,0,0,0,0,0,0,0,0,0,0,0,0,0,0,0,0,0,0,0,0,0,
0,0,0,0,0,0,0,0,0,0,0,0,0,0,0,0,0,0,0,0,0,0,0,0,0,0,0,0,0,0,0,0,0,0,0,0,0,0,0,0,
0,0,0,0,0,0,0,0,0,0,0,0,0,0,0,0,0,0,0,0,0,0,0,0,0,0,0,0,0,0,0,0,0,0,0,0,0,0,0,0,
0,0,0,0,0,0,0,0,0,0,0,0,0,0,0,0,0,0,0,0,0,0,0,0,0,0,0,0,0,0,0,0,0,0,0,0,0,0,0,0,
0,0,0,0,0,0,0,0,0,0,0,0,0,0,0,0,0,0,0,0,0,0,0,0,0,0,0,0,0,0,0,0,0,0,0,0,0,0,0,0,
0,0,0,0,0,0,0,0,0,0,0,0,0,0,0,0,0,0,0,0,0,0,0,0,0,0,0,0,0,0,0,0,0,0,0,0,0,0,0,0,
248,248,248,248,248,0,0,0,0,0,0,0,0,0,0,0,0,0,0,0,0,0,0,0,0,0,0,0,0,0,0,0,0,0,0,0,0,0,0,0,
248,248,247,248,248,0,0,0,0,0,0,0,0,0,0,0,0,0,0,0,0,0,0,0,0,0,0,0,0,0,0,0,0,0,0,0,0,0,0,0,
248,183,248,248,248,0,0,0,175,176,0,0,0,441,0,0,0,0,0,0,0,0,0,0,0,0,0,0,0,0,0,0,0,0,0,0,0,0,0,0,
248,248,248,248,248,0,0,0,207,208,0,0,0,473,0,0,0,0,0,0,0,0,0,0,0,0,0,0,0,0,0,0,0,0,0,0,0,0,0,0,
248,184,248,248,247,0,0,0,239,240,0,0,0,505,0,0,0,0,0,0,0,0,0,0,0,0,0,0,0,0,0,0,0,0,0,0,0,0,0,0,
248,248,248,248,248,0,0,0,271,272,0,0,0,537,0,0,0,0,0,0,0,0,0,0,0,0,0,0,0,0,0,0,0,0,0,0,0,0,0,0,
0,0,0,0,0,0,0,0,0,0,0,0,0,0,0,0,0,0,0,0,0,0,0,0,0,0,0,0,0,0,0,0,0,0,0,0,0,0,0,0,
0,0,0,0,0,0,0,0,0,0,0,0,0,0,0,0,0,0,0,0,0,0,0,0,0,0,0,0,0,0,0,0,0,0,0,0,0,0,0,0
</data>
 </layer>
 <layer id="2" name="Assets" width="40" height="20">
  <data encoding="csv">
1,1,1,1,1,1,1,1,1,1,1,1,1,1,1,1,1,1,1,1,1,1,1,1,1,1,1,1,1,1,1,1,1,1,1,1,1,1,1,1,
1,1,1,1,1,1,1,1,1,1,1,1,1,1,1,1,1,1,1,1,1,1,1,1,1,1,1,1,1,1,1,1,1,1,1,1,1,1,1,1,
1,1,1,1,1,1,1,1,1,1,1,1,1,1,1,1,1,1,1,1,1,1,1,1,1,1,1,1,1,1,1,1,1,1,1,1,1,1,1,1,
1,1,1,1,1,1,1,1,1,1,1,1,1,1,1,1,1,1,1,1,2147483649,2147483649,2147483649,2147483649,2147483649,2147483649,2147483649,2147483649,2147483649,1,1,1,1,1,1,1,1,1,1,1,
1,1,1,1,1,1,1,1,1,1,1,0,0,0,0,0,0,0,0,0,0,0,0,0,0,0,0,0,2147483649,2147483649,2147483649,2147483649,1,1,1,1,1,1,1,1,
1,1,1,1,1,1,1,1,0,0,0,0,0,0,0,0,0,0,0,0,0,0,0,0,0,0,0,0,0,0,0,2147483649,2147483649,1,1,1,1,1,1,1,
1,1,1,1,1,1,1,0,0,0,0,0,0,0,0,0,0,0,0,0,0,0,0,0,0,0,0,0,0,0,0,0,2147483649,2147483649,1,1,1,1,1,1,
1,1,1,1,1,1,0,0,0,0,0,0,0,0,0,0,0,0,0,0,0,0,0,0,0,0,0,0,0,0,0,0,0,2147483649,1,1,1,1,1,1,
1,1,1,1,1,1,0,0,0,0,0,0,0,0,0,0,0,0,0,0,0,0,0,0,0,0,0,0,0,0,0,0,0,2147483649,1,1,1,1,1,1,
1,1,1,1,1,1,0,0,0,0,0,0,0,0,0,0,0,0,0,0,0,0,4,5,6,7,8,9,10,11,12,13,0,2147483649,2147483649,1,1,1,1,1,
1,1,1,1,1,0,0,0,0,0,0,0,0,0,0,0,0,0,0,0,0,0,36,37,38,39,40,41,42,43,44,45,0,0,2147483649,1,1,1,1,1,
1,1,1,1,1,0,0,0,0,0,0,0,0,0,0,0,340,341,342,343,344,0,68,69,70,71,72,73,74,75,76,77,0,0,2147483649,1,1,1,1,1,
0,0,0,0,0,0,0,0,0,0,0,0,0,0,0,0,372,373,374,375,376,0,100,101,102,103,104,105,106,107,108,109,0,0,2147483649,1,1,1,1,1,
0,0,0,0,0,0,0,0,0,0,0,0,0,0,0,0,404,405,406,407,408,0,132,133,134,135,136,137,138,139,140,141,0,0,2147483649,1,1,1,1,1,
0,0,0,0,0,0,0,0,0,0,0,0,0,0,0,0,436,437,438,439,440,0,164,165,166,167,168,169,170,171,172,173,0,0,2147483649,1,1,1,1,1,
0,0,0,0,0,0,0,0,0,0,210,211,212,213,0,0,468,469,470,471,472,0,196,197,198,199,200,201,202,203,204,205,0,0,2147483649,1,1,1,1,1,
0,0,0,0,0,0,0,0,0,0,242,243,244,245,0,0,500,501,502,503,504,0,228,229,230,231,232,233,234,235,236,237,0,0,2147483649,1,1,1,1,1,
0,0,0,0,0,0,0,0,0,0,274,275,276,277,0,0,532,533,534,535,536,0,260,261,262,263,264,265,266,267,268,269,0,0,2147483649,1,1,1,1,1,
1,1,1,1,1,1,1,1,1,1,1,1,1,1,1,1,1,1,1,0,0,0,0,0,0,0,0,0,0,0,0,0,1,1,1,1,1,1,1,1,
1,1,1,1,1,1,1,1,1,1,1,1,1,1,1,1,1,1,1,1,1,1,1,1,1,1,1,1,1,1,1,1,1,1,1,1,1,1,1,1
</data>
 </layer>
 <layer id="8" name="map" width="40" height="20">
  <data encoding="csv">
83,83,83,83,83,83,83,83,83,83,83,83,83,83,83,83,83,83,83,83,83,83,83,83,83,83,83,83,83,83,83,83,83,83,83,83,83,83,83,83,
83,83,83,83,83,83,83,83,83,83,83,83,83,83,83,83,83,83,83,83,83,83,83,83,83,83,83,83,83,83,83,83,83,83,83,83,83,83,83,83,
83,83,83,83,83,83,84,84,82,84,84,82,84,82,84,84,82,82,84,82,84,82,82,84,84,82,84,84,82,84,84,84,83,83,83,83,83,83,83,83,
83,83,83,2147483730,2147483730,84,84,2147483730,2147483730,2147483762,2147483764,2147483763,2147483764,2147483763,2147483762,2147483763,2147483763,2147483763,2147483762,115,114,115,115,115,114,115,116,115,116,114,82,84,82,82,82,82,83,83,83,83,
83,83,83,83,84,82,2147483730,2147483764,2147483763,2147483762,2147483761,0,0,0,0,0,0,0,0,0,0,0,0,0,0,0,0,0,113,114,115,116,82,84,82,83,83,83,83,83,
83,83,83,2147483730,84,2147483730,2147483729,2147483761,0,0,0,0,0,0,0,0,0,0,0,0,0,0,0,0,0,0,0,0,0,0,0,113,81,82,84,82,83,83,83,83,
83,83,83,2147483730,84,2147483729,2147483761,0,0,0,0,0,0,0,0,0,0,0,0,0,0,0,0,0,0,0,0,0,0,0,0,0,113,81,82,82,83,83,83,83,
83,83,83,2147483730,82,2147483729,0,0,0,0,0,0,0,0,0,0,0,0,0,0,0,0,0,0,0,0,0,0,0,0,0,0,0,81,82,82,83,83,83,83,
83,83,83,84,2147483730,2147483729,0,0,0,0,0,0,0,0,0,0,0,0,0,0,0,0,0,0,0,0,0,0,0,0,0,0,0,81,82,82,83,83,83,83,
83,83,83,82,2147483730,2147483761,0,0,0,0,0,0,0,0,0,0,0,0,0,0,0,0,0,0,0,0,0,0,0,0,0,0,0,113,82,82,83,83,83,83,
84,84,84,84,2147483729,0,0,0,0,0,0,0,0,0,0,0,0,0,0,0,0,0,0,0,0,0,0,0,0,0,0,0,0,0,81,82,83,83,83,83,
114,114,115,116,117,0,0,0,0,0,0,0,0,0,0,0,0,0,0,0,0,0,0,0,0,0,0,0,0,0,0,0,0,0,81,82,83,83,83,83,
0,0,0,0,0,0,0,0,0,0,0,0,0,0,0,0,0,0,0,0,0,0,0,0,0,0,0,0,0,0,0,0,0,0,81,84,83,83,83,83,
0,0,0,0,0,0,0,0,0,0,0,0,0,0,0,0,0,0,0,0,0,0,0,0,0,0,0,0,0,0,0,0,0,0,81,82,83,83,83,83,
0,0,0,0,0,0,0,0,0,0,0,0,0,0,0,0,0,0,0,0,0,0,0,0,0,0,0,0,0,0,0,0,0,0,81,82,83,83,83,83,
0,0,0,0,0,0,0,0,0,0,0,0,0,0,0,0,0,0,0,0,0,0,0,0,0,0,0,0,0,0,0,0,0,0,81,82,83,83,83,83,
0,0,0,0,0,0,0,0,0,0,0,0,0,0,0,0,0,0,0,0,0,0,0,0,0,0,0,0,0,0,0,0,0,0,81,84,83,83,83,83,
0,0,0,0,0,0,0,0,0,0,0,0,0,0,0,0,0,0,0,0,0,0,0,0,0,0,0,0,0,0,0,0,0,0,81,82,83,83,83,83,
51,51,50,50,50,51,52,50,50,50,50,52,50,52,51,51,52,51,51,51,50,50,51,52,52,50,52,52,52,51,51,50,50,50,52,50,82,83,83,83,
82,82,82,82,82,82,82,84,84,82,84,84,82,84,82,84,82,82,84,82,84,84,84,84,82,84,82,84,82,82,84,82,84,82,82,84,82,83,83,83
</data>
 </layer>
 <objectgroup id="6" name="Foreground Cortinas" parallaxx="1.1">
  <object id="1" gid="932" x="568" y="2432" width="4232" height="1924"/>
 </objectgroup>
</map>
